
; ### Ellis' Pressure Advance / Linear Advance Calibration Tool ###
;
; Original Marlin linear advance calibration tool by Sineos [https://github.com/Sineos]
; Heavily modified/rewritten by Andrew Ellis [https://github.com/AndrewEllis93]
;
; -------------------------------------------
; Generated: Tue Feb 04 2025 14:26:32 GMT+0100 (heure normale d’Europe centrale)
; -------------------------------------------
;
; Advanced Mode: false
;
; Printer:
;  - Firmware: klipper
;  - Bed Shape: Rect
;  - Bed Size X: 350 mm
;  - Bed Size Y: 350 mm
;  - Origin Bed Center: false
;  - Travel Speed: 120 mm/s
;  - Nozzle Diameter: 0.4 mm
;  - Filament Diameter: 1.75 mm
;  - Extrusion Multiplier: 0.98
;
; Retraction / Z Hop:
;  - Retraction Distance: 2 mm
;  - Retract Speed: 46 mm/s
;  - Unretract Speed: 46 mm/s
;  - Z Hop Enable: true
;  - Z Hop Height: 0.1mm
;
; First Layer Settings:
;  - First Layer Height: 0.2 mm
;  - First Layer Printing Speed: 30 mm/s
;  - First Layer Fan Speed: 0%
;  - Anchor Option: anchor_frame
;
; Print Settings:
;  - Layer Height: 0.2 mm
;  - Print Speed: 50 mm/s
;  - Acceleration: Disabled
;  - Fan Speed: 50%
;
; Pressure Advance Stepping:
;  - PA Start Value: 0
;  - PA End Value: 0.08
;  - PA Increment: 0.005
;
; Start / End G-code:
;  - Hotend Temp: 205C
;  - Bed Temp: 55C
;  - Don't Add G28: false
;  - Don't Add Heating G-Codes: false
;  - Entered Start G-code: 
;       G28 ; Home all axes
;       M190 S55 ; Set & wait for bed temp
;       M109 S205 ; Set & wait for hotend temp
;       ; ; print_start EXTRUDER=205 BED=55 CHAMBER=0
;  - Entered End G-code: 
;       PRINT_END ; End macro. Change name to match yours
;
; Calculated Values:
;  - Print Size X: 84.76 mm
;  - Print Size Y: 53.99 mm
;  - Number of Patterns to Print: 17
;  - PA Values: 0, 0.005, 0.01, 0.015, 0.02, 0.025, 0.03, 0.035, 0.04, 0.045, 0.05, 0.055, 0.06, 0.065, 0.07, 0.075, 0.08
;
; Prepare printing
;
G28 ; Home all axes
M190 S55 ; Set & wait for bed temp
M109 S205 ; Set & wait for hotend temp
; ; print_start EXTRUDER=205 BED=55 CHAMBER=0
G21 ; Millimeter units
G90 ; Absolute XYZ
M83 ; Relative E
G92 E0 ; Reset extruder distance
;
;  Begin printing
;
M106 S0 ; Set fan speed
G1 E-2 F2760 ; Retract
G0 Z5 F7200 ; Z raise
G0 X132.6202 Y148.0068 F7200 ; Move to start position
G0 Z0.2 F7200 ; Move to start layer height
G1 E2 F2760 ; Un-retract
SET_PRESSURE_ADVANCE ADVANCE=0 ; Set pressure advance to start value
M117 PA 0
G1 X132.6202 Y190.4332 E1.78766 F1800 ; Draw perimeter (up)
G1 X217.3798 Y190.4332 E3.57138 F1800 ; Draw perimeter (right)
G1 X217.3798 Y148.0068 E1.78766 F1800 ; Draw perimeter (down)
G1 X132.6202 Y148.0068 E3.57138 F1800 ; Draw perimeter (left)
G0 X133.1373 Y148.5239 F7200 ; Step inwards to print next perimeter
G1 X133.1373 Y189.9161 E1.74408 F1800 ; Draw perimeter (up)
G1 X216.8627 Y189.9161 E3.5278 F1800 ; Draw perimeter (right)
G1 X216.8627 Y148.5239 E1.74408 F1800 ; Draw perimeter (down)
G1 X133.1373 Y148.5239 E3.5278 F1800 ; Draw perimeter (left)
G0 X133.6544 Y149.041 F7200 ; Step inwards to print next perimeter
G1 X133.6544 Y189.399 E1.70051 F1800 ; Draw perimeter (up)
G1 X216.3456 Y189.399 E3.48423 F1800 ; Draw perimeter (right)
G1 X216.3456 Y149.041 E1.70051 F1800 ; Draw perimeter (down)
G1 X133.6544 Y149.041 E3.48423 F1800 ; Draw perimeter (left)
G0 X134.1715 Y149.558 F7200 ; Step inwards to print next perimeter
G1 X134.1715 Y188.882 E1.65693 F1800 ; Draw perimeter (up)
G1 X215.8285 Y188.882 E3.44066 F1800 ; Draw perimeter (right)
G1 X215.8285 Y149.558 E1.65693 F1800 ; Draw perimeter (down)
G1 X134.1715 Y149.558 E3.44066 F1800 ; Draw perimeter (left)
G1 E-2 F2760 ; Retract
G1 Z0.3 F7200 ; Z hop
G0 X132.6202 Y190.9503 F7200 ; Move to box start
G1 Z0.2 F7200 ; Z hop return
G1 E2 F2760 ; Un-retract
G1 X132.6202 Y202.4674 E0.48528 F1800 ; Draw perimeter (up)
G1 X196.8747 Y202.4674 E2.70739 F1800 ; Draw perimeter (right)
G1 X196.8747 Y190.9503 E0.48528 F1800 ; Draw perimeter (down)
G1 X132.6202 Y190.9503 E2.70739 F1800 ; Draw perimeter (left)
G0 X133.1373 Y191.4674 F7200 ; Step inwards to print next perimeter
G1 X133.1373 Y201.9503 E0.4417 F1800 ; Draw perimeter (up)
G1 X196.3576 Y201.9503 E2.66382 F1800 ; Draw perimeter (right)
G1 X196.3576 Y191.4674 E0.4417 F1800 ; Draw perimeter (down)
G1 X133.1373 Y191.4674 E2.66382 F1800 ; Draw perimeter (left)
G0 X133.6544 Y191.9844 F7200 ; Step inwards to print next perimeter
G1 X133.6544 Y201.4332 E0.39813 F1800 ; Draw perimeter (up)
G1 X195.8406 Y201.4332 E2.62024 F1800 ; Draw perimeter (right)
G1 X195.8406 Y191.9844 E0.39813 F1800 ; Draw perimeter (down)
G1 X133.6544 Y191.9844 E2.62024 F1800 ; Draw perimeter (left)
G0 X134.1715 Y192.5015 F7200 ; Step inwards to print next perimeter
G1 X134.1715 Y200.9161 E0.35455 F1800 ; Draw perimeter (up)
G1 X195.3235 Y200.9161 E2.57667 F1800 ; Draw perimeter (right)
G1 X195.3235 Y192.5015 E0.35455 F1800 ; Draw perimeter (down)
G1 X134.1715 Y192.5015 E2.57667 F1800 ; Draw perimeter (left)
G0 X134.5448 Y192.8749 F7200 ; Move to fill start
G0 X135.2761 Y192.8749 F7200 ; Move
G1 X134.5448 Y193.6061 E0.04357 F1800 ; Fill
G0 X134.5448 Y194.3374 F7200 ; Move
G1 X136.0073 Y192.8749 E0.08715 F1800 ; Fill
G0 X136.7386 Y192.8749 F7200 ; Move
G1 X134.5448 Y195.0686 E0.13072 F1800 ; Fill
G0 X134.5448 Y195.7999 F7200 ; Move
G1 X137.4699 Y192.8749 E0.1743 F1800 ; Fill
G0 X138.2011 Y192.8749 F7200 ; Move
G1 X134.5448 Y196.5312 E0.21787 F1800 ; Fill
G0 X134.5448 Y197.2624 F7200 ; Move
G1 X138.9324 Y192.8749 E0.26145 F1800 ; Fill
G0 X139.6636 Y192.8749 F7200 ; Move
G1 X134.5448 Y197.9937 E0.30502 F1800 ; Fill
G0 X134.5448 Y198.7249 F7200 ; Move
G1 X140.3949 Y192.8749 E0.3486 F1800 ; Fill
G0 X141.1262 Y192.8749 F7200 ; Move
G1 X134.5448 Y199.4562 E0.39217 F1800 ; Fill
G0 X134.5448 Y200.1875 F7200 ; Move
G1 X141.8574 Y192.8749 E0.43575 F1800 ; Fill
G0 X142.5887 Y192.8749 F7200 ; Move
G1 X134.9207 Y200.5428 E0.45692 F1800 ; Fill
G0 X135.652 Y200.5428 F7200 ; Move
G1 X143.3199 Y192.8749 E0.45692 F1800 ; Fill
G0 X144.0512 Y192.8749 F7200 ; Move
G1 X136.3833 Y200.5428 E0.45692 F1800 ; Fill
G0 X137.1145 Y200.5428 F7200 ; Move
G1 X144.7825 Y192.8749 E0.45692 F1800 ; Fill
G0 X145.5137 Y192.8749 F7200 ; Move
G1 X137.8458 Y200.5428 E0.45692 F1800 ; Fill
G0 X138.5771 Y200.5428 F7200 ; Move
G1 X146.245 Y192.8749 E0.45692 F1800 ; Fill
G0 X146.9762 Y192.8749 F7200 ; Move
G1 X139.3083 Y200.5428 E0.45692 F1800 ; Fill
G0 X140.0396 Y200.5428 F7200 ; Move
G1 X147.7075 Y192.8749 E0.45692 F1800 ; Fill
G0 X148.4388 Y192.8749 F7200 ; Move
G1 X140.7708 Y200.5428 E0.45692 F1800 ; Fill
G0 X141.5021 Y200.5428 F7200 ; Move
G1 X149.17 Y192.8749 E0.45692 F1800 ; Fill
G0 X149.9013 Y192.8749 F7200 ; Move
G1 X142.2334 Y200.5428 E0.45692 F1800 ; Fill
G0 X142.9646 Y200.5428 F7200 ; Move
G1 X150.6326 Y192.8749 E0.45692 F1800 ; Fill
G0 X151.3638 Y192.8749 F7200 ; Move
G1 X143.6959 Y200.5428 E0.45692 F1800 ; Fill
G0 X144.4271 Y200.5428 F7200 ; Move
G1 X152.0951 Y192.8749 E0.45692 F1800 ; Fill
G0 X152.8263 Y192.8749 F7200 ; Move
G1 X145.1584 Y200.5428 E0.45692 F1800 ; Fill
G0 X145.8897 Y200.5428 F7200 ; Move
G1 X153.5576 Y192.8749 E0.45692 F1800 ; Fill
G0 X154.2889 Y192.8749 F7200 ; Move
G1 X146.6209 Y200.5428 E0.45692 F1800 ; Fill
G0 X147.3522 Y200.5428 F7200 ; Move
G1 X155.0201 Y192.8749 E0.45692 F1800 ; Fill
G0 X155.7514 Y192.8749 F7200 ; Move
G1 X148.0834 Y200.5428 E0.45692 F1800 ; Fill
G0 X148.8147 Y200.5428 F7200 ; Move
G1 X156.4826 Y192.8749 E0.45692 F1800 ; Fill
G0 X157.2139 Y192.8749 F7200 ; Move
G1 X149.546 Y200.5428 E0.45692 F1800 ; Fill
G0 X150.2772 Y200.5428 F7200 ; Move
G1 X157.9452 Y192.8749 E0.45692 F1800 ; Fill
G0 X158.6764 Y192.8749 F7200 ; Move
G1 X151.0085 Y200.5428 E0.45692 F1800 ; Fill
G0 X151.7398 Y200.5428 F7200 ; Move
G1 X159.4077 Y192.8749 E0.45692 F1800 ; Fill
G0 X160.1389 Y192.8749 F7200 ; Move
G1 X152.471 Y200.5428 E0.45692 F1800 ; Fill
G0 X153.2023 Y200.5428 F7200 ; Move
G1 X160.8702 Y192.8749 E0.45692 F1800 ; Fill
G0 X161.6015 Y192.8749 F7200 ; Move
G1 X153.9335 Y200.5428 E0.45692 F1800 ; Fill
G0 X154.6648 Y200.5428 F7200 ; Move
G1 X162.3327 Y192.8749 E0.45692 F1800 ; Fill
G0 X163.064 Y192.8749 F7200 ; Move
G1 X155.3961 Y200.5428 E0.45692 F1800 ; Fill
G0 X156.1273 Y200.5428 F7200 ; Move
G1 X163.7953 Y192.8749 E0.45692 F1800 ; Fill
G0 X164.5265 Y192.8749 F7200 ; Move
G1 X156.8586 Y200.5428 E0.45692 F1800 ; Fill
G0 X157.5898 Y200.5428 F7200 ; Move
G1 X165.2578 Y192.8749 E0.45692 F1800 ; Fill
G0 X165.989 Y192.8749 F7200 ; Move
G1 X158.3211 Y200.5428 E0.45692 F1800 ; Fill
G0 X159.0524 Y200.5428 F7200 ; Move
G1 X166.7203 Y192.8749 E0.45692 F1800 ; Fill
G0 X167.4516 Y192.8749 F7200 ; Move
G1 X159.7836 Y200.5428 E0.45692 F1800 ; Fill
G0 X160.5149 Y200.5428 F7200 ; Move
G1 X168.1828 Y192.8749 E0.45692 F1800 ; Fill
G0 X168.9141 Y192.8749 F7200 ; Move
G1 X161.2461 Y200.5428 E0.45692 F1800 ; Fill
G0 X161.9774 Y200.5428 F7200 ; Move
G1 X169.6453 Y192.8749 E0.45692 F1800 ; Fill
G0 X170.3766 Y192.8749 F7200 ; Move
G1 X162.7087 Y200.5428 E0.45692 F1800 ; Fill
G0 X163.4399 Y200.5428 F7200 ; Move
G1 X171.1079 Y192.8749 E0.45692 F1800 ; Fill
G0 X171.8391 Y192.8749 F7200 ; Move
G1 X164.1712 Y200.5428 E0.45692 F1800 ; Fill
G0 X164.9025 Y200.5428 F7200 ; Move
G1 X172.5704 Y192.8749 E0.45692 F1800 ; Fill
G0 X173.3016 Y192.8749 F7200 ; Move
G1 X165.6337 Y200.5428 E0.45692 F1800 ; Fill
G0 X166.365 Y200.5428 F7200 ; Move
G1 X174.0329 Y192.8749 E0.45692 F1800 ; Fill
G0 X174.7642 Y192.8749 F7200 ; Move
G1 X167.0962 Y200.5428 E0.45692 F1800 ; Fill
G0 X167.8275 Y200.5428 F7200 ; Move
G1 X175.4954 Y192.8749 E0.45692 F1800 ; Fill
G0 X176.2267 Y192.8749 F7200 ; Move
G1 X168.5588 Y200.5428 E0.45692 F1800 ; Fill
G0 X169.29 Y200.5428 F7200 ; Move
G1 X176.958 Y192.8749 E0.45692 F1800 ; Fill
G0 X177.6892 Y192.8749 F7200 ; Move
G1 X170.0213 Y200.5428 E0.45692 F1800 ; Fill
G0 X170.7525 Y200.5428 F7200 ; Move
G1 X178.4205 Y192.8749 E0.45692 F1800 ; Fill
G0 X179.1517 Y192.8749 F7200 ; Move
G1 X171.4838 Y200.5428 E0.45692 F1800 ; Fill
G0 X172.2151 Y200.5428 F7200 ; Move
G1 X179.883 Y192.8749 E0.45692 F1800 ; Fill
G0 X180.6143 Y192.8749 F7200 ; Move
G1 X172.9463 Y200.5428 E0.45692 F1800 ; Fill
G0 X173.6776 Y200.5428 F7200 ; Move
G1 X181.3455 Y192.8749 E0.45692 F1800 ; Fill
G0 X182.0768 Y192.8749 F7200 ; Move
G1 X174.4088 Y200.5428 E0.45692 F1800 ; Fill
G0 X175.1401 Y200.5428 F7200 ; Move
G1 X182.808 Y192.8749 E0.45692 F1800 ; Fill
G0 X183.5393 Y192.8749 F7200 ; Move
G1 X175.8714 Y200.5428 E0.45692 F1800 ; Fill
G0 X176.6026 Y200.5428 F7200 ; Move
G1 X184.2706 Y192.8749 E0.45692 F1800 ; Fill
G0 X185.0018 Y192.8749 F7200 ; Move
G1 X177.3339 Y200.5428 E0.45692 F1800 ; Fill
G0 X178.0651 Y200.5428 F7200 ; Move
G1 X185.7331 Y192.8749 E0.45692 F1800 ; Fill
G0 X186.4643 Y192.8749 F7200 ; Move
G1 X178.7964 Y200.5428 E0.45692 F1800 ; Fill
G0 X179.5277 Y200.5428 F7200 ; Move
G1 X187.1956 Y192.8749 E0.45692 F1800 ; Fill
G0 X187.9269 Y192.8749 F7200 ; Move
G1 X180.2589 Y200.5428 E0.45692 F1800 ; Fill
G0 X180.9902 Y200.5428 F7200 ; Move
G1 X188.6581 Y192.8749 E0.45692 F1800 ; Fill
G0 X189.3894 Y192.8749 F7200 ; Move
G1 X181.7215 Y200.5428 E0.45692 F1800 ; Fill
G0 X182.4527 Y200.5428 F7200 ; Move
G1 X190.1206 Y192.8749 E0.45692 F1800 ; Fill
G0 X190.8519 Y192.8749 F7200 ; Move
G1 X183.184 Y200.5428 E0.45692 F1800 ; Fill
G0 X183.9152 Y200.5428 F7200 ; Move
G1 X191.5832 Y192.8749 E0.45692 F1800 ; Fill
G0 X192.3144 Y192.8749 F7200 ; Move
G1 X184.6465 Y200.5428 E0.45692 F1800 ; Fill
G0 X185.3778 Y200.5428 F7200 ; Move
G1 X193.0457 Y192.8749 E0.45692 F1800 ; Fill
G0 X193.777 Y192.8749 F7200 ; Move
G1 X186.109 Y200.5428 E0.45692 F1800 ; Fill
G0 X186.8403 Y200.5428 F7200 ; Move
G1 X194.5082 Y192.8749 E0.45692 F1800 ; Fill
G0 X194.9501 Y193.1642 F7200 ; Move
G1 X187.5715 Y200.5428 E0.43968 F1800 ; Fill
G0 X188.3028 Y200.5428 F7200 ; Move
G1 X194.9501 Y193.8955 E0.3961 F1800 ; Fill
G0 X194.9501 Y194.6267 F7200 ; Move
G1 X189.0341 Y200.5428 E0.35253 F1800 ; Fill
G0 X189.7653 Y200.5428 F7200 ; Move
G1 X194.9501 Y195.358 E0.30896 F1800 ; Fill
G0 X194.9501 Y196.0892 F7200 ; Move
G1 X190.4966 Y200.5428 E0.26538 F1800 ; Fill
G0 X191.2278 Y200.5428 F7200 ; Move
G1 X194.9501 Y196.8205 E0.22181 F1800 ; Fill
G0 X194.9501 Y197.5518 F7200 ; Move
G1 X191.9591 Y200.5428 E0.17823 F1800 ; Fill
G0 X192.6904 Y200.5428 F7200 ; Move
G1 X194.9501 Y198.283 E0.13466 F1800 ; Fill
G0 X194.9501 Y199.0143 F7200 ; Move
G1 X193.4216 Y200.5428 E0.09108 F1800 ; Fill
G0 X194.1529 Y200.5428 F7200 ; Move
G1 X194.9501 Y199.7455 E0.04751 F1800 ; Fill
G0 X194.9501 Y200.4768 F7200 ; Move
G1 X194.8842 Y200.5428 E0.00393 F1800 ; Fill
G0 Z0.2 F7200 ; Move to layer height
G1 E-2 F2760 ; Retract
G1 Z0.3 F7200 ; Z hop
G0 X137.2491 Y149.9314 F7200 ; Move to pattern start

G1 Z0.2 F7200 ; Z hop return
G1 E2 F2760 ; Un-retract
SET_PRESSURE_ADVANCE ADVANCE=0 ; Set pressure advance
M117 PA 0
G1 X156.5377 Y169.22 E0.90487 F1800 ; Print pattern wall
G1 X137.2491 Y188.5086 E0.90487 F1800 ; Print pattern wall
G1 E-2 F2760 ; Retract
G1 Z0.3 F7200 ; Z hop
G0 X137.8248 Y149.9314 F7200 ; Move to start next pattern wall
G1 Z0.2 F7200 ; Z hop return
G1 E2 F2760 ; Un-retract
G1 X157.1134 Y169.22 E0.90487 F1800 ; Print pattern wall
G1 X137.8248 Y188.5086 E0.90487 F1800 ; Print pattern wall
G1 E-2 F2760 ; Retract
G1 Z0.3 F7200 ; Z hop
G0 X138.4005 Y149.9314 F7200 ; Move to start next pattern wall
G1 Z0.2 F7200 ; Z hop return
G1 E2 F2760 ; Un-retract
G1 X157.6891 Y169.22 E0.90487 F1800 ; Print pattern wall
G1 X138.4005 Y188.5086 E0.90487 F1800 ; Print pattern wall
G1 E-2 F2760 ; Retract
G1 Z0.3 F7200 ; Z hop
G0 X140.8505 Y149.9314 F7200 ; Move to next pattern
G1 Z0.2 F7200 ; Z hop return
G1 E2 F2760 ; Un-retract
SET_PRESSURE_ADVANCE ADVANCE=0.005 ; Set pressure advance
M117 PA 0.005
G1 X160.1391 Y169.22 E0.90487 F1800 ; Print pattern wall
G1 X140.8505 Y188.5086 E0.90487 F1800 ; Print pattern wall
G1 E-2 F2760 ; Retract
G1 Z0.3 F7200 ; Z hop
G0 X141.4262 Y149.9314 F7200 ; Move to start next pattern wall
G1 Z0.2 F7200 ; Z hop return
G1 E2 F2760 ; Un-retract
G1 X160.7148 Y169.22 E0.90487 F1800 ; Print pattern wall
G1 X141.4262 Y188.5086 E0.90487 F1800 ; Print pattern wall
G1 E-2 F2760 ; Retract
G1 Z0.3 F7200 ; Z hop
G0 X142.0019 Y149.9314 F7200 ; Move to start next pattern wall
G1 Z0.2 F7200 ; Z hop return
G1 E2 F2760 ; Un-retract
G1 X161.2905 Y169.22 E0.90487 F1800 ; Print pattern wall
G1 X142.0019 Y188.5086 E0.90487 F1800 ; Print pattern wall
G1 E-2 F2760 ; Retract
G1 Z0.3 F7200 ; Z hop
G0 X144.4519 Y149.9314 F7200 ; Move to next pattern
G1 Z0.2 F7200 ; Z hop return
G1 E2 F2760 ; Un-retract
SET_PRESSURE_ADVANCE ADVANCE=0.01 ; Set pressure advance
M117 PA 0.01
G1 X163.7405 Y169.22 E0.90487 F1800 ; Print pattern wall
G1 X144.4519 Y188.5086 E0.90487 F1800 ; Print pattern wall
G1 E-2 F2760 ; Retract
G1 Z0.3 F7200 ; Z hop
G0 X145.0276 Y149.9314 F7200 ; Move to start next pattern wall
G1 Z0.2 F7200 ; Z hop return
G1 E2 F2760 ; Un-retract
G1 X164.3162 Y169.22 E0.90487 F1800 ; Print pattern wall
G1 X145.0276 Y188.5086 E0.90487 F1800 ; Print pattern wall
G1 E-2 F2760 ; Retract
G1 Z0.3 F7200 ; Z hop
G0 X145.6033 Y149.9314 F7200 ; Move to start next pattern wall
G1 Z0.2 F7200 ; Z hop return
G1 E2 F2760 ; Un-retract
G1 X164.8919 Y169.22 E0.90487 F1800 ; Print pattern wall
G1 X145.6033 Y188.5086 E0.90487 F1800 ; Print pattern wall
G1 E-2 F2760 ; Retract
G1 Z0.3 F7200 ; Z hop
G0 X148.0533 Y149.9314 F7200 ; Move to next pattern
G1 Z0.2 F7200 ; Z hop return
G1 E2 F2760 ; Un-retract
SET_PRESSURE_ADVANCE ADVANCE=0.015 ; Set pressure advance
M117 PA 0.015
G1 X167.3419 Y169.22 E0.90487 F1800 ; Print pattern wall
G1 X148.0533 Y188.5086 E0.90487 F1800 ; Print pattern wall
G1 E-2 F2760 ; Retract
G1 Z0.3 F7200 ; Z hop
G0 X148.629 Y149.9314 F7200 ; Move to start next pattern wall
G1 Z0.2 F7200 ; Z hop return
G1 E2 F2760 ; Un-retract
G1 X167.9176 Y169.22 E0.90487 F1800 ; Print pattern wall
G1 X148.629 Y188.5086 E0.90487 F1800 ; Print pattern wall
G1 E-2 F2760 ; Retract
G1 Z0.3 F7200 ; Z hop
G0 X149.2047 Y149.9314 F7200 ; Move to start next pattern wall
G1 Z0.2 F7200 ; Z hop return
G1 E2 F2760 ; Un-retract
G1 X168.4933 Y169.22 E0.90487 F1800 ; Print pattern wall
G1 X149.2047 Y188.5086 E0.90487 F1800 ; Print pattern wall
G1 E-2 F2760 ; Retract
G1 Z0.3 F7200 ; Z hop
G0 X151.6547 Y149.9314 F7200 ; Move to next pattern
G1 Z0.2 F7200 ; Z hop return
G1 E2 F2760 ; Un-retract
SET_PRESSURE_ADVANCE ADVANCE=0.02 ; Set pressure advance
M117 PA 0.02
G1 X170.9433 Y169.22 E0.90487 F1800 ; Print pattern wall
G1 X151.6547 Y188.5086 E0.90487 F1800 ; Print pattern wall
G1 E-2 F2760 ; Retract
G1 Z0.3 F7200 ; Z hop
G0 X152.2304 Y149.9314 F7200 ; Move to start next pattern wall
G1 Z0.2 F7200 ; Z hop return
G1 E2 F2760 ; Un-retract
G1 X171.519 Y169.22 E0.90487 F1800 ; Print pattern wall
G1 X152.2304 Y188.5086 E0.90487 F1800 ; Print pattern wall
G1 E-2 F2760 ; Retract
G1 Z0.3 F7200 ; Z hop
G0 X152.8061 Y149.9314 F7200 ; Move to start next pattern wall
G1 Z0.2 F7200 ; Z hop return
G1 E2 F2760 ; Un-retract
G1 X172.0947 Y169.22 E0.90487 F1800 ; Print pattern wall
G1 X152.8061 Y188.5086 E0.90487 F1800 ; Print pattern wall
G1 E-2 F2760 ; Retract
G1 Z0.3 F7200 ; Z hop
G0 X155.2561 Y149.9314 F7200 ; Move to next pattern
G1 Z0.2 F7200 ; Z hop return
G1 E2 F2760 ; Un-retract
SET_PRESSURE_ADVANCE ADVANCE=0.025 ; Set pressure advance
M117 PA 0.025
G1 X174.5447 Y169.22 E0.90487 F1800 ; Print pattern wall
G1 X155.2561 Y188.5086 E0.90487 F1800 ; Print pattern wall
G1 E-2 F2760 ; Retract
G1 Z0.3 F7200 ; Z hop
G0 X155.8318 Y149.9314 F7200 ; Move to start next pattern wall
G1 Z0.2 F7200 ; Z hop return
G1 E2 F2760 ; Un-retract
G1 X175.1204 Y169.22 E0.90487 F1800 ; Print pattern wall
G1 X155.8318 Y188.5086 E0.90487 F1800 ; Print pattern wall
G1 E-2 F2760 ; Retract
G1 Z0.3 F7200 ; Z hop
G0 X156.4075 Y149.9314 F7200 ; Move to start next pattern wall
G1 Z0.2 F7200 ; Z hop return
G1 E2 F2760 ; Un-retract
G1 X175.6961 Y169.22 E0.90487 F1800 ; Print pattern wall
G1 X156.4075 Y188.5086 E0.90487 F1800 ; Print pattern wall
G1 E-2 F2760 ; Retract
G1 Z0.3 F7200 ; Z hop
G0 X158.8575 Y149.9314 F7200 ; Move to next pattern
G1 Z0.2 F7200 ; Z hop return
G1 E2 F2760 ; Un-retract
SET_PRESSURE_ADVANCE ADVANCE=0.03 ; Set pressure advance
M117 PA 0.03
G1 X178.1461 Y169.22 E0.90487 F1800 ; Print pattern wall
G1 X158.8575 Y188.5086 E0.90487 F1800 ; Print pattern wall
G1 E-2 F2760 ; Retract
G1 Z0.3 F7200 ; Z hop
G0 X159.4332 Y149.9314 F7200 ; Move to start next pattern wall
G1 Z0.2 F7200 ; Z hop return
G1 E2 F2760 ; Un-retract
G1 X178.7218 Y169.22 E0.90487 F1800 ; Print pattern wall
G1 X159.4332 Y188.5086 E0.90487 F1800 ; Print pattern wall
G1 E-2 F2760 ; Retract
G1 Z0.3 F7200 ; Z hop
G0 X160.0089 Y149.9314 F7200 ; Move to start next pattern wall
G1 Z0.2 F7200 ; Z hop return
G1 E2 F2760 ; Un-retract
G1 X179.2975 Y169.22 E0.90487 F1800 ; Print pattern wall
G1 X160.0089 Y188.5086 E0.90487 F1800 ; Print pattern wall
G1 E-2 F2760 ; Retract
G1 Z0.3 F7200 ; Z hop
G0 X162.4589 Y149.9314 F7200 ; Move to next pattern
G1 Z0.2 F7200 ; Z hop return
G1 E2 F2760 ; Un-retract
SET_PRESSURE_ADVANCE ADVANCE=0.035 ; Set pressure advance
M117 PA 0.035
G1 X181.7475 Y169.22 E0.90487 F1800 ; Print pattern wall
G1 X162.4589 Y188.5086 E0.90487 F1800 ; Print pattern wall
G1 E-2 F2760 ; Retract
G1 Z0.3 F7200 ; Z hop
G0 X163.0346 Y149.9314 F7200 ; Move to start next pattern wall
G1 Z0.2 F7200 ; Z hop return
G1 E2 F2760 ; Un-retract
G1 X182.3232 Y169.22 E0.90487 F1800 ; Print pattern wall
G1 X163.0346 Y188.5086 E0.90487 F1800 ; Print pattern wall
G1 E-2 F2760 ; Retract
G1 Z0.3 F7200 ; Z hop
G0 X163.6103 Y149.9314 F7200 ; Move to start next pattern wall
G1 Z0.2 F7200 ; Z hop return
G1 E2 F2760 ; Un-retract
G1 X182.8989 Y169.22 E0.90487 F1800 ; Print pattern wall
G1 X163.6103 Y188.5086 E0.90487 F1800 ; Print pattern wall
G1 E-2 F2760 ; Retract
G1 Z0.3 F7200 ; Z hop
G0 X166.0603 Y149.9314 F7200 ; Move to next pattern
G1 Z0.2 F7200 ; Z hop return
G1 E2 F2760 ; Un-retract
SET_PRESSURE_ADVANCE ADVANCE=0.04 ; Set pressure advance
M117 PA 0.04
G1 X185.3489 Y169.22 E0.90487 F1800 ; Print pattern wall
G1 X166.0603 Y188.5086 E0.90487 F1800 ; Print pattern wall
G1 E-2 F2760 ; Retract
G1 Z0.3 F7200 ; Z hop
G0 X166.636 Y149.9314 F7200 ; Move to start next pattern wall
G1 Z0.2 F7200 ; Z hop return
G1 E2 F2760 ; Un-retract
G1 X185.9246 Y169.22 E0.90487 F1800 ; Print pattern wall
G1 X166.636 Y188.5086 E0.90487 F1800 ; Print pattern wall
G1 E-2 F2760 ; Retract
G1 Z0.3 F7200 ; Z hop
G0 X167.2117 Y149.9314 F7200 ; Move to start next pattern wall
G1 Z0.2 F7200 ; Z hop return
G1 E2 F2760 ; Un-retract
G1 X186.5003 Y169.22 E0.90487 F1800 ; Print pattern wall
G1 X167.2117 Y188.5086 E0.90487 F1800 ; Print pattern wall
G1 E-2 F2760 ; Retract
G1 Z0.3 F7200 ; Z hop
G0 X169.6617 Y149.9314 F7200 ; Move to next pattern
G1 Z0.2 F7200 ; Z hop return
G1 E2 F2760 ; Un-retract
SET_PRESSURE_ADVANCE ADVANCE=0.045 ; Set pressure advance
M117 PA 0.045
G1 X188.9503 Y169.22 E0.90487 F1800 ; Print pattern wall
G1 X169.6617 Y188.5086 E0.90487 F1800 ; Print pattern wall
G1 E-2 F2760 ; Retract
G1 Z0.3 F7200 ; Z hop
G0 X170.2374 Y149.9314 F7200 ; Move to start next pattern wall
G1 Z0.2 F7200 ; Z hop return
G1 E2 F2760 ; Un-retract
G1 X189.526 Y169.22 E0.90487 F1800 ; Print pattern wall
G1 X170.2374 Y188.5086 E0.90487 F1800 ; Print pattern wall
G1 E-2 F2760 ; Retract
G1 Z0.3 F7200 ; Z hop
G0 X170.8131 Y149.9314 F7200 ; Move to start next pattern wall
G1 Z0.2 F7200 ; Z hop return
G1 E2 F2760 ; Un-retract
G1 X190.1017 Y169.22 E0.90487 F1800 ; Print pattern wall
G1 X170.8131 Y188.5086 E0.90487 F1800 ; Print pattern wall
G1 E-2 F2760 ; Retract
G1 Z0.3 F7200 ; Z hop
G0 X173.2631 Y149.9314 F7200 ; Move to next pattern
G1 Z0.2 F7200 ; Z hop return
G1 E2 F2760 ; Un-retract
SET_PRESSURE_ADVANCE ADVANCE=0.05 ; Set pressure advance
M117 PA 0.05
G1 X192.5517 Y169.22 E0.90487 F1800 ; Print pattern wall
G1 X173.2631 Y188.5086 E0.90487 F1800 ; Print pattern wall
G1 E-2 F2760 ; Retract
G1 Z0.3 F7200 ; Z hop
G0 X173.8388 Y149.9314 F7200 ; Move to start next pattern wall
G1 Z0.2 F7200 ; Z hop return
G1 E2 F2760 ; Un-retract
G1 X193.1274 Y169.22 E0.90487 F1800 ; Print pattern wall
G1 X173.8388 Y188.5086 E0.90487 F1800 ; Print pattern wall
G1 E-2 F2760 ; Retract
G1 Z0.3 F7200 ; Z hop
G0 X174.4145 Y149.9314 F7200 ; Move to start next pattern wall
G1 Z0.2 F7200 ; Z hop return
G1 E2 F2760 ; Un-retract
G1 X193.7031 Y169.22 E0.90487 F1800 ; Print pattern wall
G1 X174.4145 Y188.5086 E0.90487 F1800 ; Print pattern wall
G1 E-2 F2760 ; Retract
G1 Z0.3 F7200 ; Z hop
G0 X176.8645 Y149.9314 F7200 ; Move to next pattern
G1 Z0.2 F7200 ; Z hop return
G1 E2 F2760 ; Un-retract
SET_PRESSURE_ADVANCE ADVANCE=0.055 ; Set pressure advance
M117 PA 0.055
G1 X196.1531 Y169.22 E0.90487 F1800 ; Print pattern wall
G1 X176.8645 Y188.5086 E0.90487 F1800 ; Print pattern wall
G1 E-2 F2760 ; Retract
G1 Z0.3 F7200 ; Z hop
G0 X177.4402 Y149.9314 F7200 ; Move to start next pattern wall
G1 Z0.2 F7200 ; Z hop return
G1 E2 F2760 ; Un-retract
G1 X196.7288 Y169.22 E0.90487 F1800 ; Print pattern wall
G1 X177.4402 Y188.5086 E0.90487 F1800 ; Print pattern wall
G1 E-2 F2760 ; Retract
G1 Z0.3 F7200 ; Z hop
G0 X178.0159 Y149.9314 F7200 ; Move to start next pattern wall
G1 Z0.2 F7200 ; Z hop return
G1 E2 F2760 ; Un-retract
G1 X197.3045 Y169.22 E0.90487 F1800 ; Print pattern wall
G1 X178.0159 Y188.5086 E0.90487 F1800 ; Print pattern wall
G1 E-2 F2760 ; Retract
G1 Z0.3 F7200 ; Z hop
G0 X180.4659 Y149.9314 F7200 ; Move to next pattern
G1 Z0.2 F7200 ; Z hop return
G1 E2 F2760 ; Un-retract
SET_PRESSURE_ADVANCE ADVANCE=0.06 ; Set pressure advance
M117 PA 0.06
G1 X199.7545 Y169.22 E0.90487 F1800 ; Print pattern wall
G1 X180.4659 Y188.5086 E0.90487 F1800 ; Print pattern wall
G1 E-2 F2760 ; Retract
G1 Z0.3 F7200 ; Z hop
G0 X181.0416 Y149.9314 F7200 ; Move to start next pattern wall
G1 Z0.2 F7200 ; Z hop return
G1 E2 F2760 ; Un-retract
G1 X200.3302 Y169.22 E0.90487 F1800 ; Print pattern wall
G1 X181.0416 Y188.5086 E0.90487 F1800 ; Print pattern wall
G1 E-2 F2760 ; Retract
G1 Z0.3 F7200 ; Z hop
G0 X181.6173 Y149.9314 F7200 ; Move to start next pattern wall
G1 Z0.2 F7200 ; Z hop return
G1 E2 F2760 ; Un-retract
G1 X200.9059 Y169.22 E0.90487 F1800 ; Print pattern wall
G1 X181.6173 Y188.5086 E0.90487 F1800 ; Print pattern wall
G1 E-2 F2760 ; Retract
G1 Z0.3 F7200 ; Z hop
G0 X184.0673 Y149.9314 F7200 ; Move to next pattern
G1 Z0.2 F7200 ; Z hop return
G1 E2 F2760 ; Un-retract
SET_PRESSURE_ADVANCE ADVANCE=0.065 ; Set pressure advance
M117 PA 0.065
G1 X203.3559 Y169.22 E0.90487 F1800 ; Print pattern wall
G1 X184.0673 Y188.5086 E0.90487 F1800 ; Print pattern wall
G1 E-2 F2760 ; Retract
G1 Z0.3 F7200 ; Z hop
G0 X184.6429 Y149.9314 F7200 ; Move to start next pattern wall
G1 Z0.2 F7200 ; Z hop return
G1 E2 F2760 ; Un-retract
G1 X203.9316 Y169.22 E0.90487 F1800 ; Print pattern wall
G1 X184.6429 Y188.5086 E0.90487 F1800 ; Print pattern wall
G1 E-2 F2760 ; Retract
G1 Z0.3 F7200 ; Z hop
G0 X185.2186 Y149.9314 F7200 ; Move to start next pattern wall
G1 Z0.2 F7200 ; Z hop return
G1 E2 F2760 ; Un-retract
G1 X204.5073 Y169.22 E0.90487 F1800 ; Print pattern wall
G1 X185.2186 Y188.5086 E0.90487 F1800 ; Print pattern wall
G1 E-2 F2760 ; Retract
G1 Z0.3 F7200 ; Z hop
G0 X187.6686 Y149.9314 F7200 ; Move to next pattern
G1 Z0.2 F7200 ; Z hop return
G1 E2 F2760 ; Un-retract
SET_PRESSURE_ADVANCE ADVANCE=0.07 ; Set pressure advance
M117 PA 0.07
G1 X206.9573 Y169.22 E0.90487 F1800 ; Print pattern wall
G1 X187.6686 Y188.5086 E0.90487 F1800 ; Print pattern wall
G1 E-2 F2760 ; Retract
G1 Z0.3 F7200 ; Z hop
G0 X188.2443 Y149.9314 F7200 ; Move to start next pattern wall
G1 Z0.2 F7200 ; Z hop return
G1 E2 F2760 ; Un-retract
G1 X207.533 Y169.22 E0.90487 F1800 ; Print pattern wall
G1 X188.2443 Y188.5086 E0.90487 F1800 ; Print pattern wall
G1 E-2 F2760 ; Retract
G1 Z0.3 F7200 ; Z hop
G0 X188.82 Y149.9314 F7200 ; Move to start next pattern wall
G1 Z0.2 F7200 ; Z hop return
G1 E2 F2760 ; Un-retract
G1 X208.1087 Y169.22 E0.90487 F1800 ; Print pattern wall
G1 X188.82 Y188.5086 E0.90487 F1800 ; Print pattern wall
G1 E-2 F2760 ; Retract
G1 Z0.3 F7200 ; Z hop
G0 X191.27 Y149.9314 F7200 ; Move to next pattern
G1 Z0.2 F7200 ; Z hop return
G1 E2 F2760 ; Un-retract
SET_PRESSURE_ADVANCE ADVANCE=0.075 ; Set pressure advance
M117 PA 0.075
G1 X210.5587 Y169.22 E0.90487 F1800 ; Print pattern wall
G1 X191.27 Y188.5086 E0.90487 F1800 ; Print pattern wall
G1 E-2 F2760 ; Retract
G1 Z0.3 F7200 ; Z hop
G0 X191.8457 Y149.9314 F7200 ; Move to start next pattern wall
G1 Z0.2 F7200 ; Z hop return
G1 E2 F2760 ; Un-retract
G1 X211.1344 Y169.22 E0.90487 F1800 ; Print pattern wall
G1 X191.8457 Y188.5086 E0.90487 F1800 ; Print pattern wall
G1 E-2 F2760 ; Retract
G1 Z0.3 F7200 ; Z hop
G0 X192.4214 Y149.9314 F7200 ; Move to start next pattern wall
G1 Z0.2 F7200 ; Z hop return
G1 E2 F2760 ; Un-retract
G1 X211.7101 Y169.22 E0.90487 F1800 ; Print pattern wall
G1 X192.4214 Y188.5086 E0.90487 F1800 ; Print pattern wall
G1 E-2 F2760 ; Retract
G1 Z0.3 F7200 ; Z hop
G0 X194.8714 Y149.9314 F7200 ; Move to next pattern
G1 Z0.2 F7200 ; Z hop return
G1 E2 F2760 ; Un-retract
SET_PRESSURE_ADVANCE ADVANCE=0.08 ; Set pressure advance
M117 PA 0.08
G1 X214.1601 Y169.22 E0.90487 F1800 ; Print pattern wall
G1 X194.8714 Y188.5086 E0.90487 F1800 ; Print pattern wall
G1 E-2 F2760 ; Retract
G1 Z0.3 F7200 ; Z hop
G0 X195.4471 Y149.9314 F7200 ; Move to start next pattern wall
G1 Z0.2 F7200 ; Z hop return
G1 E2 F2760 ; Un-retract
G1 X214.7358 Y169.22 E0.90487 F1800 ; Print pattern wall
G1 X195.4471 Y188.5086 E0.90487 F1800 ; Print pattern wall
G1 E-2 F2760 ; Retract
G1 Z0.3 F7200 ; Z hop
G0 X196.0228 Y149.9314 F7200 ; Move to start next pattern wall
G1 Z0.2 F7200 ; Z hop return
G1 E2 F2760 ; Un-retract
G1 X215.3115 Y169.22 E0.90487 F1800 ; Print pattern wall
G1 X196.0228 Y188.5086 E0.90487 F1800 ; Print pattern wall
G1 E-2 F2760 ; Retract
G1 Z0.3 F7200 ; Z hop
G0 X137.2491 Y149.9314 F7200 ; Move back to start position
G1 Z0.2 F7200 ; Z hop return
G1 E2 F2760 ; Un-retract
M106 S127 ; Set fan speed
G0 Z0.4 F7200 ; Move to layer height
SET_PRESSURE_ADVANCE ADVANCE=0 ; Set pressure advance to start value for numbering
M117 PA 0
G1 E-2 F2760 ; Retract
G1 Z0.5 F7200 ; Z hop
G0 X133.9002 Y191.8832 F7200 ; Move
G1 Z0.4 F7200 ; Z hop return
G1 E2 F2760 ; Un-retract
G1 X135.9002 Y191.8832 E0.06634 F1800 ; Glyph: 0
G1 X137.9002 Y191.8832 E0.06634 F1800 ; Glyph: 0
G1 X137.9002 Y193.8832 E0.06634 F1800 ; Glyph: 0
G1 X135.9002 Y193.8832 E0.06634 F1800 ; Glyph: 0
G1 X133.9002 Y193.8832 E0.06634 F1800 ; Glyph: 0
G1 X133.9002 Y191.8832 E0.06634 F1800 ; Glyph: 0
G1 E-2 F2760 ; Retract
G1 Z0.5 F7200 ; Z hop
G0 X141.103 Y191.8832 F7200 ; Move
G1 Z0.4 F7200 ; Z hop return
G1 E2 F2760 ; Un-retract
G1 X143.103 Y191.8832 E0.06634 F1800 ; Glyph: 0
G1 X145.103 Y191.8832 E0.06634 F1800 ; Glyph: 0
G1 X145.103 Y193.8832 E0.06634 F1800 ; Glyph: 0
G1 X143.103 Y193.8832 E0.06634 F1800 ; Glyph: 0
G1 X141.103 Y193.8832 E0.06634 F1800 ; Glyph: 0
G1 X141.103 Y191.8832 E0.06634 F1800 ; Glyph: 0
G1 E-2 F2760 ; Retract
G1 Z0.5 F7200 ; Z hop
G0 X145.103 Y194.8832 F7200 ; Move
G1 Z0.4 F7200 ; Z hop return
G1 E2 F2760 ; Un-retract
G1 X144.353 Y194.8832 E0.02488 F1800 ; Glyph: .
G1 E-2 F2760 ; Retract
G1 Z0.5 F7200 ; Z hop
G0 X141.103 Y195.8832 F7200 ; Move
G1 Z0.4 F7200 ; Z hop return
G1 E2 F2760 ; Un-retract
G1 X143.103 Y195.8832 E0.06634 F1800 ; Glyph: 0
G1 X145.103 Y195.8832 E0.06634 F1800 ; Glyph: 0
G1 X145.103 Y197.8832 E0.06634 F1800 ; Glyph: 0
G1 X143.103 Y197.8832 E0.06634 F1800 ; Glyph: 0
G1 X141.103 Y197.8832 E0.06634 F1800 ; Glyph: 0
G1 X141.103 Y195.8832 E0.06634 F1800 ; Glyph: 0
G1 E-2 F2760 ; Retract
G1 Z0.5 F7200 ; Z hop
G0 X141.103 Y198.8832 F7200 ; Move
G1 Z0.4 F7200 ; Z hop return
G1 E2 F2760 ; Un-retract
G1 X143.103 Y198.8832 E0.06634 F1800 ; Glyph: 1
G1 X145.103 Y198.8832 E0.06634 F1800 ; Glyph: 1
G1 E-2 F2760 ; Retract
G1 Z0.5 F7200 ; Z hop
G0 X148.3058 Y191.8832 F7200 ; Move
G1 Z0.4 F7200 ; Z hop return
G1 E2 F2760 ; Un-retract
G1 X150.3058 Y191.8832 E0.06634 F1800 ; Glyph: 0
G1 X152.3058 Y191.8832 E0.06634 F1800 ; Glyph: 0
G1 X152.3058 Y193.8832 E0.06634 F1800 ; Glyph: 0
G1 X150.3058 Y193.8832 E0.06634 F1800 ; Glyph: 0
G1 X148.3058 Y193.8832 E0.06634 F1800 ; Glyph: 0
G1 X148.3058 Y191.8832 E0.06634 F1800 ; Glyph: 0
G1 E-2 F2760 ; Retract
G1 Z0.5 F7200 ; Z hop
G0 X152.3058 Y194.8832 F7200 ; Move
G1 Z0.4 F7200 ; Z hop return
G1 E2 F2760 ; Un-retract
G1 X151.5558 Y194.8832 E0.02488 F1800 ; Glyph: .
G1 E-2 F2760 ; Retract
G1 Z0.5 F7200 ; Z hop
G0 X148.3058 Y195.8832 F7200 ; Move
G1 Z0.4 F7200 ; Z hop return
G1 E2 F2760 ; Un-retract
G1 X150.3058 Y195.8832 E0.06634 F1800 ; Glyph: 0
G1 X152.3058 Y195.8832 E0.06634 F1800 ; Glyph: 0
G1 X152.3058 Y197.8832 E0.06634 F1800 ; Glyph: 0
G1 X150.3058 Y197.8832 E0.06634 F1800 ; Glyph: 0
G1 X148.3058 Y197.8832 E0.06634 F1800 ; Glyph: 0
G1 X148.3058 Y195.8832 E0.06634 F1800 ; Glyph: 0
G1 E-2 F2760 ; Retract
G1 Z0.5 F7200 ; Z hop
G0 X148.3058 Y198.8832 F7200 ; Move
G1 Z0.4 F7200 ; Z hop return
G1 E2 F2760 ; Un-retract
G1 X148.3058 Y200.8832 E0.06634 F1800 ; Glyph: 2
G1 X150.3058 Y200.8832 E0.06634 F1800 ; Glyph: 2
G1 X150.3058 Y198.8832 E0.06634 F1800 ; Glyph: 2
G1 X152.3058 Y198.8832 E0.06634 F1800 ; Glyph: 2
G1 X152.3058 Y200.8832 E0.06634 F1800 ; Glyph: 2
G1 E-2 F2760 ; Retract
G1 Z0.5 F7200 ; Z hop
G0 X155.5086 Y191.8832 F7200 ; Move
G1 Z0.4 F7200 ; Z hop return
G1 E2 F2760 ; Un-retract
G1 X157.5086 Y191.8832 E0.06634 F1800 ; Glyph: 0
G1 X159.5086 Y191.8832 E0.06634 F1800 ; Glyph: 0
G1 X159.5086 Y193.8832 E0.06634 F1800 ; Glyph: 0
G1 X157.5086 Y193.8832 E0.06634 F1800 ; Glyph: 0
G1 X155.5086 Y193.8832 E0.06634 F1800 ; Glyph: 0
G1 X155.5086 Y191.8832 E0.06634 F1800 ; Glyph: 0
G1 E-2 F2760 ; Retract
G1 Z0.5 F7200 ; Z hop
G0 X159.5086 Y194.8832 F7200 ; Move
G1 Z0.4 F7200 ; Z hop return
G1 E2 F2760 ; Un-retract
G1 X158.7586 Y194.8832 E0.02488 F1800 ; Glyph: .
G1 E-2 F2760 ; Retract
G1 Z0.5 F7200 ; Z hop
G0 X155.5086 Y195.8832 F7200 ; Move
G1 Z0.4 F7200 ; Z hop return
G1 E2 F2760 ; Un-retract
G1 X157.5086 Y195.8832 E0.06634 F1800 ; Glyph: 0
G1 X159.5086 Y195.8832 E0.06634 F1800 ; Glyph: 0
G1 X159.5086 Y197.8832 E0.06634 F1800 ; Glyph: 0
G1 X157.5086 Y197.8832 E0.06634 F1800 ; Glyph: 0
G1 X155.5086 Y197.8832 E0.06634 F1800 ; Glyph: 0
G1 X155.5086 Y195.8832 E0.06634 F1800 ; Glyph: 0
G1 E-2 F2760 ; Retract
G1 Z0.5 F7200 ; Z hop
G0 X155.5086 Y198.8832 F7200 ; Move
G1 Z0.4 F7200 ; Z hop return
G1 E2 F2760 ; Un-retract
G1 X155.5086 Y200.8832 E0.06634 F1800 ; Glyph: 3
G1 X157.5086 Y200.8832 E0.06634 F1800 ; Glyph: 3
G1 X157.5086 Y198.8832 E0.06634 F1800 ; Glyph: 3
G0 X157.5086 Y200.8832 F7200 ; Move
G1 X159.5086 Y200.8832 E0.06634 F1800 ; Glyph: 3
G1 X159.5086 Y198.8832 E0.06634 F1800 ; Glyph: 3
G1 E-2 F2760 ; Retract
G1 Z0.5 F7200 ; Z hop
G0 X162.7114 Y191.8832 F7200 ; Move
G1 Z0.4 F7200 ; Z hop return
G1 E2 F2760 ; Un-retract
G1 X164.7114 Y191.8832 E0.06634 F1800 ; Glyph: 0
G1 X166.7114 Y191.8832 E0.06634 F1800 ; Glyph: 0
G1 X166.7114 Y193.8832 E0.06634 F1800 ; Glyph: 0
G1 X164.7114 Y193.8832 E0.06634 F1800 ; Glyph: 0
G1 X162.7114 Y193.8832 E0.06634 F1800 ; Glyph: 0
G1 X162.7114 Y191.8832 E0.06634 F1800 ; Glyph: 0
G1 E-2 F2760 ; Retract
G1 Z0.5 F7200 ; Z hop
G0 X166.7114 Y194.8832 F7200 ; Move
G1 Z0.4 F7200 ; Z hop return
G1 E2 F2760 ; Un-retract
G1 X165.9614 Y194.8832 E0.02488 F1800 ; Glyph: .
G1 E-2 F2760 ; Retract
G1 Z0.5 F7200 ; Z hop
G0 X162.7114 Y195.8832 F7200 ; Move
G1 Z0.4 F7200 ; Z hop return
G1 E2 F2760 ; Un-retract
G1 X164.7114 Y195.8832 E0.06634 F1800 ; Glyph: 0
G1 X166.7114 Y195.8832 E0.06634 F1800 ; Glyph: 0
G1 X166.7114 Y197.8832 E0.06634 F1800 ; Glyph: 0
G1 X164.7114 Y197.8832 E0.06634 F1800 ; Glyph: 0
G1 X162.7114 Y197.8832 E0.06634 F1800 ; Glyph: 0
G1 X162.7114 Y195.8832 E0.06634 F1800 ; Glyph: 0
G1 E-2 F2760 ; Retract
G1 Z0.5 F7200 ; Z hop
G0 X162.7114 Y200.8832 F7200 ; Move
G1 Z0.4 F7200 ; Z hop return
G1 E2 F2760 ; Un-retract
G1 X164.7114 Y200.8832 E0.06634 F1800 ; Glyph: 4
G1 X166.7114 Y200.8832 E0.06634 F1800 ; Glyph: 4
G0 X164.7114 Y200.8832 F7200 ; Move
G1 X164.7114 Y198.8832 E0.06634 F1800 ; Glyph: 4
G1 X162.7114 Y198.8832 E0.06634 F1800 ; Glyph: 4
G1 E-2 F2760 ; Retract
G1 Z0.5 F7200 ; Z hop
G0 X169.9142 Y191.8832 F7200 ; Move
G1 Z0.4 F7200 ; Z hop return
G1 E2 F2760 ; Un-retract
G1 X171.9142 Y191.8832 E0.06634 F1800 ; Glyph: 0
G1 X173.9142 Y191.8832 E0.06634 F1800 ; Glyph: 0
G1 X173.9142 Y193.8832 E0.06634 F1800 ; Glyph: 0
G1 X171.9142 Y193.8832 E0.06634 F1800 ; Glyph: 0
G1 X169.9142 Y193.8832 E0.06634 F1800 ; Glyph: 0
G1 X169.9142 Y191.8832 E0.06634 F1800 ; Glyph: 0
G1 E-2 F2760 ; Retract
G1 Z0.5 F7200 ; Z hop
G0 X173.9142 Y194.8832 F7200 ; Move
G1 Z0.4 F7200 ; Z hop return
G1 E2 F2760 ; Un-retract
G1 X173.1642 Y194.8832 E0.02488 F1800 ; Glyph: .
G1 E-2 F2760 ; Retract
G1 Z0.5 F7200 ; Z hop
G0 X169.9142 Y195.8832 F7200 ; Move
G1 Z0.4 F7200 ; Z hop return
G1 E2 F2760 ; Un-retract
G1 X171.9142 Y195.8832 E0.06634 F1800 ; Glyph: 0
G1 X173.9142 Y195.8832 E0.06634 F1800 ; Glyph: 0
G1 X173.9142 Y197.8832 E0.06634 F1800 ; Glyph: 0
G1 X171.9142 Y197.8832 E0.06634 F1800 ; Glyph: 0
G1 X169.9142 Y197.8832 E0.06634 F1800 ; Glyph: 0
G1 X169.9142 Y195.8832 E0.06634 F1800 ; Glyph: 0
G1 E-2 F2760 ; Retract
G1 Z0.5 F7200 ; Z hop
G0 X169.9142 Y200.8832 F7200 ; Move
G1 Z0.4 F7200 ; Z hop return
G1 E2 F2760 ; Un-retract
G1 X169.9142 Y198.8832 E0.06634 F1800 ; Glyph: 5
G1 X171.9142 Y198.8832 E0.06634 F1800 ; Glyph: 5
G1 X171.9142 Y200.8832 E0.06634 F1800 ; Glyph: 5
G1 X173.9142 Y200.8832 E0.06634 F1800 ; Glyph: 5
G1 X173.9142 Y198.8832 E0.06634 F1800 ; Glyph: 5
G1 E-2 F2760 ; Retract
G1 Z0.5 F7200 ; Z hop
G0 X177.117 Y191.8832 F7200 ; Move
G1 Z0.4 F7200 ; Z hop return
G1 E2 F2760 ; Un-retract
G1 X179.117 Y191.8832 E0.06634 F1800 ; Glyph: 0
G1 X181.117 Y191.8832 E0.06634 F1800 ; Glyph: 0
G1 X181.117 Y193.8832 E0.06634 F1800 ; Glyph: 0
G1 X179.117 Y193.8832 E0.06634 F1800 ; Glyph: 0
G1 X177.117 Y193.8832 E0.06634 F1800 ; Glyph: 0
G1 X177.117 Y191.8832 E0.06634 F1800 ; Glyph: 0
G1 E-2 F2760 ; Retract
G1 Z0.5 F7200 ; Z hop
G0 X181.117 Y194.8832 F7200 ; Move
G1 Z0.4 F7200 ; Z hop return
G1 E2 F2760 ; Un-retract
G1 X180.367 Y194.8832 E0.02488 F1800 ; Glyph: .
G1 E-2 F2760 ; Retract
G1 Z0.5 F7200 ; Z hop
G0 X177.117 Y195.8832 F7200 ; Move
G1 Z0.4 F7200 ; Z hop return
G1 E2 F2760 ; Un-retract
G1 X179.117 Y195.8832 E0.06634 F1800 ; Glyph: 0
G1 X181.117 Y195.8832 E0.06634 F1800 ; Glyph: 0
G1 X181.117 Y197.8832 E0.06634 F1800 ; Glyph: 0
G1 X179.117 Y197.8832 E0.06634 F1800 ; Glyph: 0
G1 X177.117 Y197.8832 E0.06634 F1800 ; Glyph: 0
G1 X177.117 Y195.8832 E0.06634 F1800 ; Glyph: 0
G1 E-2 F2760 ; Retract
G1 Z0.5 F7200 ; Z hop
G0 X177.117 Y200.8832 F7200 ; Move
G1 Z0.4 F7200 ; Z hop return
G1 E2 F2760 ; Un-retract
G1 X177.117 Y198.8832 E0.06634 F1800 ; Glyph: 6
G1 X179.117 Y198.8832 E0.06634 F1800 ; Glyph: 6
G1 X181.117 Y198.8832 E0.06634 F1800 ; Glyph: 6
G1 X181.117 Y200.8832 E0.06634 F1800 ; Glyph: 6
G1 X179.117 Y200.8832 E0.06634 F1800 ; Glyph: 6
G1 X179.117 Y198.8832 E0.06634 F1800 ; Glyph: 6
G1 E-2 F2760 ; Retract
G1 Z0.5 F7200 ; Z hop
G0 X184.3198 Y191.8832 F7200 ; Move
G1 Z0.4 F7200 ; Z hop return
G1 E2 F2760 ; Un-retract
G1 X186.3198 Y191.8832 E0.06634 F1800 ; Glyph: 0
G1 X188.3198 Y191.8832 E0.06634 F1800 ; Glyph: 0
G1 X188.3198 Y193.8832 E0.06634 F1800 ; Glyph: 0
G1 X186.3198 Y193.8832 E0.06634 F1800 ; Glyph: 0
G1 X184.3198 Y193.8832 E0.06634 F1800 ; Glyph: 0
G1 X184.3198 Y191.8832 E0.06634 F1800 ; Glyph: 0
G1 E-2 F2760 ; Retract
G1 Z0.5 F7200 ; Z hop
G0 X188.3198 Y194.8832 F7200 ; Move
G1 Z0.4 F7200 ; Z hop return
G1 E2 F2760 ; Un-retract
G1 X187.5698 Y194.8832 E0.02488 F1800 ; Glyph: .
G1 E-2 F2760 ; Retract
G1 Z0.5 F7200 ; Z hop
G0 X184.3198 Y195.8832 F7200 ; Move
G1 Z0.4 F7200 ; Z hop return
G1 E2 F2760 ; Un-retract
G1 X186.3198 Y195.8832 E0.06634 F1800 ; Glyph: 0
G1 X188.3198 Y195.8832 E0.06634 F1800 ; Glyph: 0
G1 X188.3198 Y197.8832 E0.06634 F1800 ; Glyph: 0
G1 X186.3198 Y197.8832 E0.06634 F1800 ; Glyph: 0
G1 X184.3198 Y197.8832 E0.06634 F1800 ; Glyph: 0
G1 X184.3198 Y195.8832 E0.06634 F1800 ; Glyph: 0
G1 E-2 F2760 ; Retract
G1 Z0.5 F7200 ; Z hop
G0 X184.3198 Y198.8832 F7200 ; Move
G1 Z0.4 F7200 ; Z hop return
G1 E2 F2760 ; Un-retract
G1 X184.3198 Y200.8832 E0.06634 F1800 ; Glyph: 7
G1 X186.3198 Y200.8832 E0.06634 F1800 ; Glyph: 7
G1 X188.3198 Y200.8832 E0.06634 F1800 ; Glyph: 7
G1 E-2 F2760 ; Retract
G1 Z0.5 F7200 ; Z hop
G0 X191.5226 Y191.8832 F7200 ; Move
G1 Z0.4 F7200 ; Z hop return
G1 E2 F2760 ; Un-retract
G1 X193.5226 Y191.8832 E0.06634 F1800 ; Glyph: 0
G1 X195.5226 Y191.8832 E0.06634 F1800 ; Glyph: 0
G1 X195.5226 Y193.8832 E0.06634 F1800 ; Glyph: 0
G1 X193.5226 Y193.8832 E0.06634 F1800 ; Glyph: 0
G1 X191.5226 Y193.8832 E0.06634 F1800 ; Glyph: 0
G1 X191.5226 Y191.8832 E0.06634 F1800 ; Glyph: 0
G1 E-2 F2760 ; Retract
G1 Z0.5 F7200 ; Z hop
G0 X195.5226 Y194.8832 F7200 ; Move
G1 Z0.4 F7200 ; Z hop return
G1 E2 F2760 ; Un-retract
G1 X194.7726 Y194.8832 E0.02488 F1800 ; Glyph: .
G1 E-2 F2760 ; Retract
G1 Z0.5 F7200 ; Z hop
G0 X191.5226 Y195.8832 F7200 ; Move
G1 Z0.4 F7200 ; Z hop return
G1 E2 F2760 ; Un-retract
G1 X193.5226 Y195.8832 E0.06634 F1800 ; Glyph: 0
G1 X195.5226 Y195.8832 E0.06634 F1800 ; Glyph: 0
G1 X195.5226 Y197.8832 E0.06634 F1800 ; Glyph: 0
G1 X193.5226 Y197.8832 E0.06634 F1800 ; Glyph: 0
G1 X191.5226 Y197.8832 E0.06634 F1800 ; Glyph: 0
G1 X191.5226 Y195.8832 E0.06634 F1800 ; Glyph: 0
G1 E-2 F2760 ; Retract
G1 Z0.5 F7200 ; Z hop
G0 X191.5226 Y198.8832 F7200 ; Move
G1 Z0.4 F7200 ; Z hop return
G1 E2 F2760 ; Un-retract
G1 X193.5226 Y198.8832 E0.06634 F1800 ; Glyph: 8
G1 X195.5226 Y198.8832 E0.06634 F1800 ; Glyph: 8
G1 X195.5226 Y200.8832 E0.06634 F1800 ; Glyph: 8
G1 X193.5226 Y200.8832 E0.06634 F1800 ; Glyph: 8
G1 X191.5226 Y200.8832 E0.06634 F1800 ; Glyph: 8
G1 X191.5226 Y198.8832 E0.06634 F1800 ; Glyph: 8
G0 X193.5226 Y198.8832 F7200 ; Move
G1 X193.5226 Y200.8832 E0.06634 F1800 ; Glyph: 8
G1 E-2 F2760 ; Retract
G1 Z0.5 F7200 ; Z hop
G0 X135.3245 Y148.0068 F7200 ; Move to pattern start

G1 Z0.4 F7200 ; Z hop return
G1 E2 F2760 ; Un-retract
SET_PRESSURE_ADVANCE ADVANCE=0 ; Set pressure advance
M117 PA 0
G1 X156.5377 Y169.22 E0.99515 F3000 ; Print pattern wall
G1 X135.3245 Y190.4332 E0.99515 F3000 ; Print pattern wall
G1 E-2 F2760 ; Retract
G1 Z0.5 F7200 ; Z hop
G0 X135.9002 Y148.0068 F7200 ; Move to start next pattern wall
G1 Z0.4 F7200 ; Z hop return
G1 E2 F2760 ; Un-retract
G1 X157.1134 Y169.22 E0.99515 F3000 ; Print pattern wall
G1 X135.9002 Y190.4332 E0.99515 F3000 ; Print pattern wall
G1 E-2 F2760 ; Retract
G1 Z0.5 F7200 ; Z hop
G0 X136.4759 Y148.0068 F7200 ; Move to start next pattern wall
G1 Z0.4 F7200 ; Z hop return
G1 E2 F2760 ; Un-retract
G1 X157.6891 Y169.22 E0.99515 F3000 ; Print pattern wall
G1 X136.4759 Y190.4332 E0.99515 F3000 ; Print pattern wall
G1 E-2 F2760 ; Retract
G1 Z0.5 F7200 ; Z hop
G0 X138.9259 Y148.0068 F7200 ; Move to next pattern
G1 Z0.4 F7200 ; Z hop return
G1 E2 F2760 ; Un-retract
SET_PRESSURE_ADVANCE ADVANCE=0.005 ; Set pressure advance
M117 PA 0.005
G1 X160.1391 Y169.22 E0.99515 F3000 ; Print pattern wall
G1 X138.9259 Y190.4332 E0.99515 F3000 ; Print pattern wall
G1 E-2 F2760 ; Retract
G1 Z0.5 F7200 ; Z hop
G0 X139.5016 Y148.0068 F7200 ; Move to start next pattern wall
G1 Z0.4 F7200 ; Z hop return
G1 E2 F2760 ; Un-retract
G1 X160.7148 Y169.22 E0.99515 F3000 ; Print pattern wall
G1 X139.5016 Y190.4332 E0.99515 F3000 ; Print pattern wall
G1 E-2 F2760 ; Retract
G1 Z0.5 F7200 ; Z hop
G0 X140.0773 Y148.0068 F7200 ; Move to start next pattern wall
G1 Z0.4 F7200 ; Z hop return
G1 E2 F2760 ; Un-retract
G1 X161.2905 Y169.22 E0.99515 F3000 ; Print pattern wall
G1 X140.0773 Y190.4332 E0.99515 F3000 ; Print pattern wall
G1 E-2 F2760 ; Retract
G1 Z0.5 F7200 ; Z hop
G0 X142.5273 Y148.0068 F7200 ; Move to next pattern
G1 Z0.4 F7200 ; Z hop return
G1 E2 F2760 ; Un-retract
SET_PRESSURE_ADVANCE ADVANCE=0.01 ; Set pressure advance
M117 PA 0.01
G1 X163.7405 Y169.22 E0.99515 F3000 ; Print pattern wall
G1 X142.5273 Y190.4332 E0.99515 F3000 ; Print pattern wall
G1 E-2 F2760 ; Retract
G1 Z0.5 F7200 ; Z hop
G0 X143.103 Y148.0068 F7200 ; Move to start next pattern wall
G1 Z0.4 F7200 ; Z hop return
G1 E2 F2760 ; Un-retract
G1 X164.3162 Y169.22 E0.99515 F3000 ; Print pattern wall
G1 X143.103 Y190.4332 E0.99515 F3000 ; Print pattern wall
G1 E-2 F2760 ; Retract
G1 Z0.5 F7200 ; Z hop
G0 X143.6787 Y148.0068 F7200 ; Move to start next pattern wall
G1 Z0.4 F7200 ; Z hop return
G1 E2 F2760 ; Un-retract
G1 X164.8919 Y169.22 E0.99515 F3000 ; Print pattern wall
G1 X143.6787 Y190.4332 E0.99515 F3000 ; Print pattern wall
G1 E-2 F2760 ; Retract
G1 Z0.5 F7200 ; Z hop
G0 X146.1287 Y148.0068 F7200 ; Move to next pattern
G1 Z0.4 F7200 ; Z hop return
G1 E2 F2760 ; Un-retract
SET_PRESSURE_ADVANCE ADVANCE=0.015 ; Set pressure advance
M117 PA 0.015
G1 X167.3419 Y169.22 E0.99515 F3000 ; Print pattern wall
G1 X146.1287 Y190.4332 E0.99515 F3000 ; Print pattern wall
G1 E-2 F2760 ; Retract
G1 Z0.5 F7200 ; Z hop
G0 X146.7044 Y148.0068 F7200 ; Move to start next pattern wall
G1 Z0.4 F7200 ; Z hop return
G1 E2 F2760 ; Un-retract
G1 X167.9176 Y169.22 E0.99515 F3000 ; Print pattern wall
G1 X146.7044 Y190.4332 E0.99515 F3000 ; Print pattern wall
G1 E-2 F2760 ; Retract
G1 Z0.5 F7200 ; Z hop
G0 X147.2801 Y148.0068 F7200 ; Move to start next pattern wall
G1 Z0.4 F7200 ; Z hop return
G1 E2 F2760 ; Un-retract
G1 X168.4933 Y169.22 E0.99515 F3000 ; Print pattern wall
G1 X147.2801 Y190.4332 E0.99515 F3000 ; Print pattern wall
G1 E-2 F2760 ; Retract
G1 Z0.5 F7200 ; Z hop
G0 X149.7301 Y148.0068 F7200 ; Move to next pattern
G1 Z0.4 F7200 ; Z hop return
G1 E2 F2760 ; Un-retract
SET_PRESSURE_ADVANCE ADVANCE=0.02 ; Set pressure advance
M117 PA 0.02
G1 X170.9433 Y169.22 E0.99515 F3000 ; Print pattern wall
G1 X149.7301 Y190.4332 E0.99515 F3000 ; Print pattern wall
G1 E-2 F2760 ; Retract
G1 Z0.5 F7200 ; Z hop
G0 X150.3058 Y148.0068 F7200 ; Move to start next pattern wall
G1 Z0.4 F7200 ; Z hop return
G1 E2 F2760 ; Un-retract
G1 X171.519 Y169.22 E0.99515 F3000 ; Print pattern wall
G1 X150.3058 Y190.4332 E0.99515 F3000 ; Print pattern wall
G1 E-2 F2760 ; Retract
G1 Z0.5 F7200 ; Z hop
G0 X150.8815 Y148.0068 F7200 ; Move to start next pattern wall
G1 Z0.4 F7200 ; Z hop return
G1 E2 F2760 ; Un-retract
G1 X172.0947 Y169.22 E0.99515 F3000 ; Print pattern wall
G1 X150.8815 Y190.4332 E0.99515 F3000 ; Print pattern wall
G1 E-2 F2760 ; Retract
G1 Z0.5 F7200 ; Z hop
G0 X153.3315 Y148.0068 F7200 ; Move to next pattern
G1 Z0.4 F7200 ; Z hop return
G1 E2 F2760 ; Un-retract
SET_PRESSURE_ADVANCE ADVANCE=0.025 ; Set pressure advance
M117 PA 0.025
G1 X174.5447 Y169.22 E0.99515 F3000 ; Print pattern wall
G1 X153.3315 Y190.4332 E0.99515 F3000 ; Print pattern wall
G1 E-2 F2760 ; Retract
G1 Z0.5 F7200 ; Z hop
G0 X153.9072 Y148.0068 F7200 ; Move to start next pattern wall
G1 Z0.4 F7200 ; Z hop return
G1 E2 F2760 ; Un-retract
G1 X175.1204 Y169.22 E0.99515 F3000 ; Print pattern wall
G1 X153.9072 Y190.4332 E0.99515 F3000 ; Print pattern wall
G1 E-2 F2760 ; Retract
G1 Z0.5 F7200 ; Z hop
G0 X154.4829 Y148.0068 F7200 ; Move to start next pattern wall
G1 Z0.4 F7200 ; Z hop return
G1 E2 F2760 ; Un-retract
G1 X175.6961 Y169.22 E0.99515 F3000 ; Print pattern wall
G1 X154.4829 Y190.4332 E0.99515 F3000 ; Print pattern wall
G1 E-2 F2760 ; Retract
G1 Z0.5 F7200 ; Z hop
G0 X156.9329 Y148.0068 F7200 ; Move to next pattern
G1 Z0.4 F7200 ; Z hop return
G1 E2 F2760 ; Un-retract
SET_PRESSURE_ADVANCE ADVANCE=0.03 ; Set pressure advance
M117 PA 0.03
G1 X178.1461 Y169.22 E0.99515 F3000 ; Print pattern wall
G1 X156.9329 Y190.4332 E0.99515 F3000 ; Print pattern wall
G1 E-2 F2760 ; Retract
G1 Z0.5 F7200 ; Z hop
G0 X157.5086 Y148.0068 F7200 ; Move to start next pattern wall
G1 Z0.4 F7200 ; Z hop return
G1 E2 F2760 ; Un-retract
G1 X178.7218 Y169.22 E0.99515 F3000 ; Print pattern wall
G1 X157.5086 Y190.4332 E0.99515 F3000 ; Print pattern wall
G1 E-2 F2760 ; Retract
G1 Z0.5 F7200 ; Z hop
G0 X158.0843 Y148.0068 F7200 ; Move to start next pattern wall
G1 Z0.4 F7200 ; Z hop return
G1 E2 F2760 ; Un-retract
G1 X179.2975 Y169.22 E0.99515 F3000 ; Print pattern wall
G1 X158.0843 Y190.4332 E0.99515 F3000 ; Print pattern wall
G1 E-2 F2760 ; Retract
G1 Z0.5 F7200 ; Z hop
G0 X160.5343 Y148.0068 F7200 ; Move to next pattern
G1 Z0.4 F7200 ; Z hop return
G1 E2 F2760 ; Un-retract
SET_PRESSURE_ADVANCE ADVANCE=0.035 ; Set pressure advance
M117 PA 0.035
G1 X181.7475 Y169.22 E0.99515 F3000 ; Print pattern wall
G1 X160.5343 Y190.4332 E0.99515 F3000 ; Print pattern wall
G1 E-2 F2760 ; Retract
G1 Z0.5 F7200 ; Z hop
G0 X161.11 Y148.0068 F7200 ; Move to start next pattern wall
G1 Z0.4 F7200 ; Z hop return
G1 E2 F2760 ; Un-retract
G1 X182.3232 Y169.22 E0.99515 F3000 ; Print pattern wall
G1 X161.11 Y190.4332 E0.99515 F3000 ; Print pattern wall
G1 E-2 F2760 ; Retract
G1 Z0.5 F7200 ; Z hop
G0 X161.6857 Y148.0068 F7200 ; Move to start next pattern wall
G1 Z0.4 F7200 ; Z hop return
G1 E2 F2760 ; Un-retract
G1 X182.8989 Y169.22 E0.99515 F3000 ; Print pattern wall
G1 X161.6857 Y190.4332 E0.99515 F3000 ; Print pattern wall
G1 E-2 F2760 ; Retract
G1 Z0.5 F7200 ; Z hop
G0 X164.1357 Y148.0068 F7200 ; Move to next pattern
G1 Z0.4 F7200 ; Z hop return
G1 E2 F2760 ; Un-retract
SET_PRESSURE_ADVANCE ADVANCE=0.04 ; Set pressure advance
M117 PA 0.04
G1 X185.3489 Y169.22 E0.99515 F3000 ; Print pattern wall
G1 X164.1357 Y190.4332 E0.99515 F3000 ; Print pattern wall
G1 E-2 F2760 ; Retract
G1 Z0.5 F7200 ; Z hop
G0 X164.7114 Y148.0068 F7200 ; Move to start next pattern wall
G1 Z0.4 F7200 ; Z hop return
G1 E2 F2760 ; Un-retract
G1 X185.9246 Y169.22 E0.99515 F3000 ; Print pattern wall
G1 X164.7114 Y190.4332 E0.99515 F3000 ; Print pattern wall
G1 E-2 F2760 ; Retract
G1 Z0.5 F7200 ; Z hop
G0 X165.2871 Y148.0068 F7200 ; Move to start next pattern wall
G1 Z0.4 F7200 ; Z hop return
G1 E2 F2760 ; Un-retract
G1 X186.5003 Y169.22 E0.99515 F3000 ; Print pattern wall
G1 X165.2871 Y190.4332 E0.99515 F3000 ; Print pattern wall
G1 E-2 F2760 ; Retract
G1 Z0.5 F7200 ; Z hop
G0 X167.7371 Y148.0068 F7200 ; Move to next pattern
G1 Z0.4 F7200 ; Z hop return
G1 E2 F2760 ; Un-retract
SET_PRESSURE_ADVANCE ADVANCE=0.045 ; Set pressure advance
M117 PA 0.045
G1 X188.9503 Y169.22 E0.99515 F3000 ; Print pattern wall
G1 X167.7371 Y190.4332 E0.99515 F3000 ; Print pattern wall
G1 E-2 F2760 ; Retract
G1 Z0.5 F7200 ; Z hop
G0 X168.3128 Y148.0068 F7200 ; Move to start next pattern wall
G1 Z0.4 F7200 ; Z hop return
G1 E2 F2760 ; Un-retract
G1 X189.526 Y169.22 E0.99515 F3000 ; Print pattern wall
G1 X168.3128 Y190.4332 E0.99515 F3000 ; Print pattern wall
G1 E-2 F2760 ; Retract
G1 Z0.5 F7200 ; Z hop
G0 X168.8885 Y148.0068 F7200 ; Move to start next pattern wall
G1 Z0.4 F7200 ; Z hop return
G1 E2 F2760 ; Un-retract
G1 X190.1017 Y169.22 E0.99515 F3000 ; Print pattern wall
G1 X168.8885 Y190.4332 E0.99515 F3000 ; Print pattern wall
G1 E-2 F2760 ; Retract
G1 Z0.5 F7200 ; Z hop
G0 X171.3385 Y148.0068 F7200 ; Move to next pattern
G1 Z0.4 F7200 ; Z hop return
G1 E2 F2760 ; Un-retract
SET_PRESSURE_ADVANCE ADVANCE=0.05 ; Set pressure advance
M117 PA 0.05
G1 X192.5517 Y169.22 E0.99515 F3000 ; Print pattern wall
G1 X171.3385 Y190.4332 E0.99515 F3000 ; Print pattern wall
G1 E-2 F2760 ; Retract
G1 Z0.5 F7200 ; Z hop
G0 X171.9142 Y148.0068 F7200 ; Move to start next pattern wall
G1 Z0.4 F7200 ; Z hop return
G1 E2 F2760 ; Un-retract
G1 X193.1274 Y169.22 E0.99515 F3000 ; Print pattern wall
G1 X171.9142 Y190.4332 E0.99515 F3000 ; Print pattern wall
G1 E-2 F2760 ; Retract
G1 Z0.5 F7200 ; Z hop
G0 X172.4899 Y148.0068 F7200 ; Move to start next pattern wall
G1 Z0.4 F7200 ; Z hop return
G1 E2 F2760 ; Un-retract
G1 X193.7031 Y169.22 E0.99515 F3000 ; Print pattern wall
G1 X172.4899 Y190.4332 E0.99515 F3000 ; Print pattern wall
G1 E-2 F2760 ; Retract
G1 Z0.5 F7200 ; Z hop
G0 X174.9399 Y148.0068 F7200 ; Move to next pattern
G1 Z0.4 F7200 ; Z hop return
G1 E2 F2760 ; Un-retract
SET_PRESSURE_ADVANCE ADVANCE=0.055 ; Set pressure advance
M117 PA 0.055
G1 X196.1531 Y169.22 E0.99515 F3000 ; Print pattern wall
G1 X174.9399 Y190.4332 E0.99515 F3000 ; Print pattern wall
G1 E-2 F2760 ; Retract
G1 Z0.5 F7200 ; Z hop
G0 X175.5156 Y148.0068 F7200 ; Move to start next pattern wall
G1 Z0.4 F7200 ; Z hop return
G1 E2 F2760 ; Un-retract
G1 X196.7288 Y169.22 E0.99515 F3000 ; Print pattern wall
G1 X175.5156 Y190.4332 E0.99515 F3000 ; Print pattern wall
G1 E-2 F2760 ; Retract
G1 Z0.5 F7200 ; Z hop
G0 X176.0913 Y148.0068 F7200 ; Move to start next pattern wall
G1 Z0.4 F7200 ; Z hop return
G1 E2 F2760 ; Un-retract
G1 X197.3045 Y169.22 E0.99515 F3000 ; Print pattern wall
G1 X176.0913 Y190.4332 E0.99515 F3000 ; Print pattern wall
G1 E-2 F2760 ; Retract
G1 Z0.5 F7200 ; Z hop
G0 X178.5413 Y148.0068 F7200 ; Move to next pattern
G1 Z0.4 F7200 ; Z hop return
G1 E2 F2760 ; Un-retract
SET_PRESSURE_ADVANCE ADVANCE=0.06 ; Set pressure advance
M117 PA 0.06
G1 X199.7545 Y169.22 E0.99515 F3000 ; Print pattern wall
G1 X178.5413 Y190.4332 E0.99515 F3000 ; Print pattern wall
G1 E-2 F2760 ; Retract
G1 Z0.5 F7200 ; Z hop
G0 X179.117 Y148.0068 F7200 ; Move to start next pattern wall
G1 Z0.4 F7200 ; Z hop return
G1 E2 F2760 ; Un-retract
G1 X200.3302 Y169.22 E0.99515 F3000 ; Print pattern wall
G1 X179.117 Y190.4332 E0.99515 F3000 ; Print pattern wall
G1 E-2 F2760 ; Retract
G1 Z0.5 F7200 ; Z hop
G0 X179.6927 Y148.0068 F7200 ; Move to start next pattern wall
G1 Z0.4 F7200 ; Z hop return
G1 E2 F2760 ; Un-retract
G1 X200.9059 Y169.22 E0.99515 F3000 ; Print pattern wall
G1 X179.6927 Y190.4332 E0.99515 F3000 ; Print pattern wall
G1 E-2 F2760 ; Retract
G1 Z0.5 F7200 ; Z hop
G0 X182.1427 Y148.0068 F7200 ; Move to next pattern
G1 Z0.4 F7200 ; Z hop return
G1 E2 F2760 ; Un-retract
SET_PRESSURE_ADVANCE ADVANCE=0.065 ; Set pressure advance
M117 PA 0.065
G1 X203.3559 Y169.22 E0.99515 F3000 ; Print pattern wall
G1 X182.1427 Y190.4332 E0.99515 F3000 ; Print pattern wall
G1 E-2 F2760 ; Retract
G1 Z0.5 F7200 ; Z hop
G0 X182.7184 Y148.0068 F7200 ; Move to start next pattern wall
G1 Z0.4 F7200 ; Z hop return
G1 E2 F2760 ; Un-retract
G1 X203.9316 Y169.22 E0.99515 F3000 ; Print pattern wall
G1 X182.7184 Y190.4332 E0.99515 F3000 ; Print pattern wall
G1 E-2 F2760 ; Retract
G1 Z0.5 F7200 ; Z hop
G0 X183.2941 Y148.0068 F7200 ; Move to start next pattern wall
G1 Z0.4 F7200 ; Z hop return
G1 E2 F2760 ; Un-retract
G1 X204.5073 Y169.22 E0.99515 F3000 ; Print pattern wall
G1 X183.2941 Y190.4332 E0.99515 F3000 ; Print pattern wall
G1 E-2 F2760 ; Retract
G1 Z0.5 F7200 ; Z hop
G0 X185.7441 Y148.0068 F7200 ; Move to next pattern
G1 Z0.4 F7200 ; Z hop return
G1 E2 F2760 ; Un-retract
SET_PRESSURE_ADVANCE ADVANCE=0.07 ; Set pressure advance
M117 PA 0.07
G1 X206.9573 Y169.22 E0.99515 F3000 ; Print pattern wall
G1 X185.7441 Y190.4332 E0.99515 F3000 ; Print pattern wall
G1 E-2 F2760 ; Retract
G1 Z0.5 F7200 ; Z hop
G0 X186.3198 Y148.0068 F7200 ; Move to start next pattern wall
G1 Z0.4 F7200 ; Z hop return
G1 E2 F2760 ; Un-retract
G1 X207.533 Y169.22 E0.99515 F3000 ; Print pattern wall
G1 X186.3198 Y190.4332 E0.99515 F3000 ; Print pattern wall
G1 E-2 F2760 ; Retract
G1 Z0.5 F7200 ; Z hop
G0 X186.8955 Y148.0068 F7200 ; Move to start next pattern wall
G1 Z0.4 F7200 ; Z hop return
G1 E2 F2760 ; Un-retract
G1 X208.1087 Y169.22 E0.99515 F3000 ; Print pattern wall
G1 X186.8955 Y190.4332 E0.99515 F3000 ; Print pattern wall
G1 E-2 F2760 ; Retract
G1 Z0.5 F7200 ; Z hop
G0 X189.3455 Y148.0068 F7200 ; Move to next pattern
G1 Z0.4 F7200 ; Z hop return
G1 E2 F2760 ; Un-retract
SET_PRESSURE_ADVANCE ADVANCE=0.075 ; Set pressure advance
M117 PA 0.075
G1 X210.5587 Y169.22 E0.99515 F3000 ; Print pattern wall
G1 X189.3455 Y190.4332 E0.99515 F3000 ; Print pattern wall
G1 E-2 F2760 ; Retract
G1 Z0.5 F7200 ; Z hop
G0 X189.9212 Y148.0068 F7200 ; Move to start next pattern wall
G1 Z0.4 F7200 ; Z hop return
G1 E2 F2760 ; Un-retract
G1 X211.1344 Y169.22 E0.99515 F3000 ; Print pattern wall
G1 X189.9212 Y190.4332 E0.99515 F3000 ; Print pattern wall
G1 E-2 F2760 ; Retract
G1 Z0.5 F7200 ; Z hop
G0 X190.4969 Y148.0068 F7200 ; Move to start next pattern wall
G1 Z0.4 F7200 ; Z hop return
G1 E2 F2760 ; Un-retract
G1 X211.7101 Y169.22 E0.99515 F3000 ; Print pattern wall
G1 X190.4969 Y190.4332 E0.99515 F3000 ; Print pattern wall
G1 E-2 F2760 ; Retract
G1 Z0.5 F7200 ; Z hop
G0 X192.9469 Y148.0068 F7200 ; Move to next pattern
G1 Z0.4 F7200 ; Z hop return
G1 E2 F2760 ; Un-retract
SET_PRESSURE_ADVANCE ADVANCE=0.08 ; Set pressure advance
M117 PA 0.08
G1 X214.1601 Y169.22 E0.99515 F3000 ; Print pattern wall
G1 X192.9469 Y190.4332 E0.99515 F3000 ; Print pattern wall
G1 E-2 F2760 ; Retract
G1 Z0.5 F7200 ; Z hop
G0 X193.5226 Y148.0068 F7200 ; Move to start next pattern wall
G1 Z0.4 F7200 ; Z hop return
G1 E2 F2760 ; Un-retract
G1 X214.7358 Y169.22 E0.99515 F3000 ; Print pattern wall
G1 X193.5226 Y190.4332 E0.99515 F3000 ; Print pattern wall
G1 E-2 F2760 ; Retract
G1 Z0.5 F7200 ; Z hop
G0 X194.0983 Y148.0068 F7200 ; Move to start next pattern wall
G1 Z0.4 F7200 ; Z hop return
G1 E2 F2760 ; Un-retract
G1 X215.3115 Y169.22 E0.99515 F3000 ; Print pattern wall
G1 X194.0983 Y190.4332 E0.99515 F3000 ; Print pattern wall
G1 E-2 F2760 ; Retract
G1 Z0.5 F7200 ; Z hop
G0 X135.3245 Y148.0068 F7200 ; Move back to start position
G1 Z0.4 F7200 ; Z hop return
G1 E2 F2760 ; Un-retract
G0 Z0.6 F7200 ; Move to layer height
SET_PRESSURE_ADVANCE ADVANCE=0 ; Set pressure advance
M117 PA 0
G1 X156.5377 Y169.22 E0.99515 F3000 ; Print pattern wall
G1 X135.3245 Y190.4332 E0.99515 F3000 ; Print pattern wall
G1 E-2 F2760 ; Retract
G1 Z0.7 F7200 ; Z hop
G0 X135.9002 Y148.0068 F7200 ; Move to start next pattern wall
G1 Z0.6 F7200 ; Z hop return
G1 E2 F2760 ; Un-retract
G1 X157.1134 Y169.22 E0.99515 F3000 ; Print pattern wall
G1 X135.9002 Y190.4332 E0.99515 F3000 ; Print pattern wall
G1 E-2 F2760 ; Retract
G1 Z0.7 F7200 ; Z hop
G0 X136.4759 Y148.0068 F7200 ; Move to start next pattern wall
G1 Z0.6 F7200 ; Z hop return
G1 E2 F2760 ; Un-retract
G1 X157.6891 Y169.22 E0.99515 F3000 ; Print pattern wall
G1 X136.4759 Y190.4332 E0.99515 F3000 ; Print pattern wall
G1 E-2 F2760 ; Retract
G1 Z0.7 F7200 ; Z hop
G0 X138.9259 Y148.0068 F7200 ; Move to next pattern
G1 Z0.6 F7200 ; Z hop return
G1 E2 F2760 ; Un-retract
SET_PRESSURE_ADVANCE ADVANCE=0.005 ; Set pressure advance
M117 PA 0.005
G1 X160.1391 Y169.22 E0.99515 F3000 ; Print pattern wall
G1 X138.9259 Y190.4332 E0.99515 F3000 ; Print pattern wall
G1 E-2 F2760 ; Retract
G1 Z0.7 F7200 ; Z hop
G0 X139.5016 Y148.0068 F7200 ; Move to start next pattern wall
G1 Z0.6 F7200 ; Z hop return
G1 E2 F2760 ; Un-retract
G1 X160.7148 Y169.22 E0.99515 F3000 ; Print pattern wall
G1 X139.5016 Y190.4332 E0.99515 F3000 ; Print pattern wall
G1 E-2 F2760 ; Retract
G1 Z0.7 F7200 ; Z hop
G0 X140.0773 Y148.0068 F7200 ; Move to start next pattern wall
G1 Z0.6 F7200 ; Z hop return
G1 E2 F2760 ; Un-retract
G1 X161.2905 Y169.22 E0.99515 F3000 ; Print pattern wall
G1 X140.0773 Y190.4332 E0.99515 F3000 ; Print pattern wall
G1 E-2 F2760 ; Retract
G1 Z0.7 F7200 ; Z hop
G0 X142.5273 Y148.0068 F7200 ; Move to next pattern
G1 Z0.6 F7200 ; Z hop return
G1 E2 F2760 ; Un-retract
SET_PRESSURE_ADVANCE ADVANCE=0.01 ; Set pressure advance
M117 PA 0.01
G1 X163.7405 Y169.22 E0.99515 F3000 ; Print pattern wall
G1 X142.5273 Y190.4332 E0.99515 F3000 ; Print pattern wall
G1 E-2 F2760 ; Retract
G1 Z0.7 F7200 ; Z hop
G0 X143.103 Y148.0068 F7200 ; Move to start next pattern wall
G1 Z0.6 F7200 ; Z hop return
G1 E2 F2760 ; Un-retract
G1 X164.3162 Y169.22 E0.99515 F3000 ; Print pattern wall
G1 X143.103 Y190.4332 E0.99515 F3000 ; Print pattern wall
G1 E-2 F2760 ; Retract
G1 Z0.7 F7200 ; Z hop
G0 X143.6787 Y148.0068 F7200 ; Move to start next pattern wall
G1 Z0.6 F7200 ; Z hop return
G1 E2 F2760 ; Un-retract
G1 X164.8919 Y169.22 E0.99515 F3000 ; Print pattern wall
G1 X143.6787 Y190.4332 E0.99515 F3000 ; Print pattern wall
G1 E-2 F2760 ; Retract
G1 Z0.7 F7200 ; Z hop
G0 X146.1287 Y148.0068 F7200 ; Move to next pattern
G1 Z0.6 F7200 ; Z hop return
G1 E2 F2760 ; Un-retract
SET_PRESSURE_ADVANCE ADVANCE=0.015 ; Set pressure advance
M117 PA 0.015
G1 X167.3419 Y169.22 E0.99515 F3000 ; Print pattern wall
G1 X146.1287 Y190.4332 E0.99515 F3000 ; Print pattern wall
G1 E-2 F2760 ; Retract
G1 Z0.7 F7200 ; Z hop
G0 X146.7044 Y148.0068 F7200 ; Move to start next pattern wall
G1 Z0.6 F7200 ; Z hop return
G1 E2 F2760 ; Un-retract
G1 X167.9176 Y169.22 E0.99515 F3000 ; Print pattern wall
G1 X146.7044 Y190.4332 E0.99515 F3000 ; Print pattern wall
G1 E-2 F2760 ; Retract
G1 Z0.7 F7200 ; Z hop
G0 X147.2801 Y148.0068 F7200 ; Move to start next pattern wall
G1 Z0.6 F7200 ; Z hop return
G1 E2 F2760 ; Un-retract
G1 X168.4933 Y169.22 E0.99515 F3000 ; Print pattern wall
G1 X147.2801 Y190.4332 E0.99515 F3000 ; Print pattern wall
G1 E-2 F2760 ; Retract
G1 Z0.7 F7200 ; Z hop
G0 X149.7301 Y148.0068 F7200 ; Move to next pattern
G1 Z0.6 F7200 ; Z hop return
G1 E2 F2760 ; Un-retract
SET_PRESSURE_ADVANCE ADVANCE=0.02 ; Set pressure advance
M117 PA 0.02
G1 X170.9433 Y169.22 E0.99515 F3000 ; Print pattern wall
G1 X149.7301 Y190.4332 E0.99515 F3000 ; Print pattern wall
G1 E-2 F2760 ; Retract
G1 Z0.7 F7200 ; Z hop
G0 X150.3058 Y148.0068 F7200 ; Move to start next pattern wall
G1 Z0.6 F7200 ; Z hop return
G1 E2 F2760 ; Un-retract
G1 X171.519 Y169.22 E0.99515 F3000 ; Print pattern wall
G1 X150.3058 Y190.4332 E0.99515 F3000 ; Print pattern wall
G1 E-2 F2760 ; Retract
G1 Z0.7 F7200 ; Z hop
G0 X150.8815 Y148.0068 F7200 ; Move to start next pattern wall
G1 Z0.6 F7200 ; Z hop return
G1 E2 F2760 ; Un-retract
G1 X172.0947 Y169.22 E0.99515 F3000 ; Print pattern wall
G1 X150.8815 Y190.4332 E0.99515 F3000 ; Print pattern wall
G1 E-2 F2760 ; Retract
G1 Z0.7 F7200 ; Z hop
G0 X153.3315 Y148.0068 F7200 ; Move to next pattern
G1 Z0.6 F7200 ; Z hop return
G1 E2 F2760 ; Un-retract
SET_PRESSURE_ADVANCE ADVANCE=0.025 ; Set pressure advance
M117 PA 0.025
G1 X174.5447 Y169.22 E0.99515 F3000 ; Print pattern wall
G1 X153.3315 Y190.4332 E0.99515 F3000 ; Print pattern wall
G1 E-2 F2760 ; Retract
G1 Z0.7 F7200 ; Z hop
G0 X153.9072 Y148.0068 F7200 ; Move to start next pattern wall
G1 Z0.6 F7200 ; Z hop return
G1 E2 F2760 ; Un-retract
G1 X175.1204 Y169.22 E0.99515 F3000 ; Print pattern wall
G1 X153.9072 Y190.4332 E0.99515 F3000 ; Print pattern wall
G1 E-2 F2760 ; Retract
G1 Z0.7 F7200 ; Z hop
G0 X154.4829 Y148.0068 F7200 ; Move to start next pattern wall
G1 Z0.6 F7200 ; Z hop return
G1 E2 F2760 ; Un-retract
G1 X175.6961 Y169.22 E0.99515 F3000 ; Print pattern wall
G1 X154.4829 Y190.4332 E0.99515 F3000 ; Print pattern wall
G1 E-2 F2760 ; Retract
G1 Z0.7 F7200 ; Z hop
G0 X156.9329 Y148.0068 F7200 ; Move to next pattern
G1 Z0.6 F7200 ; Z hop return
G1 E2 F2760 ; Un-retract
SET_PRESSURE_ADVANCE ADVANCE=0.03 ; Set pressure advance
M117 PA 0.03
G1 X178.1461 Y169.22 E0.99515 F3000 ; Print pattern wall
G1 X156.9329 Y190.4332 E0.99515 F3000 ; Print pattern wall
G1 E-2 F2760 ; Retract
G1 Z0.7 F7200 ; Z hop
G0 X157.5086 Y148.0068 F7200 ; Move to start next pattern wall
G1 Z0.6 F7200 ; Z hop return
G1 E2 F2760 ; Un-retract
G1 X178.7218 Y169.22 E0.99515 F3000 ; Print pattern wall
G1 X157.5086 Y190.4332 E0.99515 F3000 ; Print pattern wall
G1 E-2 F2760 ; Retract
G1 Z0.7 F7200 ; Z hop
G0 X158.0843 Y148.0068 F7200 ; Move to start next pattern wall
G1 Z0.6 F7200 ; Z hop return
G1 E2 F2760 ; Un-retract
G1 X179.2975 Y169.22 E0.99515 F3000 ; Print pattern wall
G1 X158.0843 Y190.4332 E0.99515 F3000 ; Print pattern wall
G1 E-2 F2760 ; Retract
G1 Z0.7 F7200 ; Z hop
G0 X160.5343 Y148.0068 F7200 ; Move to next pattern
G1 Z0.6 F7200 ; Z hop return
G1 E2 F2760 ; Un-retract
SET_PRESSURE_ADVANCE ADVANCE=0.035 ; Set pressure advance
M117 PA 0.035
G1 X181.7475 Y169.22 E0.99515 F3000 ; Print pattern wall
G1 X160.5343 Y190.4332 E0.99515 F3000 ; Print pattern wall
G1 E-2 F2760 ; Retract
G1 Z0.7 F7200 ; Z hop
G0 X161.11 Y148.0068 F7200 ; Move to start next pattern wall
G1 Z0.6 F7200 ; Z hop return
G1 E2 F2760 ; Un-retract
G1 X182.3232 Y169.22 E0.99515 F3000 ; Print pattern wall
G1 X161.11 Y190.4332 E0.99515 F3000 ; Print pattern wall
G1 E-2 F2760 ; Retract
G1 Z0.7 F7200 ; Z hop
G0 X161.6857 Y148.0068 F7200 ; Move to start next pattern wall
G1 Z0.6 F7200 ; Z hop return
G1 E2 F2760 ; Un-retract
G1 X182.8989 Y169.22 E0.99515 F3000 ; Print pattern wall
G1 X161.6857 Y190.4332 E0.99515 F3000 ; Print pattern wall
G1 E-2 F2760 ; Retract
G1 Z0.7 F7200 ; Z hop
G0 X164.1357 Y148.0068 F7200 ; Move to next pattern
G1 Z0.6 F7200 ; Z hop return
G1 E2 F2760 ; Un-retract
SET_PRESSURE_ADVANCE ADVANCE=0.04 ; Set pressure advance
M117 PA 0.04
G1 X185.3489 Y169.22 E0.99515 F3000 ; Print pattern wall
G1 X164.1357 Y190.4332 E0.99515 F3000 ; Print pattern wall
G1 E-2 F2760 ; Retract
G1 Z0.7 F7200 ; Z hop
G0 X164.7114 Y148.0068 F7200 ; Move to start next pattern wall
G1 Z0.6 F7200 ; Z hop return
G1 E2 F2760 ; Un-retract
G1 X185.9246 Y169.22 E0.99515 F3000 ; Print pattern wall
G1 X164.7114 Y190.4332 E0.99515 F3000 ; Print pattern wall
G1 E-2 F2760 ; Retract
G1 Z0.7 F7200 ; Z hop
G0 X165.2871 Y148.0068 F7200 ; Move to start next pattern wall
G1 Z0.6 F7200 ; Z hop return
G1 E2 F2760 ; Un-retract
G1 X186.5003 Y169.22 E0.99515 F3000 ; Print pattern wall
G1 X165.2871 Y190.4332 E0.99515 F3000 ; Print pattern wall
G1 E-2 F2760 ; Retract
G1 Z0.7 F7200 ; Z hop
G0 X167.7371 Y148.0068 F7200 ; Move to next pattern
G1 Z0.6 F7200 ; Z hop return
G1 E2 F2760 ; Un-retract
SET_PRESSURE_ADVANCE ADVANCE=0.045 ; Set pressure advance
M117 PA 0.045
G1 X188.9503 Y169.22 E0.99515 F3000 ; Print pattern wall
G1 X167.7371 Y190.4332 E0.99515 F3000 ; Print pattern wall
G1 E-2 F2760 ; Retract
G1 Z0.7 F7200 ; Z hop
G0 X168.3128 Y148.0068 F7200 ; Move to start next pattern wall
G1 Z0.6 F7200 ; Z hop return
G1 E2 F2760 ; Un-retract
G1 X189.526 Y169.22 E0.99515 F3000 ; Print pattern wall
G1 X168.3128 Y190.4332 E0.99515 F3000 ; Print pattern wall
G1 E-2 F2760 ; Retract
G1 Z0.7 F7200 ; Z hop
G0 X168.8885 Y148.0068 F7200 ; Move to start next pattern wall
G1 Z0.6 F7200 ; Z hop return
G1 E2 F2760 ; Un-retract
G1 X190.1017 Y169.22 E0.99515 F3000 ; Print pattern wall
G1 X168.8885 Y190.4332 E0.99515 F3000 ; Print pattern wall
G1 E-2 F2760 ; Retract
G1 Z0.7 F7200 ; Z hop
G0 X171.3385 Y148.0068 F7200 ; Move to next pattern
G1 Z0.6 F7200 ; Z hop return
G1 E2 F2760 ; Un-retract
SET_PRESSURE_ADVANCE ADVANCE=0.05 ; Set pressure advance
M117 PA 0.05
G1 X192.5517 Y169.22 E0.99515 F3000 ; Print pattern wall
G1 X171.3385 Y190.4332 E0.99515 F3000 ; Print pattern wall
G1 E-2 F2760 ; Retract
G1 Z0.7 F7200 ; Z hop
G0 X171.9142 Y148.0068 F7200 ; Move to start next pattern wall
G1 Z0.6 F7200 ; Z hop return
G1 E2 F2760 ; Un-retract
G1 X193.1274 Y169.22 E0.99515 F3000 ; Print pattern wall
G1 X171.9142 Y190.4332 E0.99515 F3000 ; Print pattern wall
G1 E-2 F2760 ; Retract
G1 Z0.7 F7200 ; Z hop
G0 X172.4899 Y148.0068 F7200 ; Move to start next pattern wall
G1 Z0.6 F7200 ; Z hop return
G1 E2 F2760 ; Un-retract
G1 X193.7031 Y169.22 E0.99515 F3000 ; Print pattern wall
G1 X172.4899 Y190.4332 E0.99515 F3000 ; Print pattern wall
G1 E-2 F2760 ; Retract
G1 Z0.7 F7200 ; Z hop
G0 X174.9399 Y148.0068 F7200 ; Move to next pattern
G1 Z0.6 F7200 ; Z hop return
G1 E2 F2760 ; Un-retract
SET_PRESSURE_ADVANCE ADVANCE=0.055 ; Set pressure advance
M117 PA 0.055
G1 X196.1531 Y169.22 E0.99515 F3000 ; Print pattern wall
G1 X174.9399 Y190.4332 E0.99515 F3000 ; Print pattern wall
G1 E-2 F2760 ; Retract
G1 Z0.7 F7200 ; Z hop
G0 X175.5156 Y148.0068 F7200 ; Move to start next pattern wall
G1 Z0.6 F7200 ; Z hop return
G1 E2 F2760 ; Un-retract
G1 X196.7288 Y169.22 E0.99515 F3000 ; Print pattern wall
G1 X175.5156 Y190.4332 E0.99515 F3000 ; Print pattern wall
G1 E-2 F2760 ; Retract
G1 Z0.7 F7200 ; Z hop
G0 X176.0913 Y148.0068 F7200 ; Move to start next pattern wall
G1 Z0.6 F7200 ; Z hop return
G1 E2 F2760 ; Un-retract
G1 X197.3045 Y169.22 E0.99515 F3000 ; Print pattern wall
G1 X176.0913 Y190.4332 E0.99515 F3000 ; Print pattern wall
G1 E-2 F2760 ; Retract
G1 Z0.7 F7200 ; Z hop
G0 X178.5413 Y148.0068 F7200 ; Move to next pattern
G1 Z0.6 F7200 ; Z hop return
G1 E2 F2760 ; Un-retract
SET_PRESSURE_ADVANCE ADVANCE=0.06 ; Set pressure advance
M117 PA 0.06
G1 X199.7545 Y169.22 E0.99515 F3000 ; Print pattern wall
G1 X178.5413 Y190.4332 E0.99515 F3000 ; Print pattern wall
G1 E-2 F2760 ; Retract
G1 Z0.7 F7200 ; Z hop
G0 X179.117 Y148.0068 F7200 ; Move to start next pattern wall
G1 Z0.6 F7200 ; Z hop return
G1 E2 F2760 ; Un-retract
G1 X200.3302 Y169.22 E0.99515 F3000 ; Print pattern wall
G1 X179.117 Y190.4332 E0.99515 F3000 ; Print pattern wall
G1 E-2 F2760 ; Retract
G1 Z0.7 F7200 ; Z hop
G0 X179.6927 Y148.0068 F7200 ; Move to start next pattern wall
G1 Z0.6 F7200 ; Z hop return
G1 E2 F2760 ; Un-retract
G1 X200.9059 Y169.22 E0.99515 F3000 ; Print pattern wall
G1 X179.6927 Y190.4332 E0.99515 F3000 ; Print pattern wall
G1 E-2 F2760 ; Retract
G1 Z0.7 F7200 ; Z hop
G0 X182.1427 Y148.0068 F7200 ; Move to next pattern
G1 Z0.6 F7200 ; Z hop return
G1 E2 F2760 ; Un-retract
SET_PRESSURE_ADVANCE ADVANCE=0.065 ; Set pressure advance
M117 PA 0.065
G1 X203.3559 Y169.22 E0.99515 F3000 ; Print pattern wall
G1 X182.1427 Y190.4332 E0.99515 F3000 ; Print pattern wall
G1 E-2 F2760 ; Retract
G1 Z0.7 F7200 ; Z hop
G0 X182.7184 Y148.0068 F7200 ; Move to start next pattern wall
G1 Z0.6 F7200 ; Z hop return
G1 E2 F2760 ; Un-retract
G1 X203.9316 Y169.22 E0.99515 F3000 ; Print pattern wall
G1 X182.7184 Y190.4332 E0.99515 F3000 ; Print pattern wall
G1 E-2 F2760 ; Retract
G1 Z0.7 F7200 ; Z hop
G0 X183.2941 Y148.0068 F7200 ; Move to start next pattern wall
G1 Z0.6 F7200 ; Z hop return
G1 E2 F2760 ; Un-retract
G1 X204.5073 Y169.22 E0.99515 F3000 ; Print pattern wall
G1 X183.2941 Y190.4332 E0.99515 F3000 ; Print pattern wall
G1 E-2 F2760 ; Retract
G1 Z0.7 F7200 ; Z hop
G0 X185.7441 Y148.0068 F7200 ; Move to next pattern
G1 Z0.6 F7200 ; Z hop return
G1 E2 F2760 ; Un-retract
SET_PRESSURE_ADVANCE ADVANCE=0.07 ; Set pressure advance
M117 PA 0.07
G1 X206.9573 Y169.22 E0.99515 F3000 ; Print pattern wall
G1 X185.7441 Y190.4332 E0.99515 F3000 ; Print pattern wall
G1 E-2 F2760 ; Retract
G1 Z0.7 F7200 ; Z hop
G0 X186.3198 Y148.0068 F7200 ; Move to start next pattern wall
G1 Z0.6 F7200 ; Z hop return
G1 E2 F2760 ; Un-retract
G1 X207.533 Y169.22 E0.99515 F3000 ; Print pattern wall
G1 X186.3198 Y190.4332 E0.99515 F3000 ; Print pattern wall
G1 E-2 F2760 ; Retract
G1 Z0.7 F7200 ; Z hop
G0 X186.8955 Y148.0068 F7200 ; Move to start next pattern wall
G1 Z0.6 F7200 ; Z hop return
G1 E2 F2760 ; Un-retract
G1 X208.1087 Y169.22 E0.99515 F3000 ; Print pattern wall
G1 X186.8955 Y190.4332 E0.99515 F3000 ; Print pattern wall
G1 E-2 F2760 ; Retract
G1 Z0.7 F7200 ; Z hop
G0 X189.3455 Y148.0068 F7200 ; Move to next pattern
G1 Z0.6 F7200 ; Z hop return
G1 E2 F2760 ; Un-retract
SET_PRESSURE_ADVANCE ADVANCE=0.075 ; Set pressure advance
M117 PA 0.075
G1 X210.5587 Y169.22 E0.99515 F3000 ; Print pattern wall
G1 X189.3455 Y190.4332 E0.99515 F3000 ; Print pattern wall
G1 E-2 F2760 ; Retract
G1 Z0.7 F7200 ; Z hop
G0 X189.9212 Y148.0068 F7200 ; Move to start next pattern wall
G1 Z0.6 F7200 ; Z hop return
G1 E2 F2760 ; Un-retract
G1 X211.1344 Y169.22 E0.99515 F3000 ; Print pattern wall
G1 X189.9212 Y190.4332 E0.99515 F3000 ; Print pattern wall
G1 E-2 F2760 ; Retract
G1 Z0.7 F7200 ; Z hop
G0 X190.4969 Y148.0068 F7200 ; Move to start next pattern wall
G1 Z0.6 F7200 ; Z hop return
G1 E2 F2760 ; Un-retract
G1 X211.7101 Y169.22 E0.99515 F3000 ; Print pattern wall
G1 X190.4969 Y190.4332 E0.99515 F3000 ; Print pattern wall
G1 E-2 F2760 ; Retract
G1 Z0.7 F7200 ; Z hop
G0 X192.9469 Y148.0068 F7200 ; Move to next pattern
G1 Z0.6 F7200 ; Z hop return
G1 E2 F2760 ; Un-retract
SET_PRESSURE_ADVANCE ADVANCE=0.08 ; Set pressure advance
M117 PA 0.08
G1 X214.1601 Y169.22 E0.99515 F3000 ; Print pattern wall
G1 X192.9469 Y190.4332 E0.99515 F3000 ; Print pattern wall
G1 E-2 F2760 ; Retract
G1 Z0.7 F7200 ; Z hop
G0 X193.5226 Y148.0068 F7200 ; Move to start next pattern wall
G1 Z0.6 F7200 ; Z hop return
G1 E2 F2760 ; Un-retract
G1 X214.7358 Y169.22 E0.99515 F3000 ; Print pattern wall
G1 X193.5226 Y190.4332 E0.99515 F3000 ; Print pattern wall
G1 E-2 F2760 ; Retract
G1 Z0.7 F7200 ; Z hop
G0 X194.0983 Y148.0068 F7200 ; Move to start next pattern wall
G1 Z0.6 F7200 ; Z hop return
G1 E2 F2760 ; Un-retract
G1 X215.3115 Y169.22 E0.99515 F3000 ; Print pattern wall
G1 X194.0983 Y190.4332 E0.99515 F3000 ; Print pattern wall
G1 E-2 F2760 ; Retract
G1 Z0.7 F7200 ; Z hop
G0 X135.3245 Y148.0068 F7200 ; Move back to start position
G1 Z0.6 F7200 ; Z hop return
G1 E2 F2760 ; Un-retract
G0 Z0.8 F7200 ; Move to layer height
SET_PRESSURE_ADVANCE ADVANCE=0 ; Set pressure advance
M117 PA 0
G1 X156.5377 Y169.22 E0.99515 F3000 ; Print pattern wall
G1 X135.3245 Y190.4332 E0.99515 F3000 ; Print pattern wall
G1 E-2 F2760 ; Retract
G1 Z0.9 F7200 ; Z hop
G0 X135.9002 Y148.0068 F7200 ; Move to start next pattern wall
G1 Z0.8 F7200 ; Z hop return
G1 E2 F2760 ; Un-retract
G1 X157.1134 Y169.22 E0.99515 F3000 ; Print pattern wall
G1 X135.9002 Y190.4332 E0.99515 F3000 ; Print pattern wall
G1 E-2 F2760 ; Retract
G1 Z0.9 F7200 ; Z hop
G0 X136.4759 Y148.0068 F7200 ; Move to start next pattern wall
G1 Z0.8 F7200 ; Z hop return
G1 E2 F2760 ; Un-retract
G1 X157.6891 Y169.22 E0.99515 F3000 ; Print pattern wall
G1 X136.4759 Y190.4332 E0.99515 F3000 ; Print pattern wall
G1 E-2 F2760 ; Retract
G1 Z0.9 F7200 ; Z hop
G0 X138.9259 Y148.0068 F7200 ; Move to next pattern
G1 Z0.8 F7200 ; Z hop return
G1 E2 F2760 ; Un-retract
SET_PRESSURE_ADVANCE ADVANCE=0.005 ; Set pressure advance
M117 PA 0.005
G1 X160.1391 Y169.22 E0.99515 F3000 ; Print pattern wall
G1 X138.9259 Y190.4332 E0.99515 F3000 ; Print pattern wall
G1 E-2 F2760 ; Retract
G1 Z0.9 F7200 ; Z hop
G0 X139.5016 Y148.0068 F7200 ; Move to start next pattern wall
G1 Z0.8 F7200 ; Z hop return
G1 E2 F2760 ; Un-retract
G1 X160.7148 Y169.22 E0.99515 F3000 ; Print pattern wall
G1 X139.5016 Y190.4332 E0.99515 F3000 ; Print pattern wall
G1 E-2 F2760 ; Retract
G1 Z0.9 F7200 ; Z hop
G0 X140.0773 Y148.0068 F7200 ; Move to start next pattern wall
G1 Z0.8 F7200 ; Z hop return
G1 E2 F2760 ; Un-retract
G1 X161.2905 Y169.22 E0.99515 F3000 ; Print pattern wall
G1 X140.0773 Y190.4332 E0.99515 F3000 ; Print pattern wall
G1 E-2 F2760 ; Retract
G1 Z0.9 F7200 ; Z hop
G0 X142.5273 Y148.0068 F7200 ; Move to next pattern
G1 Z0.8 F7200 ; Z hop return
G1 E2 F2760 ; Un-retract
SET_PRESSURE_ADVANCE ADVANCE=0.01 ; Set pressure advance
M117 PA 0.01
G1 X163.7405 Y169.22 E0.99515 F3000 ; Print pattern wall
G1 X142.5273 Y190.4332 E0.99515 F3000 ; Print pattern wall
G1 E-2 F2760 ; Retract
G1 Z0.9 F7200 ; Z hop
G0 X143.103 Y148.0068 F7200 ; Move to start next pattern wall
G1 Z0.8 F7200 ; Z hop return
G1 E2 F2760 ; Un-retract
G1 X164.3162 Y169.22 E0.99515 F3000 ; Print pattern wall
G1 X143.103 Y190.4332 E0.99515 F3000 ; Print pattern wall
G1 E-2 F2760 ; Retract
G1 Z0.9 F7200 ; Z hop
G0 X143.6787 Y148.0068 F7200 ; Move to start next pattern wall
G1 Z0.8 F7200 ; Z hop return
G1 E2 F2760 ; Un-retract
G1 X164.8919 Y169.22 E0.99515 F3000 ; Print pattern wall
G1 X143.6787 Y190.4332 E0.99515 F3000 ; Print pattern wall
G1 E-2 F2760 ; Retract
G1 Z0.9 F7200 ; Z hop
G0 X146.1287 Y148.0068 F7200 ; Move to next pattern
G1 Z0.8 F7200 ; Z hop return
G1 E2 F2760 ; Un-retract
SET_PRESSURE_ADVANCE ADVANCE=0.015 ; Set pressure advance
M117 PA 0.015
G1 X167.3419 Y169.22 E0.99515 F3000 ; Print pattern wall
G1 X146.1287 Y190.4332 E0.99515 F3000 ; Print pattern wall
G1 E-2 F2760 ; Retract
G1 Z0.9 F7200 ; Z hop
G0 X146.7044 Y148.0068 F7200 ; Move to start next pattern wall
G1 Z0.8 F7200 ; Z hop return
G1 E2 F2760 ; Un-retract
G1 X167.9176 Y169.22 E0.99515 F3000 ; Print pattern wall
G1 X146.7044 Y190.4332 E0.99515 F3000 ; Print pattern wall
G1 E-2 F2760 ; Retract
G1 Z0.9 F7200 ; Z hop
G0 X147.2801 Y148.0068 F7200 ; Move to start next pattern wall
G1 Z0.8 F7200 ; Z hop return
G1 E2 F2760 ; Un-retract
G1 X168.4933 Y169.22 E0.99515 F3000 ; Print pattern wall
G1 X147.2801 Y190.4332 E0.99515 F3000 ; Print pattern wall
G1 E-2 F2760 ; Retract
G1 Z0.9 F7200 ; Z hop
G0 X149.7301 Y148.0068 F7200 ; Move to next pattern
G1 Z0.8 F7200 ; Z hop return
G1 E2 F2760 ; Un-retract
SET_PRESSURE_ADVANCE ADVANCE=0.02 ; Set pressure advance
M117 PA 0.02
G1 X170.9433 Y169.22 E0.99515 F3000 ; Print pattern wall
G1 X149.7301 Y190.4332 E0.99515 F3000 ; Print pattern wall
G1 E-2 F2760 ; Retract
G1 Z0.9 F7200 ; Z hop
G0 X150.3058 Y148.0068 F7200 ; Move to start next pattern wall
G1 Z0.8 F7200 ; Z hop return
G1 E2 F2760 ; Un-retract
G1 X171.519 Y169.22 E0.99515 F3000 ; Print pattern wall
G1 X150.3058 Y190.4332 E0.99515 F3000 ; Print pattern wall
G1 E-2 F2760 ; Retract
G1 Z0.9 F7200 ; Z hop
G0 X150.8815 Y148.0068 F7200 ; Move to start next pattern wall
G1 Z0.8 F7200 ; Z hop return
G1 E2 F2760 ; Un-retract
G1 X172.0947 Y169.22 E0.99515 F3000 ; Print pattern wall
G1 X150.8815 Y190.4332 E0.99515 F3000 ; Print pattern wall
G1 E-2 F2760 ; Retract
G1 Z0.9 F7200 ; Z hop
G0 X153.3315 Y148.0068 F7200 ; Move to next pattern
G1 Z0.8 F7200 ; Z hop return
G1 E2 F2760 ; Un-retract
SET_PRESSURE_ADVANCE ADVANCE=0.025 ; Set pressure advance
M117 PA 0.025
G1 X174.5447 Y169.22 E0.99515 F3000 ; Print pattern wall
G1 X153.3315 Y190.4332 E0.99515 F3000 ; Print pattern wall
G1 E-2 F2760 ; Retract
G1 Z0.9 F7200 ; Z hop
G0 X153.9072 Y148.0068 F7200 ; Move to start next pattern wall
G1 Z0.8 F7200 ; Z hop return
G1 E2 F2760 ; Un-retract
G1 X175.1204 Y169.22 E0.99515 F3000 ; Print pattern wall
G1 X153.9072 Y190.4332 E0.99515 F3000 ; Print pattern wall
G1 E-2 F2760 ; Retract
G1 Z0.9 F7200 ; Z hop
G0 X154.4829 Y148.0068 F7200 ; Move to start next pattern wall
G1 Z0.8 F7200 ; Z hop return
G1 E2 F2760 ; Un-retract
G1 X175.6961 Y169.22 E0.99515 F3000 ; Print pattern wall
G1 X154.4829 Y190.4332 E0.99515 F3000 ; Print pattern wall
G1 E-2 F2760 ; Retract
G1 Z0.9 F7200 ; Z hop
G0 X156.9329 Y148.0068 F7200 ; Move to next pattern
G1 Z0.8 F7200 ; Z hop return
G1 E2 F2760 ; Un-retract
SET_PRESSURE_ADVANCE ADVANCE=0.03 ; Set pressure advance
M117 PA 0.03
G1 X178.1461 Y169.22 E0.99515 F3000 ; Print pattern wall
G1 X156.9329 Y190.4332 E0.99515 F3000 ; Print pattern wall
G1 E-2 F2760 ; Retract
G1 Z0.9 F7200 ; Z hop
G0 X157.5086 Y148.0068 F7200 ; Move to start next pattern wall
G1 Z0.8 F7200 ; Z hop return
G1 E2 F2760 ; Un-retract
G1 X178.7218 Y169.22 E0.99515 F3000 ; Print pattern wall
G1 X157.5086 Y190.4332 E0.99515 F3000 ; Print pattern wall
G1 E-2 F2760 ; Retract
G1 Z0.9 F7200 ; Z hop
G0 X158.0843 Y148.0068 F7200 ; Move to start next pattern wall
G1 Z0.8 F7200 ; Z hop return
G1 E2 F2760 ; Un-retract
G1 X179.2975 Y169.22 E0.99515 F3000 ; Print pattern wall
G1 X158.0843 Y190.4332 E0.99515 F3000 ; Print pattern wall
G1 E-2 F2760 ; Retract
G1 Z0.9 F7200 ; Z hop
G0 X160.5343 Y148.0068 F7200 ; Move to next pattern
G1 Z0.8 F7200 ; Z hop return
G1 E2 F2760 ; Un-retract
SET_PRESSURE_ADVANCE ADVANCE=0.035 ; Set pressure advance
M117 PA 0.035
G1 X181.7475 Y169.22 E0.99515 F3000 ; Print pattern wall
G1 X160.5343 Y190.4332 E0.99515 F3000 ; Print pattern wall
G1 E-2 F2760 ; Retract
G1 Z0.9 F7200 ; Z hop
G0 X161.11 Y148.0068 F7200 ; Move to start next pattern wall
G1 Z0.8 F7200 ; Z hop return
G1 E2 F2760 ; Un-retract
G1 X182.3232 Y169.22 E0.99515 F3000 ; Print pattern wall
G1 X161.11 Y190.4332 E0.99515 F3000 ; Print pattern wall
G1 E-2 F2760 ; Retract
G1 Z0.9 F7200 ; Z hop
G0 X161.6857 Y148.0068 F7200 ; Move to start next pattern wall
G1 Z0.8 F7200 ; Z hop return
G1 E2 F2760 ; Un-retract
G1 X182.8989 Y169.22 E0.99515 F3000 ; Print pattern wall
G1 X161.6857 Y190.4332 E0.99515 F3000 ; Print pattern wall
G1 E-2 F2760 ; Retract
G1 Z0.9 F7200 ; Z hop
G0 X164.1357 Y148.0068 F7200 ; Move to next pattern
G1 Z0.8 F7200 ; Z hop return
G1 E2 F2760 ; Un-retract
SET_PRESSURE_ADVANCE ADVANCE=0.04 ; Set pressure advance
M117 PA 0.04
G1 X185.3489 Y169.22 E0.99515 F3000 ; Print pattern wall
G1 X164.1357 Y190.4332 E0.99515 F3000 ; Print pattern wall
G1 E-2 F2760 ; Retract
G1 Z0.9 F7200 ; Z hop
G0 X164.7114 Y148.0068 F7200 ; Move to start next pattern wall
G1 Z0.8 F7200 ; Z hop return
G1 E2 F2760 ; Un-retract
G1 X185.9246 Y169.22 E0.99515 F3000 ; Print pattern wall
G1 X164.7114 Y190.4332 E0.99515 F3000 ; Print pattern wall
G1 E-2 F2760 ; Retract
G1 Z0.9 F7200 ; Z hop
G0 X165.2871 Y148.0068 F7200 ; Move to start next pattern wall
G1 Z0.8 F7200 ; Z hop return
G1 E2 F2760 ; Un-retract
G1 X186.5003 Y169.22 E0.99515 F3000 ; Print pattern wall
G1 X165.2871 Y190.4332 E0.99515 F3000 ; Print pattern wall
G1 E-2 F2760 ; Retract
G1 Z0.9 F7200 ; Z hop
G0 X167.7371 Y148.0068 F7200 ; Move to next pattern
G1 Z0.8 F7200 ; Z hop return
G1 E2 F2760 ; Un-retract
SET_PRESSURE_ADVANCE ADVANCE=0.045 ; Set pressure advance
M117 PA 0.045
G1 X188.9503 Y169.22 E0.99515 F3000 ; Print pattern wall
G1 X167.7371 Y190.4332 E0.99515 F3000 ; Print pattern wall
G1 E-2 F2760 ; Retract
G1 Z0.9 F7200 ; Z hop
G0 X168.3128 Y148.0068 F7200 ; Move to start next pattern wall
G1 Z0.8 F7200 ; Z hop return
G1 E2 F2760 ; Un-retract
G1 X189.526 Y169.22 E0.99515 F3000 ; Print pattern wall
G1 X168.3128 Y190.4332 E0.99515 F3000 ; Print pattern wall
G1 E-2 F2760 ; Retract
G1 Z0.9 F7200 ; Z hop
G0 X168.8885 Y148.0068 F7200 ; Move to start next pattern wall
G1 Z0.8 F7200 ; Z hop return
G1 E2 F2760 ; Un-retract
G1 X190.1017 Y169.22 E0.99515 F3000 ; Print pattern wall
G1 X168.8885 Y190.4332 E0.99515 F3000 ; Print pattern wall
G1 E-2 F2760 ; Retract
G1 Z0.9 F7200 ; Z hop
G0 X171.3385 Y148.0068 F7200 ; Move to next pattern
G1 Z0.8 F7200 ; Z hop return
G1 E2 F2760 ; Un-retract
SET_PRESSURE_ADVANCE ADVANCE=0.05 ; Set pressure advance
M117 PA 0.05
G1 X192.5517 Y169.22 E0.99515 F3000 ; Print pattern wall
G1 X171.3385 Y190.4332 E0.99515 F3000 ; Print pattern wall
G1 E-2 F2760 ; Retract
G1 Z0.9 F7200 ; Z hop
G0 X171.9142 Y148.0068 F7200 ; Move to start next pattern wall
G1 Z0.8 F7200 ; Z hop return
G1 E2 F2760 ; Un-retract
G1 X193.1274 Y169.22 E0.99515 F3000 ; Print pattern wall
G1 X171.9142 Y190.4332 E0.99515 F3000 ; Print pattern wall
G1 E-2 F2760 ; Retract
G1 Z0.9 F7200 ; Z hop
G0 X172.4899 Y148.0068 F7200 ; Move to start next pattern wall
G1 Z0.8 F7200 ; Z hop return
G1 E2 F2760 ; Un-retract
G1 X193.7031 Y169.22 E0.99515 F3000 ; Print pattern wall
G1 X172.4899 Y190.4332 E0.99515 F3000 ; Print pattern wall
G1 E-2 F2760 ; Retract
G1 Z0.9 F7200 ; Z hop
G0 X174.9399 Y148.0068 F7200 ; Move to next pattern
G1 Z0.8 F7200 ; Z hop return
G1 E2 F2760 ; Un-retract
SET_PRESSURE_ADVANCE ADVANCE=0.055 ; Set pressure advance
M117 PA 0.055
G1 X196.1531 Y169.22 E0.99515 F3000 ; Print pattern wall
G1 X174.9399 Y190.4332 E0.99515 F3000 ; Print pattern wall
G1 E-2 F2760 ; Retract
G1 Z0.9 F7200 ; Z hop
G0 X175.5156 Y148.0068 F7200 ; Move to start next pattern wall
G1 Z0.8 F7200 ; Z hop return
G1 E2 F2760 ; Un-retract
G1 X196.7288 Y169.22 E0.99515 F3000 ; Print pattern wall
G1 X175.5156 Y190.4332 E0.99515 F3000 ; Print pattern wall
G1 E-2 F2760 ; Retract
G1 Z0.9 F7200 ; Z hop
G0 X176.0913 Y148.0068 F7200 ; Move to start next pattern wall
G1 Z0.8 F7200 ; Z hop return
G1 E2 F2760 ; Un-retract
G1 X197.3045 Y169.22 E0.99515 F3000 ; Print pattern wall
G1 X176.0913 Y190.4332 E0.99515 F3000 ; Print pattern wall
G1 E-2 F2760 ; Retract
G1 Z0.9 F7200 ; Z hop
G0 X178.5413 Y148.0068 F7200 ; Move to next pattern
G1 Z0.8 F7200 ; Z hop return
G1 E2 F2760 ; Un-retract
SET_PRESSURE_ADVANCE ADVANCE=0.06 ; Set pressure advance
M117 PA 0.06
G1 X199.7545 Y169.22 E0.99515 F3000 ; Print pattern wall
G1 X178.5413 Y190.4332 E0.99515 F3000 ; Print pattern wall
G1 E-2 F2760 ; Retract
G1 Z0.9 F7200 ; Z hop
G0 X179.117 Y148.0068 F7200 ; Move to start next pattern wall
G1 Z0.8 F7200 ; Z hop return
G1 E2 F2760 ; Un-retract
G1 X200.3302 Y169.22 E0.99515 F3000 ; Print pattern wall
G1 X179.117 Y190.4332 E0.99515 F3000 ; Print pattern wall
G1 E-2 F2760 ; Retract
G1 Z0.9 F7200 ; Z hop
G0 X179.6927 Y148.0068 F7200 ; Move to start next pattern wall
G1 Z0.8 F7200 ; Z hop return
G1 E2 F2760 ; Un-retract
G1 X200.9059 Y169.22 E0.99515 F3000 ; Print pattern wall
G1 X179.6927 Y190.4332 E0.99515 F3000 ; Print pattern wall
G1 E-2 F2760 ; Retract
G1 Z0.9 F7200 ; Z hop
G0 X182.1427 Y148.0068 F7200 ; Move to next pattern
G1 Z0.8 F7200 ; Z hop return
G1 E2 F2760 ; Un-retract
SET_PRESSURE_ADVANCE ADVANCE=0.065 ; Set pressure advance
M117 PA 0.065
G1 X203.3559 Y169.22 E0.99515 F3000 ; Print pattern wall
G1 X182.1427 Y190.4332 E0.99515 F3000 ; Print pattern wall
G1 E-2 F2760 ; Retract
G1 Z0.9 F7200 ; Z hop
G0 X182.7184 Y148.0068 F7200 ; Move to start next pattern wall
G1 Z0.8 F7200 ; Z hop return
G1 E2 F2760 ; Un-retract
G1 X203.9316 Y169.22 E0.99515 F3000 ; Print pattern wall
G1 X182.7184 Y190.4332 E0.99515 F3000 ; Print pattern wall
G1 E-2 F2760 ; Retract
G1 Z0.9 F7200 ; Z hop
G0 X183.2941 Y148.0068 F7200 ; Move to start next pattern wall
G1 Z0.8 F7200 ; Z hop return
G1 E2 F2760 ; Un-retract
G1 X204.5073 Y169.22 E0.99515 F3000 ; Print pattern wall
G1 X183.2941 Y190.4332 E0.99515 F3000 ; Print pattern wall
G1 E-2 F2760 ; Retract
G1 Z0.9 F7200 ; Z hop
G0 X185.7441 Y148.0068 F7200 ; Move to next pattern
G1 Z0.8 F7200 ; Z hop return
G1 E2 F2760 ; Un-retract
SET_PRESSURE_ADVANCE ADVANCE=0.07 ; Set pressure advance
M117 PA 0.07
G1 X206.9573 Y169.22 E0.99515 F3000 ; Print pattern wall
G1 X185.7441 Y190.4332 E0.99515 F3000 ; Print pattern wall
G1 E-2 F2760 ; Retract
G1 Z0.9 F7200 ; Z hop
G0 X186.3198 Y148.0068 F7200 ; Move to start next pattern wall
G1 Z0.8 F7200 ; Z hop return
G1 E2 F2760 ; Un-retract
G1 X207.533 Y169.22 E0.99515 F3000 ; Print pattern wall
G1 X186.3198 Y190.4332 E0.99515 F3000 ; Print pattern wall
G1 E-2 F2760 ; Retract
G1 Z0.9 F7200 ; Z hop
G0 X186.8955 Y148.0068 F7200 ; Move to start next pattern wall
G1 Z0.8 F7200 ; Z hop return
G1 E2 F2760 ; Un-retract
G1 X208.1087 Y169.22 E0.99515 F3000 ; Print pattern wall
G1 X186.8955 Y190.4332 E0.99515 F3000 ; Print pattern wall
G1 E-2 F2760 ; Retract
G1 Z0.9 F7200 ; Z hop
G0 X189.3455 Y148.0068 F7200 ; Move to next pattern
G1 Z0.8 F7200 ; Z hop return
G1 E2 F2760 ; Un-retract
SET_PRESSURE_ADVANCE ADVANCE=0.075 ; Set pressure advance
M117 PA 0.075
G1 X210.5587 Y169.22 E0.99515 F3000 ; Print pattern wall
G1 X189.3455 Y190.4332 E0.99515 F3000 ; Print pattern wall
G1 E-2 F2760 ; Retract
G1 Z0.9 F7200 ; Z hop
G0 X189.9212 Y148.0068 F7200 ; Move to start next pattern wall
G1 Z0.8 F7200 ; Z hop return
G1 E2 F2760 ; Un-retract
G1 X211.1344 Y169.22 E0.99515 F3000 ; Print pattern wall
G1 X189.9212 Y190.4332 E0.99515 F3000 ; Print pattern wall
G1 E-2 F2760 ; Retract
G1 Z0.9 F7200 ; Z hop
G0 X190.4969 Y148.0068 F7200 ; Move to start next pattern wall
G1 Z0.8 F7200 ; Z hop return
G1 E2 F2760 ; Un-retract
G1 X211.7101 Y169.22 E0.99515 F3000 ; Print pattern wall
G1 X190.4969 Y190.4332 E0.99515 F3000 ; Print pattern wall
G1 E-2 F2760 ; Retract
G1 Z0.9 F7200 ; Z hop
G0 X192.9469 Y148.0068 F7200 ; Move to next pattern
G1 Z0.8 F7200 ; Z hop return
G1 E2 F2760 ; Un-retract
SET_PRESSURE_ADVANCE ADVANCE=0.08 ; Set pressure advance
M117 PA 0.08
G1 X214.1601 Y169.22 E0.99515 F3000 ; Print pattern wall
G1 X192.9469 Y190.4332 E0.99515 F3000 ; Print pattern wall
G1 E-2 F2760 ; Retract
G1 Z0.9 F7200 ; Z hop
G0 X193.5226 Y148.0068 F7200 ; Move to start next pattern wall
G1 Z0.8 F7200 ; Z hop return
G1 E2 F2760 ; Un-retract
G1 X214.7358 Y169.22 E0.99515 F3000 ; Print pattern wall
G1 X193.5226 Y190.4332 E0.99515 F3000 ; Print pattern wall
G1 E-2 F2760 ; Retract
G1 Z0.9 F7200 ; Z hop
G0 X194.0983 Y148.0068 F7200 ; Move to start next pattern wall
G1 Z0.8 F7200 ; Z hop return
G1 E2 F2760 ; Un-retract
G1 X215.3115 Y169.22 E0.99515 F3000 ; Print pattern wall
G1 X194.0983 Y190.4332 E0.99515 F3000 ; Print pattern wall
SET_PRESSURE_ADVANCE ADVANCE=0 ; Set pressure advance back to start value
M117 PA 0
G1 E-2 F2760 ; Retract
G1 Z0.9 F7200 ; Z hop
G0 Z5.8 F7200 ; Z raise
M104 S0 ; Turn off hotend
M140 S0 ; Turn off bed
M107    ; Turn off fan
;
; End G-code
;
PRINT_END ; End macro. Change name to match yours
;
; FINISH
;
