
; ### Ellis' Pressure Advance / Linear Advance Calibration Tool ###
;
; Original Marlin linear advance calibration tool by Sineos [https://github.com/Sineos]
; Heavily modified/rewritten by Andrew Ellis [https://github.com/AndrewEllis93]
;
; -------------------------------------------
; Generated: Tue Feb 04 2025 19:42:30 GMT+0100 (heure normale d’Europe centrale)
; -------------------------------------------
;
; Advanced Mode: false
;
; Printer:
;  - Firmware: klipper
;  - Bed Shape: Rect
;  - Bed Size X: 350 mm
;  - Bed Size Y: 350 mm
;  - Origin Bed Center: false
;  - Travel Speed: 120 mm/s
;  - Nozzle Diameter: 0.4 mm
;  - Filament Diameter: 1.75 mm
;  - Extrusion Multiplier: 0.98
;
; Retraction / Z Hop:
;  - Retraction Distance: 0.5 mm
;  - Retract Speed: 35 mm/s
;  - Unretract Speed: 35 mm/s
;  - Z Hop Enable: true
;  - Z Hop Height: 0.1mm
;
; First Layer Settings:
;  - First Layer Height: 0.25 mm
;  - First Layer Printing Speed: 30 mm/s
;  - First Layer Fan Speed: 0%
;  - Anchor Option: anchor_frame
;
; Print Settings:
;  - Layer Height: 0.2 mm
;  - Print Speed: 150 mm/s
;  - Acceleration: Disabled
;  - Fan Speed: 50%
;
; Pressure Advance Stepping:
;  - PA Start Value: 0.038
;  - PA End Value: 0.052
;  - PA Increment: 0.001
;
; Start / End G-code:
;  - Hotend Temp: 195C
;  - Bed Temp: 60C
;  - Don't Add G28: false
;  - Don't Add Heating G-Codes: false
;  - Entered Start G-code: 
;       G28 ; Home all axes
;       M190 S60 ; Set & wait for bed temp
;       M109 S195 ; Set & wait for hotend temp
;       ; ; print_start EXTRUDER=195 BED=60 CHAMBER=0
;  - Entered End G-code: 
;       PRINT_END ; End macro. Change name to match yours
;
; Calculated Values:
;  - Print Size X: 77.51 mm
;  - Print Size Y: 56.99 mm
;  - Number of Patterns to Print: 15
;  - PA Values: 0.038, 0.039, 0.04, 0.041, 0.042, 0.043, 0.044, 0.045, 0.046, 0.047, 0.048, 0.049, 0.05, 0.051, 0.052
;
; Prepare printing
;


SET_GCODE_OFFSET Z=0
    
G28     ; home axes
G0 Z2   ; position beacon at 2mm for heat soak

M140 S{BED}     ; start bed heater
M109 S150       ; preheat nozzle to probing temp
M190 S{BED}     ; wait on bed temperature
G4 P60000       ; optional, let temps settle for 1 min

G28 Z METHOD=CONTACT CALIBRATE=1    ; calibrate z offset and beacon model hot
Z_TILT_ADJUST                       ; or QGL to balance towers
BED_MESH_CALIBRATE RUNS=2           ; bed mesh in scan mode

G28 Z METHOD=CONTACT CALIBRATE=0    ; calibrate z offset only after tilt/mesh

M104 S{EXTRUDER}                    ; set extruder to print temp
M109 S{EXTRUDER}                    ; wait for extruder temp

SET_GCODE_OFFSET Z=0.06     ; add a little offset for hotend thermal expansion
                            ; needs fine tuning, long meltzones require more
SET_GCODE_OFFSET Z_ADJUST={OFFSET}  ; apply optional material squish via slicer

print_start EXTRUDER=195 BED=60 CHAMBER=0


G21 ; Millimeter units
G90 ; Absolute XYZ
M83 ; Relative E
G92 E0 ; Reset extruder distance
;
;  Begin printing
;
M106 S0 ; Set fan speed
G1 E-0.5 F2100 ; Retract
G0 Z5 F7200 ; Z raise
G0 X136.2431 Y146.5068 F7200 ; Move to start position
G0 Z0.25 F7200 ; Move to start layer height
G1 E0.5 F2100 ; Un-retract
SET_PRESSURE_ADVANCE ADVANCE=0.038 ; Set pressure advance to start value
M117 PA 0.038
G1 X136.2431 Y188.9332 E2.1882 F1800 ; Draw perimeter (up)
G1 X213.7569 Y188.9332 E3.99788 F1800 ; Draw perimeter (right)
G1 X213.7569 Y146.5068 E2.1882 F1800 ; Draw perimeter (down)
G1 X136.2431 Y146.5068 E3.99788 F1800 ; Draw perimeter (left)
G0 X136.7494 Y147.0131 F7200 ; Step inwards to print next perimeter
G1 X136.7494 Y188.4269 E2.13597 F1800 ; Draw perimeter (up)
G1 X213.2506 Y188.4269 E3.94565 F1800 ; Draw perimeter (right)
G1 X213.2506 Y147.0131 E2.13597 F1800 ; Draw perimeter (down)
G1 X136.7494 Y147.0131 E3.94565 F1800 ; Draw perimeter (left)
G0 X137.2558 Y147.5195 F7200 ; Step inwards to print next perimeter
G1 X137.2558 Y187.9205 E2.08374 F1800 ; Draw perimeter (up)
G1 X212.7442 Y187.9205 E3.89342 F1800 ; Draw perimeter (right)
G1 X212.7442 Y147.5195 E2.08374 F1800 ; Draw perimeter (down)
G1 X137.2558 Y147.5195 E3.89342 F1800 ; Draw perimeter (left)
G0 X137.7621 Y148.0258 F7200 ; Step inwards to print next perimeter
G1 X137.7621 Y187.4142 E2.0315 F1800 ; Draw perimeter (up)
G1 X212.2379 Y187.4142 E3.84118 F1800 ; Draw perimeter (right)
G1 X212.2379 Y148.0258 E2.0315 F1800 ; Draw perimeter (down)
G1 X137.7621 Y148.0258 E3.84118 F1800 ; Draw perimeter (left)
G1 E-0.5 F2100 ; Retract
G1 Z0.35 F7200 ; Z hop
G0 X136.2431 Y189.4396 F7200 ; Move to box start
G1 Z0.25 F7200 ; Z hop return
G1 E0.5 F2100 ; Un-retract
G1 X136.2431 Y203.9459 E0.74818 F1800 ; Draw perimeter (up)
G1 X193.2948 Y203.9459 E2.94252 F1800 ; Draw perimeter (right)
G1 X193.2948 Y189.4396 E0.74818 F1800 ; Draw perimeter (down)
G1 X136.2431 Y189.4396 E2.94252 F1800 ; Draw perimeter (left)
G0 X136.7494 Y189.9459 F7200 ; Step inwards to print next perimeter
G1 X136.7494 Y203.4396 E0.69595 F1800 ; Draw perimeter (up)
G1 X192.7884 Y203.4396 E2.89029 F1800 ; Draw perimeter (right)
G1 X192.7884 Y189.9459 E0.69595 F1800 ; Draw perimeter (down)
G1 X136.7494 Y189.9459 E2.89029 F1800 ; Draw perimeter (left)
G0 X137.2558 Y190.4523 F7200 ; Step inwards to print next perimeter
G1 X137.2558 Y202.9332 E0.64372 F1800 ; Draw perimeter (up)
G1 X192.2821 Y202.9332 E2.83805 F1800 ; Draw perimeter (right)
G1 X192.2821 Y190.4523 E0.64372 F1800 ; Draw perimeter (down)
G1 X137.2558 Y190.4523 E2.83805 F1800 ; Draw perimeter (left)
G0 X137.7621 Y190.9586 F7200 ; Step inwards to print next perimeter
G1 X137.7621 Y202.4269 E0.59149 F1800 ; Draw perimeter (up)
G1 X191.7757 Y202.4269 E2.78582 F1800 ; Draw perimeter (right)
G1 X191.7757 Y190.9586 E0.59149 F1800 ; Draw perimeter (down)
G1 X137.7621 Y190.9586 E2.78582 F1800 ; Draw perimeter (left)
G0 X138.1355 Y191.3319 F7200 ; Move to fill start
G0 X138.8516 Y191.3319 F7200 ; Move
G1 X138.1355 Y192.048 E0.05223 F1800 ; Fill
G0 X138.1355 Y192.7641 F7200 ; Move
G1 X139.5677 Y191.3319 E0.10446 F1800 ; Fill
G0 X140.2837 Y191.3319 F7200 ; Move
G1 X138.1355 Y193.4802 E0.15669 F1800 ; Fill
G0 X138.1355 Y194.1963 F7200 ; Move
G1 X140.9998 Y191.3319 E0.20893 F1800 ; Fill
G0 X141.7159 Y191.3319 F7200 ; Move
G1 X138.1355 Y194.9124 E0.26116 F1800 ; Fill
G0 X138.1355 Y195.6285 F7200 ; Move
G1 X142.432 Y191.3319 E0.31339 F1800 ; Fill
G0 X143.1481 Y191.3319 F7200 ; Move
G1 X138.1355 Y196.3445 E0.36562 F1800 ; Fill
G0 X138.1355 Y197.0606 F7200 ; Move
G1 X143.8642 Y191.3319 E0.41785 F1800 ; Fill
G0 X144.5803 Y191.3319 F7200 ; Move
G1 X138.1355 Y197.7767 E0.47008 F1800 ; Fill
G0 X138.1355 Y198.4928 F7200 ; Move
G1 X145.2963 Y191.3319 E0.52231 F1800 ; Fill
G0 X146.0124 Y191.3319 F7200 ; Move
G1 X138.1355 Y199.2089 E0.57454 F1800 ; Fill
G0 X138.1355 Y199.925 F7200 ; Move
G1 X146.7285 Y191.3319 E0.62678 F1800 ; Fill
G0 X147.4446 Y191.3319 F7200 ; Move
G1 X138.1355 Y200.6411 E0.67901 F1800 ; Fill
G0 X138.1355 Y201.3571 F7200 ; Move
G1 X148.1607 Y191.3319 E0.73124 F1800 ; Fill
G0 X148.8768 Y191.3319 F7200 ; Move
G1 X138.1552 Y202.0535 E0.78203 F1800 ; Fill
G0 X138.8713 Y202.0535 F7200 ; Move
G1 X149.5929 Y191.3319 E0.78203 F1800 ; Fill
G0 X150.309 Y191.3319 F7200 ; Move
G1 X139.5874 Y202.0535 E0.78203 F1800 ; Fill
G0 X140.3035 Y202.0535 F7200 ; Move
G1 X151.025 Y191.3319 E0.78203 F1800 ; Fill
G0 X151.7411 Y191.3319 F7200 ; Move
G1 X141.0195 Y202.0535 E0.78203 F1800 ; Fill
G0 X141.7356 Y202.0535 F7200 ; Move
G1 X152.4572 Y191.3319 E0.78203 F1800 ; Fill
G0 X153.1733 Y191.3319 F7200 ; Move
G1 X142.4517 Y202.0535 E0.78203 F1800 ; Fill
G0 X143.1678 Y202.0535 F7200 ; Move
G1 X153.8894 Y191.3319 E0.78203 F1800 ; Fill
G0 X154.6055 Y191.3319 F7200 ; Move
G1 X143.8839 Y202.0535 E0.78203 F1800 ; Fill
G0 X144.6 Y202.0535 F7200 ; Move
G1 X155.3216 Y191.3319 E0.78203 F1800 ; Fill
G0 X156.0376 Y191.3319 F7200 ; Move
G1 X145.3161 Y202.0535 E0.78203 F1800 ; Fill
G0 X146.0321 Y202.0535 F7200 ; Move
G1 X156.7537 Y191.3319 E0.78203 F1800 ; Fill
G0 X157.4698 Y191.3319 F7200 ; Move
G1 X146.7482 Y202.0535 E0.78203 F1800 ; Fill
G0 X147.4643 Y202.0535 F7200 ; Move
G1 X158.1859 Y191.3319 E0.78203 F1800 ; Fill
G0 X158.902 Y191.3319 F7200 ; Move
G1 X148.1804 Y202.0535 E0.78203 F1800 ; Fill
G0 X148.8965 Y202.0535 F7200 ; Move
G1 X159.6181 Y191.3319 E0.78203 F1800 ; Fill
G0 X160.3342 Y191.3319 F7200 ; Move
G1 X149.6126 Y202.0535 E0.78203 F1800 ; Fill
G0 X150.3287 Y202.0535 F7200 ; Move
G1 X161.0502 Y191.3319 E0.78203 F1800 ; Fill
G0 X161.7663 Y191.3319 F7200 ; Move
G1 X151.0447 Y202.0535 E0.78203 F1800 ; Fill
G0 X151.7608 Y202.0535 F7200 ; Move
G1 X162.4824 Y191.3319 E0.78203 F1800 ; Fill
G0 X163.1985 Y191.3319 F7200 ; Move
G1 X152.4769 Y202.0535 E0.78203 F1800 ; Fill
G0 X153.193 Y202.0535 F7200 ; Move
G1 X163.9146 Y191.3319 E0.78203 F1800 ; Fill
G0 X164.6307 Y191.3319 F7200 ; Move
G1 X153.9091 Y202.0535 E0.78203 F1800 ; Fill
G0 X154.6252 Y202.0535 F7200 ; Move
G1 X165.3468 Y191.3319 E0.78203 F1800 ; Fill
G0 X166.0629 Y191.3319 F7200 ; Move
G1 X155.3413 Y202.0535 E0.78203 F1800 ; Fill
G0 X156.0574 Y202.0535 F7200 ; Move
G1 X166.7789 Y191.3319 E0.78203 F1800 ; Fill
G0 X167.495 Y191.3319 F7200 ; Move
G1 X156.7734 Y202.0535 E0.78203 F1800 ; Fill
G0 X157.4895 Y202.0535 F7200 ; Move
G1 X168.2111 Y191.3319 E0.78203 F1800 ; Fill
G0 X168.9272 Y191.3319 F7200 ; Move
G1 X158.2056 Y202.0535 E0.78203 F1800 ; Fill
G0 X158.9217 Y202.0535 F7200 ; Move
G1 X169.6433 Y191.3319 E0.78203 F1800 ; Fill
G0 X170.3594 Y191.3319 F7200 ; Move
G1 X159.6378 Y202.0535 E0.78203 F1800 ; Fill
G0 X160.3539 Y202.0535 F7200 ; Move
G1 X171.0755 Y191.3319 E0.78203 F1800 ; Fill
G0 X171.7915 Y191.3319 F7200 ; Move
G1 X161.07 Y202.0535 E0.78203 F1800 ; Fill
G0 X161.786 Y202.0535 F7200 ; Move
G1 X172.5076 Y191.3319 E0.78203 F1800 ; Fill
G0 X173.2237 Y191.3319 F7200 ; Move
G1 X162.5021 Y202.0535 E0.78203 F1800 ; Fill
G0 X163.2182 Y202.0535 F7200 ; Move
G1 X173.9398 Y191.3319 E0.78203 F1800 ; Fill
G0 X174.6559 Y191.3319 F7200 ; Move
G1 X163.9343 Y202.0535 E0.78203 F1800 ; Fill
G0 X164.6504 Y202.0535 F7200 ; Move
G1 X175.372 Y191.3319 E0.78203 F1800 ; Fill
G0 X176.0881 Y191.3319 F7200 ; Move
G1 X165.3665 Y202.0535 E0.78203 F1800 ; Fill
G0 X166.0826 Y202.0535 F7200 ; Move
G1 X176.8041 Y191.3319 E0.78203 F1800 ; Fill
G0 X177.5202 Y191.3319 F7200 ; Move
G1 X166.7986 Y202.0535 E0.78203 F1800 ; Fill
G0 X167.5147 Y202.0535 F7200 ; Move
G1 X178.2363 Y191.3319 E0.78203 F1800 ; Fill
G0 X178.9524 Y191.3319 F7200 ; Move
G1 X168.2308 Y202.0535 E0.78203 F1800 ; Fill
G0 X168.9469 Y202.0535 F7200 ; Move
G1 X179.6685 Y191.3319 E0.78203 F1800 ; Fill
G0 X180.3846 Y191.3319 F7200 ; Move
G1 X169.663 Y202.0535 E0.78203 F1800 ; Fill
G0 X170.3791 Y202.0535 F7200 ; Move
G1 X181.1007 Y191.3319 E0.78203 F1800 ; Fill
G0 X181.8168 Y191.3319 F7200 ; Move
G1 X171.0952 Y202.0535 E0.78203 F1800 ; Fill
G0 X171.8113 Y202.0535 F7200 ; Move
G1 X182.5328 Y191.3319 E0.78203 F1800 ; Fill
G0 X183.2489 Y191.3319 F7200 ; Move
G1 X172.5273 Y202.0535 E0.78203 F1800 ; Fill
G0 X173.2434 Y202.0535 F7200 ; Move
G1 X183.965 Y191.3319 E0.78203 F1800 ; Fill
G0 X184.6811 Y191.3319 F7200 ; Move
G1 X173.9595 Y202.0535 E0.78203 F1800 ; Fill
G0 X174.6756 Y202.0535 F7200 ; Move
G1 X185.3972 Y191.3319 E0.78203 F1800 ; Fill
G0 X186.1133 Y191.3319 F7200 ; Move
G1 X175.3917 Y202.0535 E0.78203 F1800 ; Fill
G0 X176.1078 Y202.0535 F7200 ; Move
G1 X186.8294 Y191.3319 E0.78203 F1800 ; Fill
G0 X187.5454 Y191.3319 F7200 ; Move
G1 X176.8239 Y202.0535 E0.78203 F1800 ; Fill
G0 X177.5399 Y202.0535 F7200 ; Move
G1 X188.2615 Y191.3319 E0.78203 F1800 ; Fill
G0 X188.9776 Y191.3319 F7200 ; Move
G1 X178.256 Y202.0535 E0.78203 F1800 ; Fill
G0 X178.9721 Y202.0535 F7200 ; Move
G1 X189.6937 Y191.3319 E0.78203 F1800 ; Fill
G0 X190.4098 Y191.3319 F7200 ; Move
G1 X179.6882 Y202.0535 E0.78203 F1800 ; Fill
G0 X180.4043 Y202.0535 F7200 ; Move
G1 X191.1259 Y191.3319 E0.78203 F1800 ; Fill
G0 X191.4024 Y191.7715 F7200 ; Move
G1 X181.1204 Y202.0535 E0.74997 F1800 ; Fill
G0 X181.8365 Y202.0535 F7200 ; Move
G1 X191.4024 Y192.4876 E0.69774 F1800 ; Fill
G0 X191.4024 Y193.2037 F7200 ; Move
G1 X182.5525 Y202.0535 E0.64551 F1800 ; Fill
G0 X183.2686 Y202.0535 F7200 ; Move
G1 X191.4024 Y193.9198 E0.59328 F1800 ; Fill
G0 X191.4024 Y194.6358 F7200 ; Move
G1 X183.9847 Y202.0535 E0.54105 F1800 ; Fill
G0 X184.7008 Y202.0535 F7200 ; Move
G1 X191.4024 Y195.3519 E0.48881 F1800 ; Fill
G0 X191.4024 Y196.068 F7200 ; Move
G1 X185.4169 Y202.0535 E0.43658 F1800 ; Fill
G0 X186.133 Y202.0535 F7200 ; Move
G1 X191.4024 Y196.7841 E0.38435 F1800 ; Fill
G0 X191.4024 Y197.5002 F7200 ; Move
G1 X186.8491 Y202.0535 E0.33212 F1800 ; Fill
G0 X187.5652 Y202.0535 F7200 ; Move
G1 X191.4024 Y198.2163 E0.27989 F1800 ; Fill
G0 X191.4024 Y198.9324 F7200 ; Move
G1 X188.2812 Y202.0535 E0.22766 F1800 ; Fill
G0 X188.9973 Y202.0535 F7200 ; Move
G1 X191.4024 Y199.6484 E0.17543 F1800 ; Fill
G0 X191.4024 Y200.3645 F7200 ; Move
G1 X189.7134 Y202.0535 E0.12319 F1800 ; Fill
G0 X190.4295 Y202.0535 F7200 ; Move
G1 X191.4024 Y201.0806 E0.07096 F1800 ; Fill
G0 X191.4024 Y201.7967 F7200 ; Move
G1 X191.1456 Y202.0535 E0.01873 F1800 ; Fill
G0 Z0.25 F7200 ; Move to layer height
G1 E-0.5 F2100 ; Retract
G1 Z0.35 F7200 ; Z hop
G0 X140.8398 Y148.3992 F7200 ; Move to pattern start

G1 Z0.25 F7200 ; Z hop return
G1 E0.5 F2100 ; Un-retract
SET_PRESSURE_ADVANCE ADVANCE=0.038 ; Set pressure advance
M117 PA 0.038
G1 X160.1606 Y167.72 E1.10311 F1800 ; Print pattern wall
G1 X140.8398 Y187.0408 E1.10311 F1800 ; Print pattern wall
G1 E-0.5 F2100 ; Retract
G1 Z0.35 F7200 ; Z hop
G0 X141.4155 Y148.3992 F7200 ; Move to start next pattern wall
G1 Z0.25 F7200 ; Z hop return
G1 E0.5 F2100 ; Un-retract
G1 X160.7363 Y167.72 E1.10311 F1800 ; Print pattern wall
G1 X141.4155 Y187.0408 E1.10311 F1800 ; Print pattern wall
G1 E-0.5 F2100 ; Retract
G1 Z0.35 F7200 ; Z hop
G0 X141.9912 Y148.3992 F7200 ; Move to start next pattern wall
G1 Z0.25 F7200 ; Z hop return
G1 E0.5 F2100 ; Un-retract
G1 X161.312 Y167.72 E1.10311 F1800 ; Print pattern wall
G1 X141.9912 Y187.0408 E1.10311 F1800 ; Print pattern wall
G1 E-0.5 F2100 ; Retract
G1 Z0.35 F7200 ; Z hop
G0 X144.4412 Y148.3992 F7200 ; Move to next pattern
G1 Z0.25 F7200 ; Z hop return
G1 E0.5 F2100 ; Un-retract
SET_PRESSURE_ADVANCE ADVANCE=0.039 ; Set pressure advance
M117 PA 0.039
G1 X163.762 Y167.72 E1.10311 F1800 ; Print pattern wall
G1 X144.4412 Y187.0408 E1.10311 F1800 ; Print pattern wall
G1 E-0.5 F2100 ; Retract
G1 Z0.35 F7200 ; Z hop
G0 X145.0169 Y148.3992 F7200 ; Move to start next pattern wall
G1 Z0.25 F7200 ; Z hop return
G1 E0.5 F2100 ; Un-retract
G1 X164.3377 Y167.72 E1.10311 F1800 ; Print pattern wall
G1 X145.0169 Y187.0408 E1.10311 F1800 ; Print pattern wall
G1 E-0.5 F2100 ; Retract
G1 Z0.35 F7200 ; Z hop
G0 X145.5926 Y148.3992 F7200 ; Move to start next pattern wall
G1 Z0.25 F7200 ; Z hop return
G1 E0.5 F2100 ; Un-retract
G1 X164.9134 Y167.72 E1.10311 F1800 ; Print pattern wall
G1 X145.5926 Y187.0408 E1.10311 F1800 ; Print pattern wall
G1 E-0.5 F2100 ; Retract
G1 Z0.35 F7200 ; Z hop
G0 X148.0426 Y148.3992 F7200 ; Move to next pattern
G1 Z0.25 F7200 ; Z hop return
G1 E0.5 F2100 ; Un-retract
SET_PRESSURE_ADVANCE ADVANCE=0.04 ; Set pressure advance
M117 PA 0.04
G1 X167.3634 Y167.72 E1.10311 F1800 ; Print pattern wall
G1 X148.0426 Y187.0408 E1.10311 F1800 ; Print pattern wall
G1 E-0.5 F2100 ; Retract
G1 Z0.35 F7200 ; Z hop
G0 X148.6183 Y148.3992 F7200 ; Move to start next pattern wall
G1 Z0.25 F7200 ; Z hop return
G1 E0.5 F2100 ; Un-retract
G1 X167.9391 Y167.72 E1.10311 F1800 ; Print pattern wall
G1 X148.6183 Y187.0408 E1.10311 F1800 ; Print pattern wall
G1 E-0.5 F2100 ; Retract
G1 Z0.35 F7200 ; Z hop
G0 X149.194 Y148.3992 F7200 ; Move to start next pattern wall
G1 Z0.25 F7200 ; Z hop return
G1 E0.5 F2100 ; Un-retract
G1 X168.5148 Y167.72 E1.10311 F1800 ; Print pattern wall
G1 X149.194 Y187.0408 E1.10311 F1800 ; Print pattern wall
G1 E-0.5 F2100 ; Retract
G1 Z0.35 F7200 ; Z hop
G0 X151.644 Y148.3992 F7200 ; Move to next pattern
G1 Z0.25 F7200 ; Z hop return
G1 E0.5 F2100 ; Un-retract
SET_PRESSURE_ADVANCE ADVANCE=0.041 ; Set pressure advance
M117 PA 0.041
G1 X170.9648 Y167.72 E1.10311 F1800 ; Print pattern wall
G1 X151.644 Y187.0408 E1.10311 F1800 ; Print pattern wall
G1 E-0.5 F2100 ; Retract
G1 Z0.35 F7200 ; Z hop
G0 X152.2197 Y148.3992 F7200 ; Move to start next pattern wall
G1 Z0.25 F7200 ; Z hop return
G1 E0.5 F2100 ; Un-retract
G1 X171.5405 Y167.72 E1.10311 F1800 ; Print pattern wall
G1 X152.2197 Y187.0408 E1.10311 F1800 ; Print pattern wall
G1 E-0.5 F2100 ; Retract
G1 Z0.35 F7200 ; Z hop
G0 X152.7954 Y148.3992 F7200 ; Move to start next pattern wall
G1 Z0.25 F7200 ; Z hop return
G1 E0.5 F2100 ; Un-retract
G1 X172.1162 Y167.72 E1.10311 F1800 ; Print pattern wall
G1 X152.7954 Y187.0408 E1.10311 F1800 ; Print pattern wall
G1 E-0.5 F2100 ; Retract
G1 Z0.35 F7200 ; Z hop
G0 X155.2454 Y148.3992 F7200 ; Move to next pattern
G1 Z0.25 F7200 ; Z hop return
G1 E0.5 F2100 ; Un-retract
SET_PRESSURE_ADVANCE ADVANCE=0.042 ; Set pressure advance
M117 PA 0.042
G1 X174.5662 Y167.72 E1.10311 F1800 ; Print pattern wall
G1 X155.2454 Y187.0408 E1.10311 F1800 ; Print pattern wall
G1 E-0.5 F2100 ; Retract
G1 Z0.35 F7200 ; Z hop
G0 X155.8211 Y148.3992 F7200 ; Move to start next pattern wall
G1 Z0.25 F7200 ; Z hop return
G1 E0.5 F2100 ; Un-retract
G1 X175.1419 Y167.72 E1.10311 F1800 ; Print pattern wall
G1 X155.8211 Y187.0408 E1.10311 F1800 ; Print pattern wall
G1 E-0.5 F2100 ; Retract
G1 Z0.35 F7200 ; Z hop
G0 X156.3968 Y148.3992 F7200 ; Move to start next pattern wall
G1 Z0.25 F7200 ; Z hop return
G1 E0.5 F2100 ; Un-retract
G1 X175.7176 Y167.72 E1.10311 F1800 ; Print pattern wall
G1 X156.3968 Y187.0408 E1.10311 F1800 ; Print pattern wall
G1 E-0.5 F2100 ; Retract
G1 Z0.35 F7200 ; Z hop
G0 X158.8468 Y148.3992 F7200 ; Move to next pattern
G1 Z0.25 F7200 ; Z hop return
G1 E0.5 F2100 ; Un-retract
SET_PRESSURE_ADVANCE ADVANCE=0.043 ; Set pressure advance
M117 PA 0.043
G1 X178.1676 Y167.72 E1.10311 F1800 ; Print pattern wall
G1 X158.8468 Y187.0408 E1.10311 F1800 ; Print pattern wall
G1 E-0.5 F2100 ; Retract
G1 Z0.35 F7200 ; Z hop
G0 X159.4225 Y148.3992 F7200 ; Move to start next pattern wall
G1 Z0.25 F7200 ; Z hop return
G1 E0.5 F2100 ; Un-retract
G1 X178.7433 Y167.72 E1.10311 F1800 ; Print pattern wall
G1 X159.4225 Y187.0408 E1.10311 F1800 ; Print pattern wall
G1 E-0.5 F2100 ; Retract
G1 Z0.35 F7200 ; Z hop
G0 X159.9982 Y148.3992 F7200 ; Move to start next pattern wall
G1 Z0.25 F7200 ; Z hop return
G1 E0.5 F2100 ; Un-retract
G1 X179.319 Y167.72 E1.10311 F1800 ; Print pattern wall
G1 X159.9982 Y187.0408 E1.10311 F1800 ; Print pattern wall
G1 E-0.5 F2100 ; Retract
G1 Z0.35 F7200 ; Z hop
G0 X162.4482 Y148.3992 F7200 ; Move to next pattern
G1 Z0.25 F7200 ; Z hop return
G1 E0.5 F2100 ; Un-retract
SET_PRESSURE_ADVANCE ADVANCE=0.044 ; Set pressure advance
M117 PA 0.044
G1 X181.769 Y167.72 E1.10311 F1800 ; Print pattern wall
G1 X162.4482 Y187.0408 E1.10311 F1800 ; Print pattern wall
G1 E-0.5 F2100 ; Retract
G1 Z0.35 F7200 ; Z hop
G0 X163.0239 Y148.3992 F7200 ; Move to start next pattern wall
G1 Z0.25 F7200 ; Z hop return
G1 E0.5 F2100 ; Un-retract
G1 X182.3447 Y167.72 E1.10311 F1800 ; Print pattern wall
G1 X163.0239 Y187.0408 E1.10311 F1800 ; Print pattern wall
G1 E-0.5 F2100 ; Retract
G1 Z0.35 F7200 ; Z hop
G0 X163.5995 Y148.3992 F7200 ; Move to start next pattern wall
G1 Z0.25 F7200 ; Z hop return
G1 E0.5 F2100 ; Un-retract
G1 X182.9204 Y167.72 E1.10311 F1800 ; Print pattern wall
G1 X163.5995 Y187.0408 E1.10311 F1800 ; Print pattern wall
G1 E-0.5 F2100 ; Retract
G1 Z0.35 F7200 ; Z hop
G0 X166.0495 Y148.3992 F7200 ; Move to next pattern
G1 Z0.25 F7200 ; Z hop return
G1 E0.5 F2100 ; Un-retract
SET_PRESSURE_ADVANCE ADVANCE=0.045 ; Set pressure advance
M117 PA 0.045
G1 X185.3704 Y167.72 E1.10311 F1800 ; Print pattern wall
G1 X166.0495 Y187.0408 E1.10311 F1800 ; Print pattern wall
G1 E-0.5 F2100 ; Retract
G1 Z0.35 F7200 ; Z hop
G0 X166.6252 Y148.3992 F7200 ; Move to start next pattern wall
G1 Z0.25 F7200 ; Z hop return
G1 E0.5 F2100 ; Un-retract
G1 X185.9461 Y167.72 E1.10311 F1800 ; Print pattern wall
G1 X166.6252 Y187.0408 E1.10311 F1800 ; Print pattern wall
G1 E-0.5 F2100 ; Retract
G1 Z0.35 F7200 ; Z hop
G0 X167.2009 Y148.3992 F7200 ; Move to start next pattern wall
G1 Z0.25 F7200 ; Z hop return
G1 E0.5 F2100 ; Un-retract
G1 X186.5218 Y167.72 E1.10311 F1800 ; Print pattern wall
G1 X167.2009 Y187.0408 E1.10311 F1800 ; Print pattern wall
G1 E-0.5 F2100 ; Retract
G1 Z0.35 F7200 ; Z hop
G0 X169.6509 Y148.3992 F7200 ; Move to next pattern
G1 Z0.25 F7200 ; Z hop return
G1 E0.5 F2100 ; Un-retract
SET_PRESSURE_ADVANCE ADVANCE=0.046 ; Set pressure advance
M117 PA 0.046
G1 X188.9718 Y167.72 E1.10311 F1800 ; Print pattern wall
G1 X169.6509 Y187.0408 E1.10311 F1800 ; Print pattern wall
G1 E-0.5 F2100 ; Retract
G1 Z0.35 F7200 ; Z hop
G0 X170.2266 Y148.3992 F7200 ; Move to start next pattern wall
G1 Z0.25 F7200 ; Z hop return
G1 E0.5 F2100 ; Un-retract
G1 X189.5475 Y167.72 E1.10311 F1800 ; Print pattern wall
G1 X170.2266 Y187.0408 E1.10311 F1800 ; Print pattern wall
G1 E-0.5 F2100 ; Retract
G1 Z0.35 F7200 ; Z hop
G0 X170.8023 Y148.3992 F7200 ; Move to start next pattern wall
G1 Z0.25 F7200 ; Z hop return
G1 E0.5 F2100 ; Un-retract
G1 X190.1232 Y167.72 E1.10311 F1800 ; Print pattern wall
G1 X170.8023 Y187.0408 E1.10311 F1800 ; Print pattern wall
G1 E-0.5 F2100 ; Retract
G1 Z0.35 F7200 ; Z hop
G0 X173.2523 Y148.3992 F7200 ; Move to next pattern
G1 Z0.25 F7200 ; Z hop return
G1 E0.5 F2100 ; Un-retract
SET_PRESSURE_ADVANCE ADVANCE=0.047 ; Set pressure advance
M117 PA 0.047
G1 X192.5732 Y167.72 E1.10311 F1800 ; Print pattern wall
G1 X173.2523 Y187.0408 E1.10311 F1800 ; Print pattern wall
G1 E-0.5 F2100 ; Retract
G1 Z0.35 F7200 ; Z hop
G0 X173.828 Y148.3992 F7200 ; Move to start next pattern wall
G1 Z0.25 F7200 ; Z hop return
G1 E0.5 F2100 ; Un-retract
G1 X193.1489 Y167.72 E1.10311 F1800 ; Print pattern wall
G1 X173.828 Y187.0408 E1.10311 F1800 ; Print pattern wall
G1 E-0.5 F2100 ; Retract
G1 Z0.35 F7200 ; Z hop
G0 X174.4037 Y148.3992 F7200 ; Move to start next pattern wall
G1 Z0.25 F7200 ; Z hop return
G1 E0.5 F2100 ; Un-retract
G1 X193.7246 Y167.72 E1.10311 F1800 ; Print pattern wall
G1 X174.4037 Y187.0408 E1.10311 F1800 ; Print pattern wall
G1 E-0.5 F2100 ; Retract
G1 Z0.35 F7200 ; Z hop
G0 X176.8537 Y148.3992 F7200 ; Move to next pattern
G1 Z0.25 F7200 ; Z hop return
G1 E0.5 F2100 ; Un-retract
SET_PRESSURE_ADVANCE ADVANCE=0.048 ; Set pressure advance
M117 PA 0.048
G1 X196.1746 Y167.72 E1.10311 F1800 ; Print pattern wall
G1 X176.8537 Y187.0408 E1.10311 F1800 ; Print pattern wall
G1 E-0.5 F2100 ; Retract
G1 Z0.35 F7200 ; Z hop
G0 X177.4294 Y148.3992 F7200 ; Move to start next pattern wall
G1 Z0.25 F7200 ; Z hop return
G1 E0.5 F2100 ; Un-retract
G1 X196.7503 Y167.72 E1.10311 F1800 ; Print pattern wall
G1 X177.4294 Y187.0408 E1.10311 F1800 ; Print pattern wall
G1 E-0.5 F2100 ; Retract
G1 Z0.35 F7200 ; Z hop
G0 X178.0051 Y148.3992 F7200 ; Move to start next pattern wall
G1 Z0.25 F7200 ; Z hop return
G1 E0.5 F2100 ; Un-retract
G1 X197.326 Y167.72 E1.10311 F1800 ; Print pattern wall
G1 X178.0051 Y187.0408 E1.10311 F1800 ; Print pattern wall
G1 E-0.5 F2100 ; Retract
G1 Z0.35 F7200 ; Z hop
G0 X180.4551 Y148.3992 F7200 ; Move to next pattern
G1 Z0.25 F7200 ; Z hop return
G1 E0.5 F2100 ; Un-retract
SET_PRESSURE_ADVANCE ADVANCE=0.049 ; Set pressure advance
M117 PA 0.049
G1 X199.776 Y167.72 E1.10311 F1800 ; Print pattern wall
G1 X180.4551 Y187.0408 E1.10311 F1800 ; Print pattern wall
G1 E-0.5 F2100 ; Retract
G1 Z0.35 F7200 ; Z hop
G0 X181.0308 Y148.3992 F7200 ; Move to start next pattern wall
G1 Z0.25 F7200 ; Z hop return
G1 E0.5 F2100 ; Un-retract
G1 X200.3516 Y167.72 E1.10311 F1800 ; Print pattern wall
G1 X181.0308 Y187.0408 E1.10311 F1800 ; Print pattern wall
G1 E-0.5 F2100 ; Retract
G1 Z0.35 F7200 ; Z hop
G0 X181.6065 Y148.3992 F7200 ; Move to start next pattern wall
G1 Z0.25 F7200 ; Z hop return
G1 E0.5 F2100 ; Un-retract
G1 X200.9273 Y167.72 E1.10311 F1800 ; Print pattern wall
G1 X181.6065 Y187.0408 E1.10311 F1800 ; Print pattern wall
G1 E-0.5 F2100 ; Retract
G1 Z0.35 F7200 ; Z hop
G0 X184.0565 Y148.3992 F7200 ; Move to next pattern
G1 Z0.25 F7200 ; Z hop return
G1 E0.5 F2100 ; Un-retract
SET_PRESSURE_ADVANCE ADVANCE=0.05 ; Set pressure advance
M117 PA 0.05
G1 X203.3773 Y167.72 E1.10311 F1800 ; Print pattern wall
G1 X184.0565 Y187.0408 E1.10311 F1800 ; Print pattern wall
G1 E-0.5 F2100 ; Retract
G1 Z0.35 F7200 ; Z hop
G0 X184.6322 Y148.3992 F7200 ; Move to start next pattern wall
G1 Z0.25 F7200 ; Z hop return
G1 E0.5 F2100 ; Un-retract
G1 X203.953 Y167.72 E1.10311 F1800 ; Print pattern wall
G1 X184.6322 Y187.0408 E1.10311 F1800 ; Print pattern wall
G1 E-0.5 F2100 ; Retract
G1 Z0.35 F7200 ; Z hop
G0 X185.2079 Y148.3992 F7200 ; Move to start next pattern wall
G1 Z0.25 F7200 ; Z hop return
G1 E0.5 F2100 ; Un-retract
G1 X204.5287 Y167.72 E1.10311 F1800 ; Print pattern wall
G1 X185.2079 Y187.0408 E1.10311 F1800 ; Print pattern wall
G1 E-0.5 F2100 ; Retract
G1 Z0.35 F7200 ; Z hop
G0 X187.6579 Y148.3992 F7200 ; Move to next pattern
G1 Z0.25 F7200 ; Z hop return
G1 E0.5 F2100 ; Un-retract
SET_PRESSURE_ADVANCE ADVANCE=0.051 ; Set pressure advance
M117 PA 0.051
G1 X206.9787 Y167.72 E1.10311 F1800 ; Print pattern wall
G1 X187.6579 Y187.0408 E1.10311 F1800 ; Print pattern wall
G1 E-0.5 F2100 ; Retract
G1 Z0.35 F7200 ; Z hop
G0 X188.2336 Y148.3992 F7200 ; Move to start next pattern wall
G1 Z0.25 F7200 ; Z hop return
G1 E0.5 F2100 ; Un-retract
G1 X207.5544 Y167.72 E1.10311 F1800 ; Print pattern wall
G1 X188.2336 Y187.0408 E1.10311 F1800 ; Print pattern wall
G1 E-0.5 F2100 ; Retract
G1 Z0.35 F7200 ; Z hop
G0 X188.8093 Y148.3992 F7200 ; Move to start next pattern wall
G1 Z0.25 F7200 ; Z hop return
G1 E0.5 F2100 ; Un-retract
G1 X208.1301 Y167.72 E1.10311 F1800 ; Print pattern wall
G1 X188.8093 Y187.0408 E1.10311 F1800 ; Print pattern wall
G1 E-0.5 F2100 ; Retract
G1 Z0.35 F7200 ; Z hop
G0 X191.2593 Y148.3992 F7200 ; Move to next pattern
G1 Z0.25 F7200 ; Z hop return
G1 E0.5 F2100 ; Un-retract
SET_PRESSURE_ADVANCE ADVANCE=0.052 ; Set pressure advance
M117 PA 0.052
G1 X210.5801 Y167.72 E1.10311 F1800 ; Print pattern wall
G1 X191.2593 Y187.0408 E1.10311 F1800 ; Print pattern wall
G1 E-0.5 F2100 ; Retract
G1 Z0.35 F7200 ; Z hop
G0 X191.835 Y148.3992 F7200 ; Move to start next pattern wall
G1 Z0.25 F7200 ; Z hop return
G1 E0.5 F2100 ; Un-retract
G1 X211.1558 Y167.72 E1.10311 F1800 ; Print pattern wall
G1 X191.835 Y187.0408 E1.10311 F1800 ; Print pattern wall
G1 E-0.5 F2100 ; Retract
G1 Z0.35 F7200 ; Z hop
G0 X192.4107 Y148.3992 F7200 ; Move to start next pattern wall
G1 Z0.25 F7200 ; Z hop return
G1 E0.5 F2100 ; Un-retract
G1 X211.7315 Y167.72 E1.10311 F1800 ; Print pattern wall
G1 X192.4107 Y187.0408 E1.10311 F1800 ; Print pattern wall
G1 E-0.5 F2100 ; Retract
G1 Z0.35 F7200 ; Z hop
G0 X140.8398 Y148.3992 F7200 ; Move back to start position
G1 Z0.25 F7200 ; Z hop return
G1 E0.5 F2100 ; Un-retract
M106 S127 ; Set fan speed
G0 Z0.45 F7200 ; Move to layer height
SET_PRESSURE_ADVANCE ADVANCE=0.038 ; Set pressure advance to start value for numbering
M117 PA 0.038
G1 E-0.5 F2100 ; Retract
G1 Z0.55 F7200 ; Z hop
G0 X137.5231 Y190.3832 F7200 ; Move
G1 Z0.45 F7200 ; Z hop return
G1 E0.5 F2100 ; Un-retract
G1 X139.5231 Y190.3832 E0.06634 F1800 ; Glyph: 0
G1 X141.5231 Y190.3832 E0.06634 F1800 ; Glyph: 0
G1 X141.5231 Y192.3832 E0.06634 F1800 ; Glyph: 0
G1 X139.5231 Y192.3832 E0.06634 F1800 ; Glyph: 0
G1 X137.5231 Y192.3832 E0.06634 F1800 ; Glyph: 0
G1 X137.5231 Y190.3832 E0.06634 F1800 ; Glyph: 0
G1 E-0.5 F2100 ; Retract
G1 Z0.55 F7200 ; Z hop
G0 X141.5231 Y193.3832 F7200 ; Move
G1 Z0.45 F7200 ; Z hop return
G1 E0.5 F2100 ; Un-retract
G1 X140.7731 Y193.3832 E0.02488 F1800 ; Glyph: .
G1 E-0.5 F2100 ; Retract
G1 Z0.55 F7200 ; Z hop
G0 X137.5231 Y194.3832 F7200 ; Move
G1 Z0.45 F7200 ; Z hop return
G1 E0.5 F2100 ; Un-retract
G1 X139.5231 Y194.3832 E0.06634 F1800 ; Glyph: 0
G1 X141.5231 Y194.3832 E0.06634 F1800 ; Glyph: 0
G1 X141.5231 Y196.3832 E0.06634 F1800 ; Glyph: 0
G1 X139.5231 Y196.3832 E0.06634 F1800 ; Glyph: 0
G1 X137.5231 Y196.3832 E0.06634 F1800 ; Glyph: 0
G1 X137.5231 Y194.3832 E0.06634 F1800 ; Glyph: 0
G1 E-0.5 F2100 ; Retract
G1 Z0.55 F7200 ; Z hop
G0 X137.5231 Y197.3832 F7200 ; Move
G1 Z0.45 F7200 ; Z hop return
G1 E0.5 F2100 ; Un-retract
G1 X137.5231 Y199.3832 E0.06634 F1800 ; Glyph: 3
G1 X139.5231 Y199.3832 E0.06634 F1800 ; Glyph: 3
G1 X139.5231 Y197.3832 E0.06634 F1800 ; Glyph: 3
G0 X139.5231 Y199.3832 F7200 ; Move
G1 X141.5231 Y199.3832 E0.06634 F1800 ; Glyph: 3
G1 X141.5231 Y197.3832 E0.06634 F1800 ; Glyph: 3
G1 E-0.5 F2100 ; Retract
G1 Z0.55 F7200 ; Z hop
G0 X137.5231 Y200.3832 F7200 ; Move
G1 Z0.45 F7200 ; Z hop return
G1 E0.5 F2100 ; Un-retract
G1 X139.5231 Y200.3832 E0.06634 F1800 ; Glyph: 8
G1 X141.5231 Y200.3832 E0.06634 F1800 ; Glyph: 8
G1 X141.5231 Y202.3832 E0.06634 F1800 ; Glyph: 8
G1 X139.5231 Y202.3832 E0.06634 F1800 ; Glyph: 8
G1 X137.5231 Y202.3832 E0.06634 F1800 ; Glyph: 8
G1 X137.5231 Y200.3832 E0.06634 F1800 ; Glyph: 8
G0 X139.5231 Y200.3832 F7200 ; Move
G1 X139.5231 Y202.3832 E0.06634 F1800 ; Glyph: 8
G1 E-0.5 F2100 ; Retract
G1 Z0.55 F7200 ; Z hop
G0 X144.7259 Y190.3832 F7200 ; Move
G1 Z0.45 F7200 ; Z hop return
G1 E0.5 F2100 ; Un-retract
G1 X146.7259 Y190.3832 E0.06634 F1800 ; Glyph: 0
G1 X148.7259 Y190.3832 E0.06634 F1800 ; Glyph: 0
G1 X148.7259 Y192.3832 E0.06634 F1800 ; Glyph: 0
G1 X146.7259 Y192.3832 E0.06634 F1800 ; Glyph: 0
G1 X144.7259 Y192.3832 E0.06634 F1800 ; Glyph: 0
G1 X144.7259 Y190.3832 E0.06634 F1800 ; Glyph: 0
G1 E-0.5 F2100 ; Retract
G1 Z0.55 F7200 ; Z hop
G0 X148.7259 Y193.3832 F7200 ; Move
G1 Z0.45 F7200 ; Z hop return
G1 E0.5 F2100 ; Un-retract
G1 X147.9759 Y193.3832 E0.02488 F1800 ; Glyph: .
G1 E-0.5 F2100 ; Retract
G1 Z0.55 F7200 ; Z hop
G0 X144.7259 Y194.3832 F7200 ; Move
G1 Z0.45 F7200 ; Z hop return
G1 E0.5 F2100 ; Un-retract
G1 X146.7259 Y194.3832 E0.06634 F1800 ; Glyph: 0
G1 X148.7259 Y194.3832 E0.06634 F1800 ; Glyph: 0
G1 X148.7259 Y196.3832 E0.06634 F1800 ; Glyph: 0
G1 X146.7259 Y196.3832 E0.06634 F1800 ; Glyph: 0
G1 X144.7259 Y196.3832 E0.06634 F1800 ; Glyph: 0
G1 X144.7259 Y194.3832 E0.06634 F1800 ; Glyph: 0
G1 E-0.5 F2100 ; Retract
G1 Z0.55 F7200 ; Z hop
G0 X144.7259 Y199.3832 F7200 ; Move
G1 Z0.45 F7200 ; Z hop return
G1 E0.5 F2100 ; Un-retract
G1 X146.7259 Y199.3832 E0.06634 F1800 ; Glyph: 4
G1 X148.7259 Y199.3832 E0.06634 F1800 ; Glyph: 4
G0 X146.7259 Y199.3832 F7200 ; Move
G1 X146.7259 Y197.3832 E0.06634 F1800 ; Glyph: 4
G1 X144.7259 Y197.3832 E0.06634 F1800 ; Glyph: 4
G1 E-0.5 F2100 ; Retract
G1 Z0.55 F7200 ; Z hop
G0 X151.9287 Y190.3832 F7200 ; Move
G1 Z0.45 F7200 ; Z hop return
G1 E0.5 F2100 ; Un-retract
G1 X153.9287 Y190.3832 E0.06634 F1800 ; Glyph: 0
G1 X155.9287 Y190.3832 E0.06634 F1800 ; Glyph: 0
G1 X155.9287 Y192.3832 E0.06634 F1800 ; Glyph: 0
G1 X153.9287 Y192.3832 E0.06634 F1800 ; Glyph: 0
G1 X151.9287 Y192.3832 E0.06634 F1800 ; Glyph: 0
G1 X151.9287 Y190.3832 E0.06634 F1800 ; Glyph: 0
G1 E-0.5 F2100 ; Retract
G1 Z0.55 F7200 ; Z hop
G0 X155.9287 Y193.3832 F7200 ; Move
G1 Z0.45 F7200 ; Z hop return
G1 E0.5 F2100 ; Un-retract
G1 X155.1787 Y193.3832 E0.02488 F1800 ; Glyph: .
G1 E-0.5 F2100 ; Retract
G1 Z0.55 F7200 ; Z hop
G0 X151.9287 Y194.3832 F7200 ; Move
G1 Z0.45 F7200 ; Z hop return
G1 E0.5 F2100 ; Un-retract
G1 X153.9287 Y194.3832 E0.06634 F1800 ; Glyph: 0
G1 X155.9287 Y194.3832 E0.06634 F1800 ; Glyph: 0
G1 X155.9287 Y196.3832 E0.06634 F1800 ; Glyph: 0
G1 X153.9287 Y196.3832 E0.06634 F1800 ; Glyph: 0
G1 X151.9287 Y196.3832 E0.06634 F1800 ; Glyph: 0
G1 X151.9287 Y194.3832 E0.06634 F1800 ; Glyph: 0
G1 E-0.5 F2100 ; Retract
G1 Z0.55 F7200 ; Z hop
G0 X151.9287 Y199.3832 F7200 ; Move
G1 Z0.45 F7200 ; Z hop return
G1 E0.5 F2100 ; Un-retract
G1 X153.9287 Y199.3832 E0.06634 F1800 ; Glyph: 4
G1 X155.9287 Y199.3832 E0.06634 F1800 ; Glyph: 4
G0 X153.9287 Y199.3832 F7200 ; Move
G1 X153.9287 Y197.3832 E0.06634 F1800 ; Glyph: 4
G1 X151.9287 Y197.3832 E0.06634 F1800 ; Glyph: 4
G1 E-0.5 F2100 ; Retract
G1 Z0.55 F7200 ; Z hop
G0 X151.9287 Y200.3832 F7200 ; Move
G1 Z0.45 F7200 ; Z hop return
G1 E0.5 F2100 ; Un-retract
G1 X151.9287 Y202.3832 E0.06634 F1800 ; Glyph: 2
G1 X153.9287 Y202.3832 E0.06634 F1800 ; Glyph: 2
G1 X153.9287 Y200.3832 E0.06634 F1800 ; Glyph: 2
G1 X155.9287 Y200.3832 E0.06634 F1800 ; Glyph: 2
G1 X155.9287 Y202.3832 E0.06634 F1800 ; Glyph: 2
G1 E-0.5 F2100 ; Retract
G1 Z0.55 F7200 ; Z hop
G0 X159.1315 Y190.3832 F7200 ; Move
G1 Z0.45 F7200 ; Z hop return
G1 E0.5 F2100 ; Un-retract
G1 X161.1315 Y190.3832 E0.06634 F1800 ; Glyph: 0
G1 X163.1315 Y190.3832 E0.06634 F1800 ; Glyph: 0
G1 X163.1315 Y192.3832 E0.06634 F1800 ; Glyph: 0
G1 X161.1315 Y192.3832 E0.06634 F1800 ; Glyph: 0
G1 X159.1315 Y192.3832 E0.06634 F1800 ; Glyph: 0
G1 X159.1315 Y190.3832 E0.06634 F1800 ; Glyph: 0
G1 E-0.5 F2100 ; Retract
G1 Z0.55 F7200 ; Z hop
G0 X163.1315 Y193.3832 F7200 ; Move
G1 Z0.45 F7200 ; Z hop return
G1 E0.5 F2100 ; Un-retract
G1 X162.3815 Y193.3832 E0.02488 F1800 ; Glyph: .
G1 E-0.5 F2100 ; Retract
G1 Z0.55 F7200 ; Z hop
G0 X159.1315 Y194.3832 F7200 ; Move
G1 Z0.45 F7200 ; Z hop return
G1 E0.5 F2100 ; Un-retract
G1 X161.1315 Y194.3832 E0.06634 F1800 ; Glyph: 0
G1 X163.1315 Y194.3832 E0.06634 F1800 ; Glyph: 0
G1 X163.1315 Y196.3832 E0.06634 F1800 ; Glyph: 0
G1 X161.1315 Y196.3832 E0.06634 F1800 ; Glyph: 0
G1 X159.1315 Y196.3832 E0.06634 F1800 ; Glyph: 0
G1 X159.1315 Y194.3832 E0.06634 F1800 ; Glyph: 0
G1 E-0.5 F2100 ; Retract
G1 Z0.55 F7200 ; Z hop
G0 X159.1315 Y199.3832 F7200 ; Move
G1 Z0.45 F7200 ; Z hop return
G1 E0.5 F2100 ; Un-retract
G1 X161.1315 Y199.3832 E0.06634 F1800 ; Glyph: 4
G1 X163.1315 Y199.3832 E0.06634 F1800 ; Glyph: 4
G0 X161.1315 Y199.3832 F7200 ; Move
G1 X161.1315 Y197.3832 E0.06634 F1800 ; Glyph: 4
G1 X159.1315 Y197.3832 E0.06634 F1800 ; Glyph: 4
G1 E-0.5 F2100 ; Retract
G1 Z0.55 F7200 ; Z hop
G0 X159.1315 Y202.3832 F7200 ; Move
G1 Z0.45 F7200 ; Z hop return
G1 E0.5 F2100 ; Un-retract
G1 X161.1315 Y202.3832 E0.06634 F1800 ; Glyph: 4
G1 X163.1315 Y202.3832 E0.06634 F1800 ; Glyph: 4
G0 X161.1315 Y202.3832 F7200 ; Move
G1 X161.1315 Y200.3832 E0.06634 F1800 ; Glyph: 4
G1 X159.1315 Y200.3832 E0.06634 F1800 ; Glyph: 4
G1 E-0.5 F2100 ; Retract
G1 Z0.55 F7200 ; Z hop
G0 X166.3343 Y190.3832 F7200 ; Move
G1 Z0.45 F7200 ; Z hop return
G1 E0.5 F2100 ; Un-retract
G1 X168.3343 Y190.3832 E0.06634 F1800 ; Glyph: 0
G1 X170.3343 Y190.3832 E0.06634 F1800 ; Glyph: 0
G1 X170.3343 Y192.3832 E0.06634 F1800 ; Glyph: 0
G1 X168.3343 Y192.3832 E0.06634 F1800 ; Glyph: 0
G1 X166.3343 Y192.3832 E0.06634 F1800 ; Glyph: 0
G1 X166.3343 Y190.3832 E0.06634 F1800 ; Glyph: 0
G1 E-0.5 F2100 ; Retract
G1 Z0.55 F7200 ; Z hop
G0 X170.3343 Y193.3832 F7200 ; Move
G1 Z0.45 F7200 ; Z hop return
G1 E0.5 F2100 ; Un-retract
G1 X169.5843 Y193.3832 E0.02488 F1800 ; Glyph: .
G1 E-0.5 F2100 ; Retract
G1 Z0.55 F7200 ; Z hop
G0 X166.3343 Y194.3832 F7200 ; Move
G1 Z0.45 F7200 ; Z hop return
G1 E0.5 F2100 ; Un-retract
G1 X168.3343 Y194.3832 E0.06634 F1800 ; Glyph: 0
G1 X170.3343 Y194.3832 E0.06634 F1800 ; Glyph: 0
G1 X170.3343 Y196.3832 E0.06634 F1800 ; Glyph: 0
G1 X168.3343 Y196.3832 E0.06634 F1800 ; Glyph: 0
G1 X166.3343 Y196.3832 E0.06634 F1800 ; Glyph: 0
G1 X166.3343 Y194.3832 E0.06634 F1800 ; Glyph: 0
G1 E-0.5 F2100 ; Retract
G1 Z0.55 F7200 ; Z hop
G0 X166.3343 Y199.3832 F7200 ; Move
G1 Z0.45 F7200 ; Z hop return
G1 E0.5 F2100 ; Un-retract
G1 X168.3343 Y199.3832 E0.06634 F1800 ; Glyph: 4
G1 X170.3343 Y199.3832 E0.06634 F1800 ; Glyph: 4
G0 X168.3343 Y199.3832 F7200 ; Move
G1 X168.3343 Y197.3832 E0.06634 F1800 ; Glyph: 4
G1 X166.3343 Y197.3832 E0.06634 F1800 ; Glyph: 4
G1 E-0.5 F2100 ; Retract
G1 Z0.55 F7200 ; Z hop
G0 X166.3343 Y202.3832 F7200 ; Move
G1 Z0.45 F7200 ; Z hop return
G1 E0.5 F2100 ; Un-retract
G1 X166.3343 Y200.3832 E0.06634 F1800 ; Glyph: 6
G1 X168.3343 Y200.3832 E0.06634 F1800 ; Glyph: 6
G1 X170.3343 Y200.3832 E0.06634 F1800 ; Glyph: 6
G1 X170.3343 Y202.3832 E0.06634 F1800 ; Glyph: 6
G1 X168.3343 Y202.3832 E0.06634 F1800 ; Glyph: 6
G1 X168.3343 Y200.3832 E0.06634 F1800 ; Glyph: 6
G1 E-0.5 F2100 ; Retract
G1 Z0.55 F7200 ; Z hop
G0 X173.5371 Y190.3832 F7200 ; Move
G1 Z0.45 F7200 ; Z hop return
G1 E0.5 F2100 ; Un-retract
G1 X175.5371 Y190.3832 E0.06634 F1800 ; Glyph: 0
G1 X177.5371 Y190.3832 E0.06634 F1800 ; Glyph: 0
G1 X177.5371 Y192.3832 E0.06634 F1800 ; Glyph: 0
G1 X175.5371 Y192.3832 E0.06634 F1800 ; Glyph: 0
G1 X173.5371 Y192.3832 E0.06634 F1800 ; Glyph: 0
G1 X173.5371 Y190.3832 E0.06634 F1800 ; Glyph: 0
G1 E-0.5 F2100 ; Retract
G1 Z0.55 F7200 ; Z hop
G0 X177.5371 Y193.3832 F7200 ; Move
G1 Z0.45 F7200 ; Z hop return
G1 E0.5 F2100 ; Un-retract
G1 X176.7871 Y193.3832 E0.02488 F1800 ; Glyph: .
G1 E-0.5 F2100 ; Retract
G1 Z0.55 F7200 ; Z hop
G0 X173.5371 Y194.3832 F7200 ; Move
G1 Z0.45 F7200 ; Z hop return
G1 E0.5 F2100 ; Un-retract
G1 X175.5371 Y194.3832 E0.06634 F1800 ; Glyph: 0
G1 X177.5371 Y194.3832 E0.06634 F1800 ; Glyph: 0
G1 X177.5371 Y196.3832 E0.06634 F1800 ; Glyph: 0
G1 X175.5371 Y196.3832 E0.06634 F1800 ; Glyph: 0
G1 X173.5371 Y196.3832 E0.06634 F1800 ; Glyph: 0
G1 X173.5371 Y194.3832 E0.06634 F1800 ; Glyph: 0
G1 E-0.5 F2100 ; Retract
G1 Z0.55 F7200 ; Z hop
G0 X173.5371 Y199.3832 F7200 ; Move
G1 Z0.45 F7200 ; Z hop return
G1 E0.5 F2100 ; Un-retract
G1 X175.5371 Y199.3832 E0.06634 F1800 ; Glyph: 4
G1 X177.5371 Y199.3832 E0.06634 F1800 ; Glyph: 4
G0 X175.5371 Y199.3832 F7200 ; Move
G1 X175.5371 Y197.3832 E0.06634 F1800 ; Glyph: 4
G1 X173.5371 Y197.3832 E0.06634 F1800 ; Glyph: 4
G1 E-0.5 F2100 ; Retract
G1 Z0.55 F7200 ; Z hop
G0 X173.5371 Y200.3832 F7200 ; Move
G1 Z0.45 F7200 ; Z hop return
G1 E0.5 F2100 ; Un-retract
G1 X175.5371 Y200.3832 E0.06634 F1800 ; Glyph: 8
G1 X177.5371 Y200.3832 E0.06634 F1800 ; Glyph: 8
G1 X177.5371 Y202.3832 E0.06634 F1800 ; Glyph: 8
G1 X175.5371 Y202.3832 E0.06634 F1800 ; Glyph: 8
G1 X173.5371 Y202.3832 E0.06634 F1800 ; Glyph: 8
G1 X173.5371 Y200.3832 E0.06634 F1800 ; Glyph: 8
G0 X175.5371 Y200.3832 F7200 ; Move
G1 X175.5371 Y202.3832 E0.06634 F1800 ; Glyph: 8
G1 E-0.5 F2100 ; Retract
G1 Z0.55 F7200 ; Z hop
G0 X180.7398 Y190.3832 F7200 ; Move
G1 Z0.45 F7200 ; Z hop return
G1 E0.5 F2100 ; Un-retract
G1 X182.7398 Y190.3832 E0.06634 F1800 ; Glyph: 0
G1 X184.7398 Y190.3832 E0.06634 F1800 ; Glyph: 0
G1 X184.7398 Y192.3832 E0.06634 F1800 ; Glyph: 0
G1 X182.7398 Y192.3832 E0.06634 F1800 ; Glyph: 0
G1 X180.7398 Y192.3832 E0.06634 F1800 ; Glyph: 0
G1 X180.7398 Y190.3832 E0.06634 F1800 ; Glyph: 0
G1 E-0.5 F2100 ; Retract
G1 Z0.55 F7200 ; Z hop
G0 X184.7398 Y193.3832 F7200 ; Move
G1 Z0.45 F7200 ; Z hop return
G1 E0.5 F2100 ; Un-retract
G1 X183.9898 Y193.3832 E0.02488 F1800 ; Glyph: .
G1 E-0.5 F2100 ; Retract
G1 Z0.55 F7200 ; Z hop
G0 X180.7398 Y194.3832 F7200 ; Move
G1 Z0.45 F7200 ; Z hop return
G1 E0.5 F2100 ; Un-retract
G1 X182.7398 Y194.3832 E0.06634 F1800 ; Glyph: 0
G1 X184.7398 Y194.3832 E0.06634 F1800 ; Glyph: 0
G1 X184.7398 Y196.3832 E0.06634 F1800 ; Glyph: 0
G1 X182.7398 Y196.3832 E0.06634 F1800 ; Glyph: 0
G1 X180.7398 Y196.3832 E0.06634 F1800 ; Glyph: 0
G1 X180.7398 Y194.3832 E0.06634 F1800 ; Glyph: 0
G1 E-0.5 F2100 ; Retract
G1 Z0.55 F7200 ; Z hop
G0 X180.7398 Y199.3832 F7200 ; Move
G1 Z0.45 F7200 ; Z hop return
G1 E0.5 F2100 ; Un-retract
G1 X180.7398 Y197.3832 E0.06634 F1800 ; Glyph: 5
G1 X182.7398 Y197.3832 E0.06634 F1800 ; Glyph: 5
G1 X182.7398 Y199.3832 E0.06634 F1800 ; Glyph: 5
G1 X184.7398 Y199.3832 E0.06634 F1800 ; Glyph: 5
G1 X184.7398 Y197.3832 E0.06634 F1800 ; Glyph: 5
G1 E-0.5 F2100 ; Retract
G1 Z0.55 F7200 ; Z hop
G0 X187.9426 Y190.3832 F7200 ; Move
G1 Z0.45 F7200 ; Z hop return
G1 E0.5 F2100 ; Un-retract
G1 X189.9426 Y190.3832 E0.06634 F1800 ; Glyph: 0
G1 X191.9426 Y190.3832 E0.06634 F1800 ; Glyph: 0
G1 X191.9426 Y192.3832 E0.06634 F1800 ; Glyph: 0
G1 X189.9426 Y192.3832 E0.06634 F1800 ; Glyph: 0
G1 X187.9426 Y192.3832 E0.06634 F1800 ; Glyph: 0
G1 X187.9426 Y190.3832 E0.06634 F1800 ; Glyph: 0
G1 E-0.5 F2100 ; Retract
G1 Z0.55 F7200 ; Z hop
G0 X191.9426 Y193.3832 F7200 ; Move
G1 Z0.45 F7200 ; Z hop return
G1 E0.5 F2100 ; Un-retract
G1 X191.1926 Y193.3832 E0.02488 F1800 ; Glyph: .
G1 E-0.5 F2100 ; Retract
G1 Z0.55 F7200 ; Z hop
G0 X187.9426 Y194.3832 F7200 ; Move
G1 Z0.45 F7200 ; Z hop return
G1 E0.5 F2100 ; Un-retract
G1 X189.9426 Y194.3832 E0.06634 F1800 ; Glyph: 0
G1 X191.9426 Y194.3832 E0.06634 F1800 ; Glyph: 0
G1 X191.9426 Y196.3832 E0.06634 F1800 ; Glyph: 0
G1 X189.9426 Y196.3832 E0.06634 F1800 ; Glyph: 0
G1 X187.9426 Y196.3832 E0.06634 F1800 ; Glyph: 0
G1 X187.9426 Y194.3832 E0.06634 F1800 ; Glyph: 0
G1 E-0.5 F2100 ; Retract
G1 Z0.55 F7200 ; Z hop
G0 X187.9426 Y199.3832 F7200 ; Move
G1 Z0.45 F7200 ; Z hop return
G1 E0.5 F2100 ; Un-retract
G1 X187.9426 Y197.3832 E0.06634 F1800 ; Glyph: 5
G1 X189.9426 Y197.3832 E0.06634 F1800 ; Glyph: 5
G1 X189.9426 Y199.3832 E0.06634 F1800 ; Glyph: 5
G1 X191.9426 Y199.3832 E0.06634 F1800 ; Glyph: 5
G1 X191.9426 Y197.3832 E0.06634 F1800 ; Glyph: 5
G1 E-0.5 F2100 ; Retract
G1 Z0.55 F7200 ; Z hop
G0 X187.9426 Y200.3832 F7200 ; Move
G1 Z0.45 F7200 ; Z hop return
G1 E0.5 F2100 ; Un-retract
G1 X187.9426 Y202.3832 E0.06634 F1800 ; Glyph: 2
G1 X189.9426 Y202.3832 E0.06634 F1800 ; Glyph: 2
G1 X189.9426 Y200.3832 E0.06634 F1800 ; Glyph: 2
G1 X191.9426 Y200.3832 E0.06634 F1800 ; Glyph: 2
G1 X191.9426 Y202.3832 E0.06634 F1800 ; Glyph: 2
G1 E-0.5 F2100 ; Retract
G1 Z0.55 F7200 ; Z hop
G0 X138.9474 Y146.5068 F7200 ; Move to pattern start

G1 Z0.45 F7200 ; Z hop return
G1 E0.5 F2100 ; Un-retract
SET_PRESSURE_ADVANCE ADVANCE=0.038 ; Set pressure advance
M117 PA 0.038
G1 X160.1606 Y167.72 E0.99515 F9000 ; Print pattern wall
G1 X138.9474 Y188.9332 E0.99515 F9000 ; Print pattern wall
G1 E-0.5 F2100 ; Retract
G1 Z0.55 F7200 ; Z hop
G0 X139.5231 Y146.5068 F7200 ; Move to start next pattern wall
G1 Z0.45 F7200 ; Z hop return
G1 E0.5 F2100 ; Un-retract
G1 X160.7363 Y167.72 E0.99515 F9000 ; Print pattern wall
G1 X139.5231 Y188.9332 E0.99515 F9000 ; Print pattern wall
G1 E-0.5 F2100 ; Retract
G1 Z0.55 F7200 ; Z hop
G0 X140.0988 Y146.5068 F7200 ; Move to start next pattern wall
G1 Z0.45 F7200 ; Z hop return
G1 E0.5 F2100 ; Un-retract
G1 X161.312 Y167.72 E0.99515 F9000 ; Print pattern wall
G1 X140.0988 Y188.9332 E0.99515 F9000 ; Print pattern wall
G1 E-0.5 F2100 ; Retract
G1 Z0.55 F7200 ; Z hop
G0 X142.5488 Y146.5068 F7200 ; Move to next pattern
G1 Z0.45 F7200 ; Z hop return
G1 E0.5 F2100 ; Un-retract
SET_PRESSURE_ADVANCE ADVANCE=0.039 ; Set pressure advance
M117 PA 0.039
G1 X163.762 Y167.72 E0.99515 F9000 ; Print pattern wall
G1 X142.5488 Y188.9332 E0.99515 F9000 ; Print pattern wall
G1 E-0.5 F2100 ; Retract
G1 Z0.55 F7200 ; Z hop
G0 X143.1245 Y146.5068 F7200 ; Move to start next pattern wall
G1 Z0.45 F7200 ; Z hop return
G1 E0.5 F2100 ; Un-retract
G1 X164.3377 Y167.72 E0.99515 F9000 ; Print pattern wall
G1 X143.1245 Y188.9332 E0.99515 F9000 ; Print pattern wall
G1 E-0.5 F2100 ; Retract
G1 Z0.55 F7200 ; Z hop
G0 X143.7002 Y146.5068 F7200 ; Move to start next pattern wall
G1 Z0.45 F7200 ; Z hop return
G1 E0.5 F2100 ; Un-retract
G1 X164.9134 Y167.72 E0.99515 F9000 ; Print pattern wall
G1 X143.7002 Y188.9332 E0.99515 F9000 ; Print pattern wall
G1 E-0.5 F2100 ; Retract
G1 Z0.55 F7200 ; Z hop
G0 X146.1502 Y146.5068 F7200 ; Move to next pattern
G1 Z0.45 F7200 ; Z hop return
G1 E0.5 F2100 ; Un-retract
SET_PRESSURE_ADVANCE ADVANCE=0.04 ; Set pressure advance
M117 PA 0.04
G1 X167.3634 Y167.72 E0.99515 F9000 ; Print pattern wall
G1 X146.1502 Y188.9332 E0.99515 F9000 ; Print pattern wall
G1 E-0.5 F2100 ; Retract
G1 Z0.55 F7200 ; Z hop
G0 X146.7259 Y146.5068 F7200 ; Move to start next pattern wall
G1 Z0.45 F7200 ; Z hop return
G1 E0.5 F2100 ; Un-retract
G1 X167.9391 Y167.72 E0.99515 F9000 ; Print pattern wall
G1 X146.7259 Y188.9332 E0.99515 F9000 ; Print pattern wall
G1 E-0.5 F2100 ; Retract
G1 Z0.55 F7200 ; Z hop
G0 X147.3016 Y146.5068 F7200 ; Move to start next pattern wall
G1 Z0.45 F7200 ; Z hop return
G1 E0.5 F2100 ; Un-retract
G1 X168.5148 Y167.72 E0.99515 F9000 ; Print pattern wall
G1 X147.3016 Y188.9332 E0.99515 F9000 ; Print pattern wall
G1 E-0.5 F2100 ; Retract
G1 Z0.55 F7200 ; Z hop
G0 X149.7516 Y146.5068 F7200 ; Move to next pattern
G1 Z0.45 F7200 ; Z hop return
G1 E0.5 F2100 ; Un-retract
SET_PRESSURE_ADVANCE ADVANCE=0.041 ; Set pressure advance
M117 PA 0.041
G1 X170.9648 Y167.72 E0.99515 F9000 ; Print pattern wall
G1 X149.7516 Y188.9332 E0.99515 F9000 ; Print pattern wall
G1 E-0.5 F2100 ; Retract
G1 Z0.55 F7200 ; Z hop
G0 X150.3273 Y146.5068 F7200 ; Move to start next pattern wall
G1 Z0.45 F7200 ; Z hop return
G1 E0.5 F2100 ; Un-retract
G1 X171.5405 Y167.72 E0.99515 F9000 ; Print pattern wall
G1 X150.3273 Y188.9332 E0.99515 F9000 ; Print pattern wall
G1 E-0.5 F2100 ; Retract
G1 Z0.55 F7200 ; Z hop
G0 X150.903 Y146.5068 F7200 ; Move to start next pattern wall
G1 Z0.45 F7200 ; Z hop return
G1 E0.5 F2100 ; Un-retract
G1 X172.1162 Y167.72 E0.99515 F9000 ; Print pattern wall
G1 X150.903 Y188.9332 E0.99515 F9000 ; Print pattern wall
G1 E-0.5 F2100 ; Retract
G1 Z0.55 F7200 ; Z hop
G0 X153.353 Y146.5068 F7200 ; Move to next pattern
G1 Z0.45 F7200 ; Z hop return
G1 E0.5 F2100 ; Un-retract
SET_PRESSURE_ADVANCE ADVANCE=0.042 ; Set pressure advance
M117 PA 0.042
G1 X174.5662 Y167.72 E0.99515 F9000 ; Print pattern wall
G1 X153.353 Y188.9332 E0.99515 F9000 ; Print pattern wall
G1 E-0.5 F2100 ; Retract
G1 Z0.55 F7200 ; Z hop
G0 X153.9287 Y146.5068 F7200 ; Move to start next pattern wall
G1 Z0.45 F7200 ; Z hop return
G1 E0.5 F2100 ; Un-retract
G1 X175.1419 Y167.72 E0.99515 F9000 ; Print pattern wall
G1 X153.9287 Y188.9332 E0.99515 F9000 ; Print pattern wall
G1 E-0.5 F2100 ; Retract
G1 Z0.55 F7200 ; Z hop
G0 X154.5044 Y146.5068 F7200 ; Move to start next pattern wall
G1 Z0.45 F7200 ; Z hop return
G1 E0.5 F2100 ; Un-retract
G1 X175.7176 Y167.72 E0.99515 F9000 ; Print pattern wall
G1 X154.5044 Y188.9332 E0.99515 F9000 ; Print pattern wall
G1 E-0.5 F2100 ; Retract
G1 Z0.55 F7200 ; Z hop
G0 X156.9544 Y146.5068 F7200 ; Move to next pattern
G1 Z0.45 F7200 ; Z hop return
G1 E0.5 F2100 ; Un-retract
SET_PRESSURE_ADVANCE ADVANCE=0.043 ; Set pressure advance
M117 PA 0.043
G1 X178.1676 Y167.72 E0.99515 F9000 ; Print pattern wall
G1 X156.9544 Y188.9332 E0.99515 F9000 ; Print pattern wall
G1 E-0.5 F2100 ; Retract
G1 Z0.55 F7200 ; Z hop
G0 X157.5301 Y146.5068 F7200 ; Move to start next pattern wall
G1 Z0.45 F7200 ; Z hop return
G1 E0.5 F2100 ; Un-retract
G1 X178.7433 Y167.72 E0.99515 F9000 ; Print pattern wall
G1 X157.5301 Y188.9332 E0.99515 F9000 ; Print pattern wall
G1 E-0.5 F2100 ; Retract
G1 Z0.55 F7200 ; Z hop
G0 X158.1058 Y146.5068 F7200 ; Move to start next pattern wall
G1 Z0.45 F7200 ; Z hop return
G1 E0.5 F2100 ; Un-retract
G1 X179.319 Y167.72 E0.99515 F9000 ; Print pattern wall
G1 X158.1058 Y188.9332 E0.99515 F9000 ; Print pattern wall
G1 E-0.5 F2100 ; Retract
G1 Z0.55 F7200 ; Z hop
G0 X160.5558 Y146.5068 F7200 ; Move to next pattern
G1 Z0.45 F7200 ; Z hop return
G1 E0.5 F2100 ; Un-retract
SET_PRESSURE_ADVANCE ADVANCE=0.044 ; Set pressure advance
M117 PA 0.044
G1 X181.769 Y167.72 E0.99515 F9000 ; Print pattern wall
G1 X160.5558 Y188.9332 E0.99515 F9000 ; Print pattern wall
G1 E-0.5 F2100 ; Retract
G1 Z0.55 F7200 ; Z hop
G0 X161.1315 Y146.5068 F7200 ; Move to start next pattern wall
G1 Z0.45 F7200 ; Z hop return
G1 E0.5 F2100 ; Un-retract
G1 X182.3447 Y167.72 E0.99515 F9000 ; Print pattern wall
G1 X161.1315 Y188.9332 E0.99515 F9000 ; Print pattern wall
G1 E-0.5 F2100 ; Retract
G1 Z0.55 F7200 ; Z hop
G0 X161.7072 Y146.5068 F7200 ; Move to start next pattern wall
G1 Z0.45 F7200 ; Z hop return
G1 E0.5 F2100 ; Un-retract
G1 X182.9204 Y167.72 E0.99515 F9000 ; Print pattern wall
G1 X161.7072 Y188.9332 E0.99515 F9000 ; Print pattern wall
G1 E-0.5 F2100 ; Retract
G1 Z0.55 F7200 ; Z hop
G0 X164.1572 Y146.5068 F7200 ; Move to next pattern
G1 Z0.45 F7200 ; Z hop return
G1 E0.5 F2100 ; Un-retract
SET_PRESSURE_ADVANCE ADVANCE=0.045 ; Set pressure advance
M117 PA 0.045
G1 X185.3704 Y167.72 E0.99515 F9000 ; Print pattern wall
G1 X164.1572 Y188.9332 E0.99515 F9000 ; Print pattern wall
G1 E-0.5 F2100 ; Retract
G1 Z0.55 F7200 ; Z hop
G0 X164.7329 Y146.5068 F7200 ; Move to start next pattern wall
G1 Z0.45 F7200 ; Z hop return
G1 E0.5 F2100 ; Un-retract
G1 X185.9461 Y167.72 E0.99515 F9000 ; Print pattern wall
G1 X164.7329 Y188.9332 E0.99515 F9000 ; Print pattern wall
G1 E-0.5 F2100 ; Retract
G1 Z0.55 F7200 ; Z hop
G0 X165.3086 Y146.5068 F7200 ; Move to start next pattern wall
G1 Z0.45 F7200 ; Z hop return
G1 E0.5 F2100 ; Un-retract
G1 X186.5218 Y167.72 E0.99515 F9000 ; Print pattern wall
G1 X165.3086 Y188.9332 E0.99515 F9000 ; Print pattern wall
G1 E-0.5 F2100 ; Retract
G1 Z0.55 F7200 ; Z hop
G0 X167.7586 Y146.5068 F7200 ; Move to next pattern
G1 Z0.45 F7200 ; Z hop return
G1 E0.5 F2100 ; Un-retract
SET_PRESSURE_ADVANCE ADVANCE=0.046 ; Set pressure advance
M117 PA 0.046
G1 X188.9718 Y167.72 E0.99515 F9000 ; Print pattern wall
G1 X167.7586 Y188.9332 E0.99515 F9000 ; Print pattern wall
G1 E-0.5 F2100 ; Retract
G1 Z0.55 F7200 ; Z hop
G0 X168.3343 Y146.5068 F7200 ; Move to start next pattern wall
G1 Z0.45 F7200 ; Z hop return
G1 E0.5 F2100 ; Un-retract
G1 X189.5475 Y167.72 E0.99515 F9000 ; Print pattern wall
G1 X168.3343 Y188.9332 E0.99515 F9000 ; Print pattern wall
G1 E-0.5 F2100 ; Retract
G1 Z0.55 F7200 ; Z hop
G0 X168.91 Y146.5068 F7200 ; Move to start next pattern wall
G1 Z0.45 F7200 ; Z hop return
G1 E0.5 F2100 ; Un-retract
G1 X190.1232 Y167.72 E0.99515 F9000 ; Print pattern wall
G1 X168.91 Y188.9332 E0.99515 F9000 ; Print pattern wall
G1 E-0.5 F2100 ; Retract
G1 Z0.55 F7200 ; Z hop
G0 X171.36 Y146.5068 F7200 ; Move to next pattern
G1 Z0.45 F7200 ; Z hop return
G1 E0.5 F2100 ; Un-retract
SET_PRESSURE_ADVANCE ADVANCE=0.047 ; Set pressure advance
M117 PA 0.047
G1 X192.5732 Y167.72 E0.99515 F9000 ; Print pattern wall
G1 X171.36 Y188.9332 E0.99515 F9000 ; Print pattern wall
G1 E-0.5 F2100 ; Retract
G1 Z0.55 F7200 ; Z hop
G0 X171.9357 Y146.5068 F7200 ; Move to start next pattern wall
G1 Z0.45 F7200 ; Z hop return
G1 E0.5 F2100 ; Un-retract
G1 X193.1489 Y167.72 E0.99515 F9000 ; Print pattern wall
G1 X171.9357 Y188.9332 E0.99515 F9000 ; Print pattern wall
G1 E-0.5 F2100 ; Retract
G1 Z0.55 F7200 ; Z hop
G0 X172.5114 Y146.5068 F7200 ; Move to start next pattern wall
G1 Z0.45 F7200 ; Z hop return
G1 E0.5 F2100 ; Un-retract
G1 X193.7246 Y167.72 E0.99515 F9000 ; Print pattern wall
G1 X172.5114 Y188.9332 E0.99515 F9000 ; Print pattern wall
G1 E-0.5 F2100 ; Retract
G1 Z0.55 F7200 ; Z hop
G0 X174.9614 Y146.5068 F7200 ; Move to next pattern
G1 Z0.45 F7200 ; Z hop return
G1 E0.5 F2100 ; Un-retract
SET_PRESSURE_ADVANCE ADVANCE=0.048 ; Set pressure advance
M117 PA 0.048
G1 X196.1746 Y167.72 E0.99515 F9000 ; Print pattern wall
G1 X174.9614 Y188.9332 E0.99515 F9000 ; Print pattern wall
G1 E-0.5 F2100 ; Retract
G1 Z0.55 F7200 ; Z hop
G0 X175.5371 Y146.5068 F7200 ; Move to start next pattern wall
G1 Z0.45 F7200 ; Z hop return
G1 E0.5 F2100 ; Un-retract
G1 X196.7503 Y167.72 E0.99515 F9000 ; Print pattern wall
G1 X175.5371 Y188.9332 E0.99515 F9000 ; Print pattern wall
G1 E-0.5 F2100 ; Retract
G1 Z0.55 F7200 ; Z hop
G0 X176.1127 Y146.5068 F7200 ; Move to start next pattern wall
G1 Z0.45 F7200 ; Z hop return
G1 E0.5 F2100 ; Un-retract
G1 X197.326 Y167.72 E0.99515 F9000 ; Print pattern wall
G1 X176.1127 Y188.9332 E0.99515 F9000 ; Print pattern wall
G1 E-0.5 F2100 ; Retract
G1 Z0.55 F7200 ; Z hop
G0 X178.5627 Y146.5068 F7200 ; Move to next pattern
G1 Z0.45 F7200 ; Z hop return
G1 E0.5 F2100 ; Un-retract
SET_PRESSURE_ADVANCE ADVANCE=0.049 ; Set pressure advance
M117 PA 0.049
G1 X199.776 Y167.72 E0.99515 F9000 ; Print pattern wall
G1 X178.5627 Y188.9332 E0.99515 F9000 ; Print pattern wall
G1 E-0.5 F2100 ; Retract
G1 Z0.55 F7200 ; Z hop
G0 X179.1384 Y146.5068 F7200 ; Move to start next pattern wall
G1 Z0.45 F7200 ; Z hop return
G1 E0.5 F2100 ; Un-retract
G1 X200.3516 Y167.72 E0.99515 F9000 ; Print pattern wall
G1 X179.1384 Y188.9332 E0.99515 F9000 ; Print pattern wall
G1 E-0.5 F2100 ; Retract
G1 Z0.55 F7200 ; Z hop
G0 X179.7141 Y146.5068 F7200 ; Move to start next pattern wall
G1 Z0.45 F7200 ; Z hop return
G1 E0.5 F2100 ; Un-retract
G1 X200.9273 Y167.72 E0.99515 F9000 ; Print pattern wall
G1 X179.7141 Y188.9332 E0.99515 F9000 ; Print pattern wall
G1 E-0.5 F2100 ; Retract
G1 Z0.55 F7200 ; Z hop
G0 X182.1641 Y146.5068 F7200 ; Move to next pattern
G1 Z0.45 F7200 ; Z hop return
G1 E0.5 F2100 ; Un-retract
SET_PRESSURE_ADVANCE ADVANCE=0.05 ; Set pressure advance
M117 PA 0.05
G1 X203.3773 Y167.72 E0.99515 F9000 ; Print pattern wall
G1 X182.1641 Y188.9332 E0.99515 F9000 ; Print pattern wall
G1 E-0.5 F2100 ; Retract
G1 Z0.55 F7200 ; Z hop
G0 X182.7398 Y146.5068 F7200 ; Move to start next pattern wall
G1 Z0.45 F7200 ; Z hop return
G1 E0.5 F2100 ; Un-retract
G1 X203.953 Y167.72 E0.99515 F9000 ; Print pattern wall
G1 X182.7398 Y188.9332 E0.99515 F9000 ; Print pattern wall
G1 E-0.5 F2100 ; Retract
G1 Z0.55 F7200 ; Z hop
G0 X183.3155 Y146.5068 F7200 ; Move to start next pattern wall
G1 Z0.45 F7200 ; Z hop return
G1 E0.5 F2100 ; Un-retract
G1 X204.5287 Y167.72 E0.99515 F9000 ; Print pattern wall
G1 X183.3155 Y188.9332 E0.99515 F9000 ; Print pattern wall
G1 E-0.5 F2100 ; Retract
G1 Z0.55 F7200 ; Z hop
G0 X185.7655 Y146.5068 F7200 ; Move to next pattern
G1 Z0.45 F7200 ; Z hop return
G1 E0.5 F2100 ; Un-retract
SET_PRESSURE_ADVANCE ADVANCE=0.051 ; Set pressure advance
M117 PA 0.051
G1 X206.9787 Y167.72 E0.99515 F9000 ; Print pattern wall
G1 X185.7655 Y188.9332 E0.99515 F9000 ; Print pattern wall
G1 E-0.5 F2100 ; Retract
G1 Z0.55 F7200 ; Z hop
G0 X186.3412 Y146.5068 F7200 ; Move to start next pattern wall
G1 Z0.45 F7200 ; Z hop return
G1 E0.5 F2100 ; Un-retract
G1 X207.5544 Y167.72 E0.99515 F9000 ; Print pattern wall
G1 X186.3412 Y188.9332 E0.99515 F9000 ; Print pattern wall
G1 E-0.5 F2100 ; Retract
G1 Z0.55 F7200 ; Z hop
G0 X186.9169 Y146.5068 F7200 ; Move to start next pattern wall
G1 Z0.45 F7200 ; Z hop return
G1 E0.5 F2100 ; Un-retract
G1 X208.1301 Y167.72 E0.99515 F9000 ; Print pattern wall
G1 X186.9169 Y188.9332 E0.99515 F9000 ; Print pattern wall
G1 E-0.5 F2100 ; Retract
G1 Z0.55 F7200 ; Z hop
G0 X189.3669 Y146.5068 F7200 ; Move to next pattern
G1 Z0.45 F7200 ; Z hop return
G1 E0.5 F2100 ; Un-retract
SET_PRESSURE_ADVANCE ADVANCE=0.052 ; Set pressure advance
M117 PA 0.052
G1 X210.5801 Y167.72 E0.99515 F9000 ; Print pattern wall
G1 X189.3669 Y188.9332 E0.99515 F9000 ; Print pattern wall
G1 E-0.5 F2100 ; Retract
G1 Z0.55 F7200 ; Z hop
G0 X189.9426 Y146.5068 F7200 ; Move to start next pattern wall
G1 Z0.45 F7200 ; Z hop return
G1 E0.5 F2100 ; Un-retract
G1 X211.1558 Y167.72 E0.99515 F9000 ; Print pattern wall
G1 X189.9426 Y188.9332 E0.99515 F9000 ; Print pattern wall
G1 E-0.5 F2100 ; Retract
G1 Z0.55 F7200 ; Z hop
G0 X190.5183 Y146.5068 F7200 ; Move to start next pattern wall
G1 Z0.45 F7200 ; Z hop return
G1 E0.5 F2100 ; Un-retract
G1 X211.7315 Y167.72 E0.99515 F9000 ; Print pattern wall
G1 X190.5183 Y188.9332 E0.99515 F9000 ; Print pattern wall
G1 E-0.5 F2100 ; Retract
G1 Z0.55 F7200 ; Z hop
G0 X138.9474 Y146.5068 F7200 ; Move back to start position
G1 Z0.45 F7200 ; Z hop return
G1 E0.5 F2100 ; Un-retract
G0 Z0.65 F7200 ; Move to layer height
SET_PRESSURE_ADVANCE ADVANCE=0.038 ; Set pressure advance
M117 PA 0.038
G1 X160.1606 Y167.72 E0.99515 F9000 ; Print pattern wall
G1 X138.9474 Y188.9332 E0.99515 F9000 ; Print pattern wall
G1 E-0.5 F2100 ; Retract
G1 Z0.75 F7200 ; Z hop
G0 X139.5231 Y146.5068 F7200 ; Move to start next pattern wall
G1 Z0.65 F7200 ; Z hop return
G1 E0.5 F2100 ; Un-retract
G1 X160.7363 Y167.72 E0.99515 F9000 ; Print pattern wall
G1 X139.5231 Y188.9332 E0.99515 F9000 ; Print pattern wall
G1 E-0.5 F2100 ; Retract
G1 Z0.75 F7200 ; Z hop
G0 X140.0988 Y146.5068 F7200 ; Move to start next pattern wall
G1 Z0.65 F7200 ; Z hop return
G1 E0.5 F2100 ; Un-retract
G1 X161.312 Y167.72 E0.99515 F9000 ; Print pattern wall
G1 X140.0988 Y188.9332 E0.99515 F9000 ; Print pattern wall
G1 E-0.5 F2100 ; Retract
G1 Z0.75 F7200 ; Z hop
G0 X142.5488 Y146.5068 F7200 ; Move to next pattern
G1 Z0.65 F7200 ; Z hop return
G1 E0.5 F2100 ; Un-retract
SET_PRESSURE_ADVANCE ADVANCE=0.039 ; Set pressure advance
M117 PA 0.039
G1 X163.762 Y167.72 E0.99515 F9000 ; Print pattern wall
G1 X142.5488 Y188.9332 E0.99515 F9000 ; Print pattern wall
G1 E-0.5 F2100 ; Retract
G1 Z0.75 F7200 ; Z hop
G0 X143.1245 Y146.5068 F7200 ; Move to start next pattern wall
G1 Z0.65 F7200 ; Z hop return
G1 E0.5 F2100 ; Un-retract
G1 X164.3377 Y167.72 E0.99515 F9000 ; Print pattern wall
G1 X143.1245 Y188.9332 E0.99515 F9000 ; Print pattern wall
G1 E-0.5 F2100 ; Retract
G1 Z0.75 F7200 ; Z hop
G0 X143.7002 Y146.5068 F7200 ; Move to start next pattern wall
G1 Z0.65 F7200 ; Z hop return
G1 E0.5 F2100 ; Un-retract
G1 X164.9134 Y167.72 E0.99515 F9000 ; Print pattern wall
G1 X143.7002 Y188.9332 E0.99515 F9000 ; Print pattern wall
G1 E-0.5 F2100 ; Retract
G1 Z0.75 F7200 ; Z hop
G0 X146.1502 Y146.5068 F7200 ; Move to next pattern
G1 Z0.65 F7200 ; Z hop return
G1 E0.5 F2100 ; Un-retract
SET_PRESSURE_ADVANCE ADVANCE=0.04 ; Set pressure advance
M117 PA 0.04
G1 X167.3634 Y167.72 E0.99515 F9000 ; Print pattern wall
G1 X146.1502 Y188.9332 E0.99515 F9000 ; Print pattern wall
G1 E-0.5 F2100 ; Retract
G1 Z0.75 F7200 ; Z hop
G0 X146.7259 Y146.5068 F7200 ; Move to start next pattern wall
G1 Z0.65 F7200 ; Z hop return
G1 E0.5 F2100 ; Un-retract
G1 X167.9391 Y167.72 E0.99515 F9000 ; Print pattern wall
G1 X146.7259 Y188.9332 E0.99515 F9000 ; Print pattern wall
G1 E-0.5 F2100 ; Retract
G1 Z0.75 F7200 ; Z hop
G0 X147.3016 Y146.5068 F7200 ; Move to start next pattern wall
G1 Z0.65 F7200 ; Z hop return
G1 E0.5 F2100 ; Un-retract
G1 X168.5148 Y167.72 E0.99515 F9000 ; Print pattern wall
G1 X147.3016 Y188.9332 E0.99515 F9000 ; Print pattern wall
G1 E-0.5 F2100 ; Retract
G1 Z0.75 F7200 ; Z hop
G0 X149.7516 Y146.5068 F7200 ; Move to next pattern
G1 Z0.65 F7200 ; Z hop return
G1 E0.5 F2100 ; Un-retract
SET_PRESSURE_ADVANCE ADVANCE=0.041 ; Set pressure advance
M117 PA 0.041
G1 X170.9648 Y167.72 E0.99515 F9000 ; Print pattern wall
G1 X149.7516 Y188.9332 E0.99515 F9000 ; Print pattern wall
G1 E-0.5 F2100 ; Retract
G1 Z0.75 F7200 ; Z hop
G0 X150.3273 Y146.5068 F7200 ; Move to start next pattern wall
G1 Z0.65 F7200 ; Z hop return
G1 E0.5 F2100 ; Un-retract
G1 X171.5405 Y167.72 E0.99515 F9000 ; Print pattern wall
G1 X150.3273 Y188.9332 E0.99515 F9000 ; Print pattern wall
G1 E-0.5 F2100 ; Retract
G1 Z0.75 F7200 ; Z hop
G0 X150.903 Y146.5068 F7200 ; Move to start next pattern wall
G1 Z0.65 F7200 ; Z hop return
G1 E0.5 F2100 ; Un-retract
G1 X172.1162 Y167.72 E0.99515 F9000 ; Print pattern wall
G1 X150.903 Y188.9332 E0.99515 F9000 ; Print pattern wall
G1 E-0.5 F2100 ; Retract
G1 Z0.75 F7200 ; Z hop
G0 X153.353 Y146.5068 F7200 ; Move to next pattern
G1 Z0.65 F7200 ; Z hop return
G1 E0.5 F2100 ; Un-retract
SET_PRESSURE_ADVANCE ADVANCE=0.042 ; Set pressure advance
M117 PA 0.042
G1 X174.5662 Y167.72 E0.99515 F9000 ; Print pattern wall
G1 X153.353 Y188.9332 E0.99515 F9000 ; Print pattern wall
G1 E-0.5 F2100 ; Retract
G1 Z0.75 F7200 ; Z hop
G0 X153.9287 Y146.5068 F7200 ; Move to start next pattern wall
G1 Z0.65 F7200 ; Z hop return
G1 E0.5 F2100 ; Un-retract
G1 X175.1419 Y167.72 E0.99515 F9000 ; Print pattern wall
G1 X153.9287 Y188.9332 E0.99515 F9000 ; Print pattern wall
G1 E-0.5 F2100 ; Retract
G1 Z0.75 F7200 ; Z hop
G0 X154.5044 Y146.5068 F7200 ; Move to start next pattern wall
G1 Z0.65 F7200 ; Z hop return
G1 E0.5 F2100 ; Un-retract
G1 X175.7176 Y167.72 E0.99515 F9000 ; Print pattern wall
G1 X154.5044 Y188.9332 E0.99515 F9000 ; Print pattern wall
G1 E-0.5 F2100 ; Retract
G1 Z0.75 F7200 ; Z hop
G0 X156.9544 Y146.5068 F7200 ; Move to next pattern
G1 Z0.65 F7200 ; Z hop return
G1 E0.5 F2100 ; Un-retract
SET_PRESSURE_ADVANCE ADVANCE=0.043 ; Set pressure advance
M117 PA 0.043
G1 X178.1676 Y167.72 E0.99515 F9000 ; Print pattern wall
G1 X156.9544 Y188.9332 E0.99515 F9000 ; Print pattern wall
G1 E-0.5 F2100 ; Retract
G1 Z0.75 F7200 ; Z hop
G0 X157.5301 Y146.5068 F7200 ; Move to start next pattern wall
G1 Z0.65 F7200 ; Z hop return
G1 E0.5 F2100 ; Un-retract
G1 X178.7433 Y167.72 E0.99515 F9000 ; Print pattern wall
G1 X157.5301 Y188.9332 E0.99515 F9000 ; Print pattern wall
G1 E-0.5 F2100 ; Retract
G1 Z0.75 F7200 ; Z hop
G0 X158.1058 Y146.5068 F7200 ; Move to start next pattern wall
G1 Z0.65 F7200 ; Z hop return
G1 E0.5 F2100 ; Un-retract
G1 X179.319 Y167.72 E0.99515 F9000 ; Print pattern wall
G1 X158.1058 Y188.9332 E0.99515 F9000 ; Print pattern wall
G1 E-0.5 F2100 ; Retract
G1 Z0.75 F7200 ; Z hop
G0 X160.5558 Y146.5068 F7200 ; Move to next pattern
G1 Z0.65 F7200 ; Z hop return
G1 E0.5 F2100 ; Un-retract
SET_PRESSURE_ADVANCE ADVANCE=0.044 ; Set pressure advance
M117 PA 0.044
G1 X181.769 Y167.72 E0.99515 F9000 ; Print pattern wall
G1 X160.5558 Y188.9332 E0.99515 F9000 ; Print pattern wall
G1 E-0.5 F2100 ; Retract
G1 Z0.75 F7200 ; Z hop
G0 X161.1315 Y146.5068 F7200 ; Move to start next pattern wall
G1 Z0.65 F7200 ; Z hop return
G1 E0.5 F2100 ; Un-retract
G1 X182.3447 Y167.72 E0.99515 F9000 ; Print pattern wall
G1 X161.1315 Y188.9332 E0.99515 F9000 ; Print pattern wall
G1 E-0.5 F2100 ; Retract
G1 Z0.75 F7200 ; Z hop
G0 X161.7072 Y146.5068 F7200 ; Move to start next pattern wall
G1 Z0.65 F7200 ; Z hop return
G1 E0.5 F2100 ; Un-retract
G1 X182.9204 Y167.72 E0.99515 F9000 ; Print pattern wall
G1 X161.7072 Y188.9332 E0.99515 F9000 ; Print pattern wall
G1 E-0.5 F2100 ; Retract
G1 Z0.75 F7200 ; Z hop
G0 X164.1572 Y146.5068 F7200 ; Move to next pattern
G1 Z0.65 F7200 ; Z hop return
G1 E0.5 F2100 ; Un-retract
SET_PRESSURE_ADVANCE ADVANCE=0.045 ; Set pressure advance
M117 PA 0.045
G1 X185.3704 Y167.72 E0.99515 F9000 ; Print pattern wall
G1 X164.1572 Y188.9332 E0.99515 F9000 ; Print pattern wall
G1 E-0.5 F2100 ; Retract
G1 Z0.75 F7200 ; Z hop
G0 X164.7329 Y146.5068 F7200 ; Move to start next pattern wall
G1 Z0.65 F7200 ; Z hop return
G1 E0.5 F2100 ; Un-retract
G1 X185.9461 Y167.72 E0.99515 F9000 ; Print pattern wall
G1 X164.7329 Y188.9332 E0.99515 F9000 ; Print pattern wall
G1 E-0.5 F2100 ; Retract
G1 Z0.75 F7200 ; Z hop
G0 X165.3086 Y146.5068 F7200 ; Move to start next pattern wall
G1 Z0.65 F7200 ; Z hop return
G1 E0.5 F2100 ; Un-retract
G1 X186.5218 Y167.72 E0.99515 F9000 ; Print pattern wall
G1 X165.3086 Y188.9332 E0.99515 F9000 ; Print pattern wall
G1 E-0.5 F2100 ; Retract
G1 Z0.75 F7200 ; Z hop
G0 X167.7586 Y146.5068 F7200 ; Move to next pattern
G1 Z0.65 F7200 ; Z hop return
G1 E0.5 F2100 ; Un-retract
SET_PRESSURE_ADVANCE ADVANCE=0.046 ; Set pressure advance
M117 PA 0.046
G1 X188.9718 Y167.72 E0.99515 F9000 ; Print pattern wall
G1 X167.7586 Y188.9332 E0.99515 F9000 ; Print pattern wall
G1 E-0.5 F2100 ; Retract
G1 Z0.75 F7200 ; Z hop
G0 X168.3343 Y146.5068 F7200 ; Move to start next pattern wall
G1 Z0.65 F7200 ; Z hop return
G1 E0.5 F2100 ; Un-retract
G1 X189.5475 Y167.72 E0.99515 F9000 ; Print pattern wall
G1 X168.3343 Y188.9332 E0.99515 F9000 ; Print pattern wall
G1 E-0.5 F2100 ; Retract
G1 Z0.75 F7200 ; Z hop
G0 X168.91 Y146.5068 F7200 ; Move to start next pattern wall
G1 Z0.65 F7200 ; Z hop return
G1 E0.5 F2100 ; Un-retract
G1 X190.1232 Y167.72 E0.99515 F9000 ; Print pattern wall
G1 X168.91 Y188.9332 E0.99515 F9000 ; Print pattern wall
G1 E-0.5 F2100 ; Retract
G1 Z0.75 F7200 ; Z hop
G0 X171.36 Y146.5068 F7200 ; Move to next pattern
G1 Z0.65 F7200 ; Z hop return
G1 E0.5 F2100 ; Un-retract
SET_PRESSURE_ADVANCE ADVANCE=0.047 ; Set pressure advance
M117 PA 0.047
G1 X192.5732 Y167.72 E0.99515 F9000 ; Print pattern wall
G1 X171.36 Y188.9332 E0.99515 F9000 ; Print pattern wall
G1 E-0.5 F2100 ; Retract
G1 Z0.75 F7200 ; Z hop
G0 X171.9357 Y146.5068 F7200 ; Move to start next pattern wall
G1 Z0.65 F7200 ; Z hop return
G1 E0.5 F2100 ; Un-retract
G1 X193.1489 Y167.72 E0.99515 F9000 ; Print pattern wall
G1 X171.9357 Y188.9332 E0.99515 F9000 ; Print pattern wall
G1 E-0.5 F2100 ; Retract
G1 Z0.75 F7200 ; Z hop
G0 X172.5114 Y146.5068 F7200 ; Move to start next pattern wall
G1 Z0.65 F7200 ; Z hop return
G1 E0.5 F2100 ; Un-retract
G1 X193.7246 Y167.72 E0.99515 F9000 ; Print pattern wall
G1 X172.5114 Y188.9332 E0.99515 F9000 ; Print pattern wall
G1 E-0.5 F2100 ; Retract
G1 Z0.75 F7200 ; Z hop
G0 X174.9614 Y146.5068 F7200 ; Move to next pattern
G1 Z0.65 F7200 ; Z hop return
G1 E0.5 F2100 ; Un-retract
SET_PRESSURE_ADVANCE ADVANCE=0.048 ; Set pressure advance
M117 PA 0.048
G1 X196.1746 Y167.72 E0.99515 F9000 ; Print pattern wall
G1 X174.9614 Y188.9332 E0.99515 F9000 ; Print pattern wall
G1 E-0.5 F2100 ; Retract
G1 Z0.75 F7200 ; Z hop
G0 X175.5371 Y146.5068 F7200 ; Move to start next pattern wall
G1 Z0.65 F7200 ; Z hop return
G1 E0.5 F2100 ; Un-retract
G1 X196.7503 Y167.72 E0.99515 F9000 ; Print pattern wall
G1 X175.5371 Y188.9332 E0.99515 F9000 ; Print pattern wall
G1 E-0.5 F2100 ; Retract
G1 Z0.75 F7200 ; Z hop
G0 X176.1127 Y146.5068 F7200 ; Move to start next pattern wall
G1 Z0.65 F7200 ; Z hop return
G1 E0.5 F2100 ; Un-retract
G1 X197.326 Y167.72 E0.99515 F9000 ; Print pattern wall
G1 X176.1127 Y188.9332 E0.99515 F9000 ; Print pattern wall
G1 E-0.5 F2100 ; Retract
G1 Z0.75 F7200 ; Z hop
G0 X178.5627 Y146.5068 F7200 ; Move to next pattern
G1 Z0.65 F7200 ; Z hop return
G1 E0.5 F2100 ; Un-retract
SET_PRESSURE_ADVANCE ADVANCE=0.049 ; Set pressure advance
M117 PA 0.049
G1 X199.776 Y167.72 E0.99515 F9000 ; Print pattern wall
G1 X178.5627 Y188.9332 E0.99515 F9000 ; Print pattern wall
G1 E-0.5 F2100 ; Retract
G1 Z0.75 F7200 ; Z hop
G0 X179.1384 Y146.5068 F7200 ; Move to start next pattern wall
G1 Z0.65 F7200 ; Z hop return
G1 E0.5 F2100 ; Un-retract
G1 X200.3516 Y167.72 E0.99515 F9000 ; Print pattern wall
G1 X179.1384 Y188.9332 E0.99515 F9000 ; Print pattern wall
G1 E-0.5 F2100 ; Retract
G1 Z0.75 F7200 ; Z hop
G0 X179.7141 Y146.5068 F7200 ; Move to start next pattern wall
G1 Z0.65 F7200 ; Z hop return
G1 E0.5 F2100 ; Un-retract
G1 X200.9273 Y167.72 E0.99515 F9000 ; Print pattern wall
G1 X179.7141 Y188.9332 E0.99515 F9000 ; Print pattern wall
G1 E-0.5 F2100 ; Retract
G1 Z0.75 F7200 ; Z hop
G0 X182.1641 Y146.5068 F7200 ; Move to next pattern
G1 Z0.65 F7200 ; Z hop return
G1 E0.5 F2100 ; Un-retract
SET_PRESSURE_ADVANCE ADVANCE=0.05 ; Set pressure advance
M117 PA 0.05
G1 X203.3773 Y167.72 E0.99515 F9000 ; Print pattern wall
G1 X182.1641 Y188.9332 E0.99515 F9000 ; Print pattern wall
G1 E-0.5 F2100 ; Retract
G1 Z0.75 F7200 ; Z hop
G0 X182.7398 Y146.5068 F7200 ; Move to start next pattern wall
G1 Z0.65 F7200 ; Z hop return
G1 E0.5 F2100 ; Un-retract
G1 X203.953 Y167.72 E0.99515 F9000 ; Print pattern wall
G1 X182.7398 Y188.9332 E0.99515 F9000 ; Print pattern wall
G1 E-0.5 F2100 ; Retract
G1 Z0.75 F7200 ; Z hop
G0 X183.3155 Y146.5068 F7200 ; Move to start next pattern wall
G1 Z0.65 F7200 ; Z hop return
G1 E0.5 F2100 ; Un-retract
G1 X204.5287 Y167.72 E0.99515 F9000 ; Print pattern wall
G1 X183.3155 Y188.9332 E0.99515 F9000 ; Print pattern wall
G1 E-0.5 F2100 ; Retract
G1 Z0.75 F7200 ; Z hop
G0 X185.7655 Y146.5068 F7200 ; Move to next pattern
G1 Z0.65 F7200 ; Z hop return
G1 E0.5 F2100 ; Un-retract
SET_PRESSURE_ADVANCE ADVANCE=0.051 ; Set pressure advance
M117 PA 0.051
G1 X206.9787 Y167.72 E0.99515 F9000 ; Print pattern wall
G1 X185.7655 Y188.9332 E0.99515 F9000 ; Print pattern wall
G1 E-0.5 F2100 ; Retract
G1 Z0.75 F7200 ; Z hop
G0 X186.3412 Y146.5068 F7200 ; Move to start next pattern wall
G1 Z0.65 F7200 ; Z hop return
G1 E0.5 F2100 ; Un-retract
G1 X207.5544 Y167.72 E0.99515 F9000 ; Print pattern wall
G1 X186.3412 Y188.9332 E0.99515 F9000 ; Print pattern wall
G1 E-0.5 F2100 ; Retract
G1 Z0.75 F7200 ; Z hop
G0 X186.9169 Y146.5068 F7200 ; Move to start next pattern wall
G1 Z0.65 F7200 ; Z hop return
G1 E0.5 F2100 ; Un-retract
G1 X208.1301 Y167.72 E0.99515 F9000 ; Print pattern wall
G1 X186.9169 Y188.9332 E0.99515 F9000 ; Print pattern wall
G1 E-0.5 F2100 ; Retract
G1 Z0.75 F7200 ; Z hop
G0 X189.3669 Y146.5068 F7200 ; Move to next pattern
G1 Z0.65 F7200 ; Z hop return
G1 E0.5 F2100 ; Un-retract
SET_PRESSURE_ADVANCE ADVANCE=0.052 ; Set pressure advance
M117 PA 0.052
G1 X210.5801 Y167.72 E0.99515 F9000 ; Print pattern wall
G1 X189.3669 Y188.9332 E0.99515 F9000 ; Print pattern wall
G1 E-0.5 F2100 ; Retract
G1 Z0.75 F7200 ; Z hop
G0 X189.9426 Y146.5068 F7200 ; Move to start next pattern wall
G1 Z0.65 F7200 ; Z hop return
G1 E0.5 F2100 ; Un-retract
G1 X211.1558 Y167.72 E0.99515 F9000 ; Print pattern wall
G1 X189.9426 Y188.9332 E0.99515 F9000 ; Print pattern wall
G1 E-0.5 F2100 ; Retract
G1 Z0.75 F7200 ; Z hop
G0 X190.5183 Y146.5068 F7200 ; Move to start next pattern wall
G1 Z0.65 F7200 ; Z hop return
G1 E0.5 F2100 ; Un-retract
G1 X211.7315 Y167.72 E0.99515 F9000 ; Print pattern wall
G1 X190.5183 Y188.9332 E0.99515 F9000 ; Print pattern wall
G1 E-0.5 F2100 ; Retract
G1 Z0.75 F7200 ; Z hop
G0 X138.9474 Y146.5068 F7200 ; Move back to start position
G1 Z0.65 F7200 ; Z hop return
G1 E0.5 F2100 ; Un-retract
G0 Z0.85 F7200 ; Move to layer height
SET_PRESSURE_ADVANCE ADVANCE=0.038 ; Set pressure advance
M117 PA 0.038
G1 X160.1606 Y167.72 E0.99515 F9000 ; Print pattern wall
G1 X138.9474 Y188.9332 E0.99515 F9000 ; Print pattern wall
G1 E-0.5 F2100 ; Retract
G1 Z0.95 F7200 ; Z hop
G0 X139.5231 Y146.5068 F7200 ; Move to start next pattern wall
G1 Z0.85 F7200 ; Z hop return
G1 E0.5 F2100 ; Un-retract
G1 X160.7363 Y167.72 E0.99515 F9000 ; Print pattern wall
G1 X139.5231 Y188.9332 E0.99515 F9000 ; Print pattern wall
G1 E-0.5 F2100 ; Retract
G1 Z0.95 F7200 ; Z hop
G0 X140.0988 Y146.5068 F7200 ; Move to start next pattern wall
G1 Z0.85 F7200 ; Z hop return
G1 E0.5 F2100 ; Un-retract
G1 X161.312 Y167.72 E0.99515 F9000 ; Print pattern wall
G1 X140.0988 Y188.9332 E0.99515 F9000 ; Print pattern wall
G1 E-0.5 F2100 ; Retract
G1 Z0.95 F7200 ; Z hop
G0 X142.5488 Y146.5068 F7200 ; Move to next pattern
G1 Z0.85 F7200 ; Z hop return
G1 E0.5 F2100 ; Un-retract
SET_PRESSURE_ADVANCE ADVANCE=0.039 ; Set pressure advance
M117 PA 0.039
G1 X163.762 Y167.72 E0.99515 F9000 ; Print pattern wall
G1 X142.5488 Y188.9332 E0.99515 F9000 ; Print pattern wall
G1 E-0.5 F2100 ; Retract
G1 Z0.95 F7200 ; Z hop
G0 X143.1245 Y146.5068 F7200 ; Move to start next pattern wall
G1 Z0.85 F7200 ; Z hop return
G1 E0.5 F2100 ; Un-retract
G1 X164.3377 Y167.72 E0.99515 F9000 ; Print pattern wall
G1 X143.1245 Y188.9332 E0.99515 F9000 ; Print pattern wall
G1 E-0.5 F2100 ; Retract
G1 Z0.95 F7200 ; Z hop
G0 X143.7002 Y146.5068 F7200 ; Move to start next pattern wall
G1 Z0.85 F7200 ; Z hop return
G1 E0.5 F2100 ; Un-retract
G1 X164.9134 Y167.72 E0.99515 F9000 ; Print pattern wall
G1 X143.7002 Y188.9332 E0.99515 F9000 ; Print pattern wall
G1 E-0.5 F2100 ; Retract
G1 Z0.95 F7200 ; Z hop
G0 X146.1502 Y146.5068 F7200 ; Move to next pattern
G1 Z0.85 F7200 ; Z hop return
G1 E0.5 F2100 ; Un-retract
SET_PRESSURE_ADVANCE ADVANCE=0.04 ; Set pressure advance
M117 PA 0.04
G1 X167.3634 Y167.72 E0.99515 F9000 ; Print pattern wall
G1 X146.1502 Y188.9332 E0.99515 F9000 ; Print pattern wall
G1 E-0.5 F2100 ; Retract
G1 Z0.95 F7200 ; Z hop
G0 X146.7259 Y146.5068 F7200 ; Move to start next pattern wall
G1 Z0.85 F7200 ; Z hop return
G1 E0.5 F2100 ; Un-retract
G1 X167.9391 Y167.72 E0.99515 F9000 ; Print pattern wall
G1 X146.7259 Y188.9332 E0.99515 F9000 ; Print pattern wall
G1 E-0.5 F2100 ; Retract
G1 Z0.95 F7200 ; Z hop
G0 X147.3016 Y146.5068 F7200 ; Move to start next pattern wall
G1 Z0.85 F7200 ; Z hop return
G1 E0.5 F2100 ; Un-retract
G1 X168.5148 Y167.72 E0.99515 F9000 ; Print pattern wall
G1 X147.3016 Y188.9332 E0.99515 F9000 ; Print pattern wall
G1 E-0.5 F2100 ; Retract
G1 Z0.95 F7200 ; Z hop
G0 X149.7516 Y146.5068 F7200 ; Move to next pattern
G1 Z0.85 F7200 ; Z hop return
G1 E0.5 F2100 ; Un-retract
SET_PRESSURE_ADVANCE ADVANCE=0.041 ; Set pressure advance
M117 PA 0.041
G1 X170.9648 Y167.72 E0.99515 F9000 ; Print pattern wall
G1 X149.7516 Y188.9332 E0.99515 F9000 ; Print pattern wall
G1 E-0.5 F2100 ; Retract
G1 Z0.95 F7200 ; Z hop
G0 X150.3273 Y146.5068 F7200 ; Move to start next pattern wall
G1 Z0.85 F7200 ; Z hop return
G1 E0.5 F2100 ; Un-retract
G1 X171.5405 Y167.72 E0.99515 F9000 ; Print pattern wall
G1 X150.3273 Y188.9332 E0.99515 F9000 ; Print pattern wall
G1 E-0.5 F2100 ; Retract
G1 Z0.95 F7200 ; Z hop
G0 X150.903 Y146.5068 F7200 ; Move to start next pattern wall
G1 Z0.85 F7200 ; Z hop return
G1 E0.5 F2100 ; Un-retract
G1 X172.1162 Y167.72 E0.99515 F9000 ; Print pattern wall
G1 X150.903 Y188.9332 E0.99515 F9000 ; Print pattern wall
G1 E-0.5 F2100 ; Retract
G1 Z0.95 F7200 ; Z hop
G0 X153.353 Y146.5068 F7200 ; Move to next pattern
G1 Z0.85 F7200 ; Z hop return
G1 E0.5 F2100 ; Un-retract
SET_PRESSURE_ADVANCE ADVANCE=0.042 ; Set pressure advance
M117 PA 0.042
G1 X174.5662 Y167.72 E0.99515 F9000 ; Print pattern wall
G1 X153.353 Y188.9332 E0.99515 F9000 ; Print pattern wall
G1 E-0.5 F2100 ; Retract
G1 Z0.95 F7200 ; Z hop
G0 X153.9287 Y146.5068 F7200 ; Move to start next pattern wall
G1 Z0.85 F7200 ; Z hop return
G1 E0.5 F2100 ; Un-retract
G1 X175.1419 Y167.72 E0.99515 F9000 ; Print pattern wall
G1 X153.9287 Y188.9332 E0.99515 F9000 ; Print pattern wall
G1 E-0.5 F2100 ; Retract
G1 Z0.95 F7200 ; Z hop
G0 X154.5044 Y146.5068 F7200 ; Move to start next pattern wall
G1 Z0.85 F7200 ; Z hop return
G1 E0.5 F2100 ; Un-retract
G1 X175.7176 Y167.72 E0.99515 F9000 ; Print pattern wall
G1 X154.5044 Y188.9332 E0.99515 F9000 ; Print pattern wall
G1 E-0.5 F2100 ; Retract
G1 Z0.95 F7200 ; Z hop
G0 X156.9544 Y146.5068 F7200 ; Move to next pattern
G1 Z0.85 F7200 ; Z hop return
G1 E0.5 F2100 ; Un-retract
SET_PRESSURE_ADVANCE ADVANCE=0.043 ; Set pressure advance
M117 PA 0.043
G1 X178.1676 Y167.72 E0.99515 F9000 ; Print pattern wall
G1 X156.9544 Y188.9332 E0.99515 F9000 ; Print pattern wall
G1 E-0.5 F2100 ; Retract
G1 Z0.95 F7200 ; Z hop
G0 X157.5301 Y146.5068 F7200 ; Move to start next pattern wall
G1 Z0.85 F7200 ; Z hop return
G1 E0.5 F2100 ; Un-retract
G1 X178.7433 Y167.72 E0.99515 F9000 ; Print pattern wall
G1 X157.5301 Y188.9332 E0.99515 F9000 ; Print pattern wall
G1 E-0.5 F2100 ; Retract
G1 Z0.95 F7200 ; Z hop
G0 X158.1058 Y146.5068 F7200 ; Move to start next pattern wall
G1 Z0.85 F7200 ; Z hop return
G1 E0.5 F2100 ; Un-retract
G1 X179.319 Y167.72 E0.99515 F9000 ; Print pattern wall
G1 X158.1058 Y188.9332 E0.99515 F9000 ; Print pattern wall
G1 E-0.5 F2100 ; Retract
G1 Z0.95 F7200 ; Z hop
G0 X160.5558 Y146.5068 F7200 ; Move to next pattern
G1 Z0.85 F7200 ; Z hop return
G1 E0.5 F2100 ; Un-retract
SET_PRESSURE_ADVANCE ADVANCE=0.044 ; Set pressure advance
M117 PA 0.044
G1 X181.769 Y167.72 E0.99515 F9000 ; Print pattern wall
G1 X160.5558 Y188.9332 E0.99515 F9000 ; Print pattern wall
G1 E-0.5 F2100 ; Retract
G1 Z0.95 F7200 ; Z hop
G0 X161.1315 Y146.5068 F7200 ; Move to start next pattern wall
G1 Z0.85 F7200 ; Z hop return
G1 E0.5 F2100 ; Un-retract
G1 X182.3447 Y167.72 E0.99515 F9000 ; Print pattern wall
G1 X161.1315 Y188.9332 E0.99515 F9000 ; Print pattern wall
G1 E-0.5 F2100 ; Retract
G1 Z0.95 F7200 ; Z hop
G0 X161.7072 Y146.5068 F7200 ; Move to start next pattern wall
G1 Z0.85 F7200 ; Z hop return
G1 E0.5 F2100 ; Un-retract
G1 X182.9204 Y167.72 E0.99515 F9000 ; Print pattern wall
G1 X161.7072 Y188.9332 E0.99515 F9000 ; Print pattern wall
G1 E-0.5 F2100 ; Retract
G1 Z0.95 F7200 ; Z hop
G0 X164.1572 Y146.5068 F7200 ; Move to next pattern
G1 Z0.85 F7200 ; Z hop return
G1 E0.5 F2100 ; Un-retract
SET_PRESSURE_ADVANCE ADVANCE=0.045 ; Set pressure advance
M117 PA 0.045
G1 X185.3704 Y167.72 E0.99515 F9000 ; Print pattern wall
G1 X164.1572 Y188.9332 E0.99515 F9000 ; Print pattern wall
G1 E-0.5 F2100 ; Retract
G1 Z0.95 F7200 ; Z hop
G0 X164.7329 Y146.5068 F7200 ; Move to start next pattern wall
G1 Z0.85 F7200 ; Z hop return
G1 E0.5 F2100 ; Un-retract
G1 X185.9461 Y167.72 E0.99515 F9000 ; Print pattern wall
G1 X164.7329 Y188.9332 E0.99515 F9000 ; Print pattern wall
G1 E-0.5 F2100 ; Retract
G1 Z0.95 F7200 ; Z hop
G0 X165.3086 Y146.5068 F7200 ; Move to start next pattern wall
G1 Z0.85 F7200 ; Z hop return
G1 E0.5 F2100 ; Un-retract
G1 X186.5218 Y167.72 E0.99515 F9000 ; Print pattern wall
G1 X165.3086 Y188.9332 E0.99515 F9000 ; Print pattern wall
G1 E-0.5 F2100 ; Retract
G1 Z0.95 F7200 ; Z hop
G0 X167.7586 Y146.5068 F7200 ; Move to next pattern
G1 Z0.85 F7200 ; Z hop return
G1 E0.5 F2100 ; Un-retract
SET_PRESSURE_ADVANCE ADVANCE=0.046 ; Set pressure advance
M117 PA 0.046
G1 X188.9718 Y167.72 E0.99515 F9000 ; Print pattern wall
G1 X167.7586 Y188.9332 E0.99515 F9000 ; Print pattern wall
G1 E-0.5 F2100 ; Retract
G1 Z0.95 F7200 ; Z hop
G0 X168.3343 Y146.5068 F7200 ; Move to start next pattern wall
G1 Z0.85 F7200 ; Z hop return
G1 E0.5 F2100 ; Un-retract
G1 X189.5475 Y167.72 E0.99515 F9000 ; Print pattern wall
G1 X168.3343 Y188.9332 E0.99515 F9000 ; Print pattern wall
G1 E-0.5 F2100 ; Retract
G1 Z0.95 F7200 ; Z hop
G0 X168.91 Y146.5068 F7200 ; Move to start next pattern wall
G1 Z0.85 F7200 ; Z hop return
G1 E0.5 F2100 ; Un-retract
G1 X190.1232 Y167.72 E0.99515 F9000 ; Print pattern wall
G1 X168.91 Y188.9332 E0.99515 F9000 ; Print pattern wall
G1 E-0.5 F2100 ; Retract
G1 Z0.95 F7200 ; Z hop
G0 X171.36 Y146.5068 F7200 ; Move to next pattern
G1 Z0.85 F7200 ; Z hop return
G1 E0.5 F2100 ; Un-retract
SET_PRESSURE_ADVANCE ADVANCE=0.047 ; Set pressure advance
M117 PA 0.047
G1 X192.5732 Y167.72 E0.99515 F9000 ; Print pattern wall
G1 X171.36 Y188.9332 E0.99515 F9000 ; Print pattern wall
G1 E-0.5 F2100 ; Retract
G1 Z0.95 F7200 ; Z hop
G0 X171.9357 Y146.5068 F7200 ; Move to start next pattern wall
G1 Z0.85 F7200 ; Z hop return
G1 E0.5 F2100 ; Un-retract
G1 X193.1489 Y167.72 E0.99515 F9000 ; Print pattern wall
G1 X171.9357 Y188.9332 E0.99515 F9000 ; Print pattern wall
G1 E-0.5 F2100 ; Retract
G1 Z0.95 F7200 ; Z hop
G0 X172.5114 Y146.5068 F7200 ; Move to start next pattern wall
G1 Z0.85 F7200 ; Z hop return
G1 E0.5 F2100 ; Un-retract
G1 X193.7246 Y167.72 E0.99515 F9000 ; Print pattern wall
G1 X172.5114 Y188.9332 E0.99515 F9000 ; Print pattern wall
G1 E-0.5 F2100 ; Retract
G1 Z0.95 F7200 ; Z hop
G0 X174.9614 Y146.5068 F7200 ; Move to next pattern
G1 Z0.85 F7200 ; Z hop return
G1 E0.5 F2100 ; Un-retract
SET_PRESSURE_ADVANCE ADVANCE=0.048 ; Set pressure advance
M117 PA 0.048
G1 X196.1746 Y167.72 E0.99515 F9000 ; Print pattern wall
G1 X174.9614 Y188.9332 E0.99515 F9000 ; Print pattern wall
G1 E-0.5 F2100 ; Retract
G1 Z0.95 F7200 ; Z hop
G0 X175.5371 Y146.5068 F7200 ; Move to start next pattern wall
G1 Z0.85 F7200 ; Z hop return
G1 E0.5 F2100 ; Un-retract
G1 X196.7503 Y167.72 E0.99515 F9000 ; Print pattern wall
G1 X175.5371 Y188.9332 E0.99515 F9000 ; Print pattern wall
G1 E-0.5 F2100 ; Retract
G1 Z0.95 F7200 ; Z hop
G0 X176.1127 Y146.5068 F7200 ; Move to start next pattern wall
G1 Z0.85 F7200 ; Z hop return
G1 E0.5 F2100 ; Un-retract
G1 X197.326 Y167.72 E0.99515 F9000 ; Print pattern wall
G1 X176.1127 Y188.9332 E0.99515 F9000 ; Print pattern wall
G1 E-0.5 F2100 ; Retract
G1 Z0.95 F7200 ; Z hop
G0 X178.5627 Y146.5068 F7200 ; Move to next pattern
G1 Z0.85 F7200 ; Z hop return
G1 E0.5 F2100 ; Un-retract
SET_PRESSURE_ADVANCE ADVANCE=0.049 ; Set pressure advance
M117 PA 0.049
G1 X199.776 Y167.72 E0.99515 F9000 ; Print pattern wall
G1 X178.5627 Y188.9332 E0.99515 F9000 ; Print pattern wall
G1 E-0.5 F2100 ; Retract
G1 Z0.95 F7200 ; Z hop
G0 X179.1384 Y146.5068 F7200 ; Move to start next pattern wall
G1 Z0.85 F7200 ; Z hop return
G1 E0.5 F2100 ; Un-retract
G1 X200.3516 Y167.72 E0.99515 F9000 ; Print pattern wall
G1 X179.1384 Y188.9332 E0.99515 F9000 ; Print pattern wall
G1 E-0.5 F2100 ; Retract
G1 Z0.95 F7200 ; Z hop
G0 X179.7141 Y146.5068 F7200 ; Move to start next pattern wall
G1 Z0.85 F7200 ; Z hop return
G1 E0.5 F2100 ; Un-retract
G1 X200.9273 Y167.72 E0.99515 F9000 ; Print pattern wall
G1 X179.7141 Y188.9332 E0.99515 F9000 ; Print pattern wall
G1 E-0.5 F2100 ; Retract
G1 Z0.95 F7200 ; Z hop
G0 X182.1641 Y146.5068 F7200 ; Move to next pattern
G1 Z0.85 F7200 ; Z hop return
G1 E0.5 F2100 ; Un-retract
SET_PRESSURE_ADVANCE ADVANCE=0.05 ; Set pressure advance
M117 PA 0.05
G1 X203.3773 Y167.72 E0.99515 F9000 ; Print pattern wall
G1 X182.1641 Y188.9332 E0.99515 F9000 ; Print pattern wall
G1 E-0.5 F2100 ; Retract
G1 Z0.95 F7200 ; Z hop
G0 X182.7398 Y146.5068 F7200 ; Move to start next pattern wall
G1 Z0.85 F7200 ; Z hop return
G1 E0.5 F2100 ; Un-retract
G1 X203.953 Y167.72 E0.99515 F9000 ; Print pattern wall
G1 X182.7398 Y188.9332 E0.99515 F9000 ; Print pattern wall
G1 E-0.5 F2100 ; Retract
G1 Z0.95 F7200 ; Z hop
G0 X183.3155 Y146.5068 F7200 ; Move to start next pattern wall
G1 Z0.85 F7200 ; Z hop return
G1 E0.5 F2100 ; Un-retract
G1 X204.5287 Y167.72 E0.99515 F9000 ; Print pattern wall
G1 X183.3155 Y188.9332 E0.99515 F9000 ; Print pattern wall
G1 E-0.5 F2100 ; Retract
G1 Z0.95 F7200 ; Z hop
G0 X185.7655 Y146.5068 F7200 ; Move to next pattern
G1 Z0.85 F7200 ; Z hop return
G1 E0.5 F2100 ; Un-retract
SET_PRESSURE_ADVANCE ADVANCE=0.051 ; Set pressure advance
M117 PA 0.051
G1 X206.9787 Y167.72 E0.99515 F9000 ; Print pattern wall
G1 X185.7655 Y188.9332 E0.99515 F9000 ; Print pattern wall
G1 E-0.5 F2100 ; Retract
G1 Z0.95 F7200 ; Z hop
G0 X186.3412 Y146.5068 F7200 ; Move to start next pattern wall
G1 Z0.85 F7200 ; Z hop return
G1 E0.5 F2100 ; Un-retract
G1 X207.5544 Y167.72 E0.99515 F9000 ; Print pattern wall
G1 X186.3412 Y188.9332 E0.99515 F9000 ; Print pattern wall
G1 E-0.5 F2100 ; Retract
G1 Z0.95 F7200 ; Z hop
G0 X186.9169 Y146.5068 F7200 ; Move to start next pattern wall
G1 Z0.85 F7200 ; Z hop return
G1 E0.5 F2100 ; Un-retract
G1 X208.1301 Y167.72 E0.99515 F9000 ; Print pattern wall
G1 X186.9169 Y188.9332 E0.99515 F9000 ; Print pattern wall
G1 E-0.5 F2100 ; Retract
G1 Z0.95 F7200 ; Z hop
G0 X189.3669 Y146.5068 F7200 ; Move to next pattern
G1 Z0.85 F7200 ; Z hop return
G1 E0.5 F2100 ; Un-retract
SET_PRESSURE_ADVANCE ADVANCE=0.052 ; Set pressure advance
M117 PA 0.052
G1 X210.5801 Y167.72 E0.99515 F9000 ; Print pattern wall
G1 X189.3669 Y188.9332 E0.99515 F9000 ; Print pattern wall
G1 E-0.5 F2100 ; Retract
G1 Z0.95 F7200 ; Z hop
G0 X189.9426 Y146.5068 F7200 ; Move to start next pattern wall
G1 Z0.85 F7200 ; Z hop return
G1 E0.5 F2100 ; Un-retract
G1 X211.1558 Y167.72 E0.99515 F9000 ; Print pattern wall
G1 X189.9426 Y188.9332 E0.99515 F9000 ; Print pattern wall
G1 E-0.5 F2100 ; Retract
G1 Z0.95 F7200 ; Z hop
G0 X190.5183 Y146.5068 F7200 ; Move to start next pattern wall
G1 Z0.85 F7200 ; Z hop return
G1 E0.5 F2100 ; Un-retract
G1 X211.7315 Y167.72 E0.99515 F9000 ; Print pattern wall
G1 X190.5183 Y188.9332 E0.99515 F9000 ; Print pattern wall
SET_PRESSURE_ADVANCE ADVANCE=0.038 ; Set pressure advance back to start value
M117 PA 0.038
G1 E-0.5 F2100 ; Retract
G1 Z0.95 F7200 ; Z hop
G0 Z5.85 F7200 ; Z raise
M104 S0 ; Turn off hotend
M140 S0 ; Turn off bed
M107    ; Turn off fan
;
; End G-code
;
PRINT_END ; End macro. Change name to match yours
;
; FINISH
;
