
; ### Ellis' Pressure Advance / Linear Advance Calibration Tool ###
;
; Original Marlin linear advance calibration tool by Sineos [https://github.com/Sineos]
; Heavily modified/rewritten by Andrew Ellis [https://github.com/AndrewEllis93]
;
; -------------------------------------------
; Generated: Tue Feb 04 2025 14:04:57 GMT+0100 (heure normale d’Europe centrale)
; -------------------------------------------
;
; Advanced Mode: false
;
; Printer:
;  - Firmware: klipper
;  - Bed Shape: Rect
;  - Bed Size X: 350 mm
;  - Bed Size Y: 350 mm
;  - Origin Bed Center: false
;  - Travel Speed: 120 mm/s
;  - Nozzle Diameter: 0.4 mm
;  - Filament Diameter: 1.75 mm
;  - Extrusion Multiplier: 0.98
;
; Retraction / Z Hop:
;  - Retraction Distance: 0.5 mm
;  - Retract Speed: 35 mm/s
;  - Unretract Speed: 35 mm/s
;  - Z Hop Enable: true
;  - Z Hop Height: 0.1mm
;
; First Layer Settings:
;  - First Layer Height: 0.25 mm
;  - First Layer Printing Speed: 30 mm/s
;  - First Layer Fan Speed: 0%
;  - Anchor Option: anchor_frame
;
; Print Settings:
;  - Layer Height: 0.2 mm
;  - Print Speed: 150 mm/s
;  - Acceleration: Disabled
;  - Fan Speed: 50%
;
; Pressure Advance Stepping:
;  - PA Start Value: 0
;  - PA End Value: 0.08
;  - PA Increment: 0.005
;
; Start / End G-code:
;  - Hotend Temp: 200C
;  - Bed Temp: 60C
;  - Don't Add G28: false
;  - Don't Add Heating G-Codes: false
;  - Entered Start G-code: 
;       G28 ; Home all axes
;       M190 S60 ; Set & wait for bed temp
;       M109 S200 ; Set & wait for hotend temp
;       ; ; print_start EXTRUDER=200 BED=60 CHAMBER=0
;  - Entered End G-code: 
;       PRINT_END ; End macro. Change name to match yours
;
; Calculated Values:
;  - Print Size X: 84.72 mm
;  - Print Size Y: 53.99 mm
;  - Number of Patterns to Print: 17
;  - PA Values: 0, 0.005, 0.01, 0.015, 0.02, 0.025, 0.03, 0.035, 0.04, 0.045, 0.05, 0.055, 0.06, 0.065, 0.07, 0.075, 0.08
;
; Prepare printing
;
G28 ; Home all axes
M190 S60 ; Set & wait for bed temp
M109 S200 ; Set & wait for hotend temp
; ; print_start EXTRUDER=200 BED=60 CHAMBER=0
G21 ; Millimeter units
G90 ; Absolute XYZ
M83 ; Relative E
G92 E0 ; Reset extruder distance
;
;  Begin printing
;
M106 S0 ; Set fan speed
G1 E-0.5 F2100 ; Retract
G0 Z5 F7200 ; Z raise
G0 X132.6417 Y148.0068 F7200 ; Move to start position
G0 Z0.25 F7200 ; Move to start layer height
G1 E0.5 F2100 ; Un-retract
SET_PRESSURE_ADVANCE ADVANCE=0 ; Set pressure advance to start value
M117 PA 0
G1 X132.6417 Y190.4332 E2.1882 F1800 ; Draw perimeter (up)
G1 X217.3583 Y190.4332 E4.36937 F1800 ; Draw perimeter (right)
G1 X217.3583 Y148.0068 E2.1882 F1800 ; Draw perimeter (down)
G1 X132.6417 Y148.0068 E4.36937 F1800 ; Draw perimeter (left)
G0 X133.148 Y148.5131 F7200 ; Step inwards to print next perimeter
G1 X133.148 Y189.9269 E2.13597 F1800 ; Draw perimeter (up)
G1 X216.852 Y189.9269 E4.31714 F1800 ; Draw perimeter (right)
G1 X216.852 Y148.5131 E2.13597 F1800 ; Draw perimeter (down)
G1 X133.148 Y148.5131 E4.31714 F1800 ; Draw perimeter (left)
G0 X133.6544 Y149.0195 F7200 ; Step inwards to print next perimeter
G1 X133.6544 Y189.4205 E2.08374 F1800 ; Draw perimeter (up)
G1 X216.3456 Y189.4205 E4.26491 F1800 ; Draw perimeter (right)
G1 X216.3456 Y149.0195 E2.08374 F1800 ; Draw perimeter (down)
G1 X133.6544 Y149.0195 E4.26491 F1800 ; Draw perimeter (left)
G0 X134.1607 Y149.5258 F7200 ; Step inwards to print next perimeter
G1 X134.1607 Y188.9142 E2.0315 F1800 ; Draw perimeter (up)
G1 X215.8393 Y188.9142 E4.21268 F1800 ; Draw perimeter (right)
G1 X215.8393 Y149.5258 E2.0315 F1800 ; Draw perimeter (down)
G1 X134.1607 Y149.5258 E4.21268 F1800 ; Draw perimeter (left)
G1 E-0.5 F2100 ; Retract
G1 Z0.35 F7200 ; Z hop
G0 X132.6417 Y190.9396 F7200 ; Move to box start
G1 Z0.25 F7200 ; Z hop return
G1 E0.5 F2100 ; Un-retract
G1 X132.6417 Y202.4459 E0.59346 F1800 ; Draw perimeter (up)
G1 X196.8962 Y202.4459 E3.31401 F1800 ; Draw perimeter (right)
G1 X196.8962 Y190.9396 E0.59346 F1800 ; Draw perimeter (down)
G1 X132.6417 Y190.9396 E3.31401 F1800 ; Draw perimeter (left)
G0 X133.148 Y191.4459 F7200 ; Step inwards to print next perimeter
G1 X133.148 Y201.9396 E0.54122 F1800 ; Draw perimeter (up)
G1 X196.3898 Y201.9396 E3.26178 F1800 ; Draw perimeter (right)
G1 X196.3898 Y191.4459 E0.54122 F1800 ; Draw perimeter (down)
G1 X133.148 Y191.4459 E3.26178 F1800 ; Draw perimeter (left)
G0 X133.6544 Y191.9523 F7200 ; Step inwards to print next perimeter
G1 X133.6544 Y201.4332 E0.48899 F1800 ; Draw perimeter (up)
G1 X195.8835 Y201.4332 E3.20955 F1800 ; Draw perimeter (right)
G1 X195.8835 Y191.9523 E0.48899 F1800 ; Draw perimeter (down)
G1 X133.6544 Y191.9523 E3.20955 F1800 ; Draw perimeter (left)
G0 X134.1607 Y192.4586 F7200 ; Step inwards to print next perimeter
G1 X134.1607 Y200.9269 E0.43676 F1800 ; Draw perimeter (up)
G1 X195.3771 Y200.9269 E3.15732 F1800 ; Draw perimeter (right)
G1 X195.3771 Y192.4586 E0.43676 F1800 ; Draw perimeter (down)
G1 X134.1607 Y192.4586 E3.15732 F1800 ; Draw perimeter (left)
G0 X134.5341 Y192.8319 F7200 ; Move to fill start
G0 X135.2502 Y192.8319 F7200 ; Move
G1 X134.5341 Y193.548 E0.05223 F1800 ; Fill
G0 X134.5341 Y194.2641 F7200 ; Move
G1 X135.9663 Y192.8319 E0.10446 F1800 ; Fill
G0 X136.6823 Y192.8319 F7200 ; Move
G1 X134.5341 Y194.9802 E0.15669 F1800 ; Fill
G0 X134.5341 Y195.6963 F7200 ; Move
G1 X137.3984 Y192.8319 E0.20893 F1800 ; Fill
G0 X138.1145 Y192.8319 F7200 ; Move
G1 X134.5341 Y196.4124 E0.26116 F1800 ; Fill
G0 X134.5341 Y197.1285 F7200 ; Move
G1 X138.8306 Y192.8319 E0.31339 F1800 ; Fill
G0 X139.5467 Y192.8319 F7200 ; Move
G1 X134.5341 Y197.8445 E0.36562 F1800 ; Fill
G0 X134.5341 Y198.5606 F7200 ; Move
G1 X140.2628 Y192.8319 E0.41785 F1800 ; Fill
G0 X140.9789 Y192.8319 F7200 ; Move
G1 X134.5341 Y199.2767 E0.47008 F1800 ; Fill
G0 X134.5341 Y199.9928 F7200 ; Move
G1 X141.6949 Y192.8319 E0.52231 F1800 ; Fill
G0 X142.411 Y192.8319 F7200 ; Move
G1 X134.6894 Y200.5535 E0.56321 F1800 ; Fill
G0 X135.4055 Y200.5535 F7200 ; Move
G1 X143.1271 Y192.8319 E0.56321 F1800 ; Fill
G0 X143.8432 Y192.8319 F7200 ; Move
G1 X136.1216 Y200.5535 E0.56321 F1800 ; Fill
G0 X136.8377 Y200.5535 F7200 ; Move
G1 X144.5593 Y192.8319 E0.56321 F1800 ; Fill
G0 X145.2754 Y192.8319 F7200 ; Move
G1 X137.5538 Y200.5535 E0.56321 F1800 ; Fill
G0 X138.2699 Y200.5535 F7200 ; Move
G1 X145.9915 Y192.8319 E0.56321 F1800 ; Fill
G0 X146.7076 Y192.8319 F7200 ; Move
G1 X138.986 Y200.5535 E0.56321 F1800 ; Fill
G0 X139.7021 Y200.5535 F7200 ; Move
G1 X147.4236 Y192.8319 E0.56321 F1800 ; Fill
G0 X148.1397 Y192.8319 F7200 ; Move
G1 X140.4181 Y200.5535 E0.56321 F1800 ; Fill
G0 X141.1342 Y200.5535 F7200 ; Move
G1 X148.8558 Y192.8319 E0.56321 F1800 ; Fill
G0 X149.5719 Y192.8319 F7200 ; Move
G1 X141.8503 Y200.5535 E0.56321 F1800 ; Fill
G0 X142.5664 Y200.5535 F7200 ; Move
G1 X150.288 Y192.8319 E0.56321 F1800 ; Fill
G0 X151.0041 Y192.8319 F7200 ; Move
G1 X143.2825 Y200.5535 E0.56321 F1800 ; Fill
G0 X143.9986 Y200.5535 F7200 ; Move
G1 X151.7202 Y192.8319 E0.56321 F1800 ; Fill
G0 X152.4362 Y192.8319 F7200 ; Move
G1 X144.7147 Y200.5535 E0.56321 F1800 ; Fill
G0 X145.4307 Y200.5535 F7200 ; Move
G1 X153.1523 Y192.8319 E0.56321 F1800 ; Fill
G0 X153.8684 Y192.8319 F7200 ; Move
G1 X146.1468 Y200.5535 E0.56321 F1800 ; Fill
G0 X146.8629 Y200.5535 F7200 ; Move
G1 X154.5845 Y192.8319 E0.56321 F1800 ; Fill
G0 X155.3006 Y192.8319 F7200 ; Move
G1 X147.579 Y200.5535 E0.56321 F1800 ; Fill
G0 X148.2951 Y200.5535 F7200 ; Move
G1 X156.0167 Y192.8319 E0.56321 F1800 ; Fill
G0 X156.7328 Y192.8319 F7200 ; Move
G1 X149.0112 Y200.5535 E0.56321 F1800 ; Fill
G0 X149.7273 Y200.5535 F7200 ; Move
G1 X157.4488 Y192.8319 E0.56321 F1800 ; Fill
G0 X158.1649 Y192.8319 F7200 ; Move
G1 X150.4433 Y200.5535 E0.56321 F1800 ; Fill
G0 X151.1594 Y200.5535 F7200 ; Move
G1 X158.881 Y192.8319 E0.56321 F1800 ; Fill
G0 X159.5971 Y192.8319 F7200 ; Move
G1 X151.8755 Y200.5535 E0.56321 F1800 ; Fill
G0 X152.5916 Y200.5535 F7200 ; Move
G1 X160.3132 Y192.8319 E0.56321 F1800 ; Fill
G0 X161.0293 Y192.8319 F7200 ; Move
G1 X153.3077 Y200.5535 E0.56321 F1800 ; Fill
G0 X154.0238 Y200.5535 F7200 ; Move
G1 X161.7454 Y192.8319 E0.56321 F1800 ; Fill
G0 X162.4615 Y192.8319 F7200 ; Move
G1 X154.7399 Y200.5535 E0.56321 F1800 ; Fill
G0 X155.456 Y200.5535 F7200 ; Move
G1 X163.1775 Y192.8319 E0.56321 F1800 ; Fill
G0 X163.8936 Y192.8319 F7200 ; Move
G1 X156.172 Y200.5535 E0.56321 F1800 ; Fill
G0 X156.8881 Y200.5535 F7200 ; Move
G1 X164.6097 Y192.8319 E0.56321 F1800 ; Fill
G0 X165.3258 Y192.8319 F7200 ; Move
G1 X157.6042 Y200.5535 E0.56321 F1800 ; Fill
G0 X158.3203 Y200.5535 F7200 ; Move
G1 X166.0419 Y192.8319 E0.56321 F1800 ; Fill
G0 X166.758 Y192.8319 F7200 ; Move
G1 X159.0364 Y200.5535 E0.56321 F1800 ; Fill
G0 X159.7525 Y200.5535 F7200 ; Move
G1 X167.4741 Y192.8319 E0.56321 F1800 ; Fill
G0 X168.1901 Y192.8319 F7200 ; Move
G1 X160.4686 Y200.5535 E0.56321 F1800 ; Fill
G0 X161.1846 Y200.5535 F7200 ; Move
G1 X168.9062 Y192.8319 E0.56321 F1800 ; Fill
G0 X169.6223 Y192.8319 F7200 ; Move
G1 X161.9007 Y200.5535 E0.56321 F1800 ; Fill
G0 X162.6168 Y200.5535 F7200 ; Move
G1 X170.3384 Y192.8319 E0.56321 F1800 ; Fill
G0 X171.0545 Y192.8319 F7200 ; Move
G1 X163.3329 Y200.5535 E0.56321 F1800 ; Fill
G0 X164.049 Y200.5535 F7200 ; Move
G1 X171.7706 Y192.8319 E0.56321 F1800 ; Fill
G0 X172.4867 Y192.8319 F7200 ; Move
G1 X164.7651 Y200.5535 E0.56321 F1800 ; Fill
G0 X165.4812 Y200.5535 F7200 ; Move
G1 X173.2027 Y192.8319 E0.56321 F1800 ; Fill
G0 X173.9188 Y192.8319 F7200 ; Move
G1 X166.1972 Y200.5535 E0.56321 F1800 ; Fill
G0 X166.9133 Y200.5535 F7200 ; Move
G1 X174.6349 Y192.8319 E0.56321 F1800 ; Fill
G0 X175.351 Y192.8319 F7200 ; Move
G1 X167.6294 Y200.5535 E0.56321 F1800 ; Fill
G0 X168.3455 Y200.5535 F7200 ; Move
G1 X176.0671 Y192.8319 E0.56321 F1800 ; Fill
G0 X176.7832 Y192.8319 F7200 ; Move
G1 X169.0616 Y200.5535 E0.56321 F1800 ; Fill
G0 X169.7777 Y200.5535 F7200 ; Move
G1 X177.4993 Y192.8319 E0.56321 F1800 ; Fill
G0 X178.2154 Y192.8319 F7200 ; Move
G1 X170.4938 Y200.5535 E0.56321 F1800 ; Fill
G0 X171.2099 Y200.5535 F7200 ; Move
G1 X178.9314 Y192.8319 E0.56321 F1800 ; Fill
G0 X179.6475 Y192.8319 F7200 ; Move
G1 X171.9259 Y200.5535 E0.56321 F1800 ; Fill
G0 X172.642 Y200.5535 F7200 ; Move
G1 X180.3636 Y192.8319 E0.56321 F1800 ; Fill
G0 X181.0797 Y192.8319 F7200 ; Move
G1 X173.3581 Y200.5535 E0.56321 F1800 ; Fill
G0 X174.0742 Y200.5535 F7200 ; Move
G1 X181.7958 Y192.8319 E0.56321 F1800 ; Fill
G0 X182.5119 Y192.8319 F7200 ; Move
G1 X174.7903 Y200.5535 E0.56321 F1800 ; Fill
G0 X175.5064 Y200.5535 F7200 ; Move
G1 X183.228 Y192.8319 E0.56321 F1800 ; Fill
G0 X183.944 Y192.8319 F7200 ; Move
G1 X176.2225 Y200.5535 E0.56321 F1800 ; Fill
G0 X176.9385 Y200.5535 F7200 ; Move
G1 X184.6601 Y192.8319 E0.56321 F1800 ; Fill
G0 X185.3762 Y192.8319 F7200 ; Move
G1 X177.6546 Y200.5535 E0.56321 F1800 ; Fill
G0 X178.3707 Y200.5535 F7200 ; Move
G1 X186.0923 Y192.8319 E0.56321 F1800 ; Fill
G0 X186.8084 Y192.8319 F7200 ; Move
G1 X179.0868 Y200.5535 E0.56321 F1800 ; Fill
G0 X179.8029 Y200.5535 F7200 ; Move
G1 X187.5245 Y192.8319 E0.56321 F1800 ; Fill
G0 X188.2406 Y192.8319 F7200 ; Move
G1 X180.519 Y200.5535 E0.56321 F1800 ; Fill
G0 X181.2351 Y200.5535 F7200 ; Move
G1 X188.9566 Y192.8319 E0.56321 F1800 ; Fill
G0 X189.6727 Y192.8319 F7200 ; Move
G1 X181.9511 Y200.5535 E0.56321 F1800 ; Fill
G0 X182.6672 Y200.5535 F7200 ; Move
G1 X190.3888 Y192.8319 E0.56321 F1800 ; Fill
G0 X191.1049 Y192.8319 F7200 ; Move
G1 X183.3833 Y200.5535 E0.56321 F1800 ; Fill
G0 X184.0994 Y200.5535 F7200 ; Move
G1 X191.821 Y192.8319 E0.56321 F1800 ; Fill
G0 X192.5371 Y192.8319 F7200 ; Move
G1 X184.8155 Y200.5535 E0.56321 F1800 ; Fill
G0 X185.5316 Y200.5535 F7200 ; Move
G1 X193.2532 Y192.8319 E0.56321 F1800 ; Fill
G0 X193.9693 Y192.8319 F7200 ; Move
G1 X186.2477 Y200.5535 E0.56321 F1800 ; Fill
G0 X186.9638 Y200.5535 F7200 ; Move
G1 X194.6853 Y192.8319 E0.56321 F1800 ; Fill
G0 X195.0038 Y193.2296 F7200 ; Move
G1 X187.6798 Y200.5535 E0.53421 F1800 ; Fill
G0 X188.3959 Y200.5535 F7200 ; Move
G1 X195.0038 Y193.9457 E0.48198 F1800 ; Fill
G0 X195.0038 Y194.6617 F7200 ; Move
G1 X189.112 Y200.5535 E0.42975 F1800 ; Fill
G0 X189.8281 Y200.5535 F7200 ; Move
G1 X195.0038 Y195.3778 E0.37751 F1800 ; Fill
G0 X195.0038 Y196.0939 F7200 ; Move
G1 X190.5442 Y200.5535 E0.32528 F1800 ; Fill
G0 X191.2603 Y200.5535 F7200 ; Move
G1 X195.0038 Y196.81 E0.27305 F1800 ; Fill
G0 X195.0038 Y197.5261 F7200 ; Move
G1 X191.9764 Y200.5535 E0.22082 F1800 ; Fill
G0 X192.6924 Y200.5535 F7200 ; Move
G1 X195.0038 Y198.2422 E0.16859 F1800 ; Fill
G0 X195.0038 Y198.9583 F7200 ; Move
G1 X193.4085 Y200.5535 E0.11636 F1800 ; Fill
G0 X194.1246 Y200.5535 F7200 ; Move
G1 X195.0038 Y199.6744 E0.06413 F1800 ; Fill
G0 X195.0038 Y200.3904 F7200 ; Move
G1 X194.8407 Y200.5535 E0.0119 F1800 ; Fill
G0 Z0.25 F7200 ; Move to layer height
G1 E-0.5 F2100 ; Retract
G1 Z0.35 F7200 ; Z hop
G0 X137.2384 Y149.8992 F7200 ; Move to pattern start

G1 Z0.25 F7200 ; Z hop return
G1 E0.5 F2100 ; Un-retract
SET_PRESSURE_ADVANCE ADVANCE=0 ; Set pressure advance
M117 PA 0
G1 X156.5592 Y169.22 E1.10311 F1800 ; Print pattern wall
G1 X137.2384 Y188.5408 E1.10311 F1800 ; Print pattern wall
G1 E-0.5 F2100 ; Retract
G1 Z0.35 F7200 ; Z hop
G0 X137.8141 Y149.8992 F7200 ; Move to start next pattern wall
G1 Z0.25 F7200 ; Z hop return
G1 E0.5 F2100 ; Un-retract
G1 X157.1349 Y169.22 E1.10311 F1800 ; Print pattern wall
G1 X137.8141 Y188.5408 E1.10311 F1800 ; Print pattern wall
G1 E-0.5 F2100 ; Retract
G1 Z0.35 F7200 ; Z hop
G0 X138.3898 Y149.8992 F7200 ; Move to start next pattern wall
G1 Z0.25 F7200 ; Z hop return
G1 E0.5 F2100 ; Un-retract
G1 X157.7106 Y169.22 E1.10311 F1800 ; Print pattern wall
G1 X138.3898 Y188.5408 E1.10311 F1800 ; Print pattern wall
G1 E-0.5 F2100 ; Retract
G1 Z0.35 F7200 ; Z hop
G0 X140.8398 Y149.8992 F7200 ; Move to next pattern
G1 Z0.25 F7200 ; Z hop return
G1 E0.5 F2100 ; Un-retract
SET_PRESSURE_ADVANCE ADVANCE=0.005 ; Set pressure advance
M117 PA 0.005
G1 X160.1606 Y169.22 E1.10311 F1800 ; Print pattern wall
G1 X140.8398 Y188.5408 E1.10311 F1800 ; Print pattern wall
G1 E-0.5 F2100 ; Retract
G1 Z0.35 F7200 ; Z hop
G0 X141.4155 Y149.8992 F7200 ; Move to start next pattern wall
G1 Z0.25 F7200 ; Z hop return
G1 E0.5 F2100 ; Un-retract
G1 X160.7363 Y169.22 E1.10311 F1800 ; Print pattern wall
G1 X141.4155 Y188.5408 E1.10311 F1800 ; Print pattern wall
G1 E-0.5 F2100 ; Retract
G1 Z0.35 F7200 ; Z hop
G0 X141.9912 Y149.8992 F7200 ; Move to start next pattern wall
G1 Z0.25 F7200 ; Z hop return
G1 E0.5 F2100 ; Un-retract
G1 X161.312 Y169.22 E1.10311 F1800 ; Print pattern wall
G1 X141.9912 Y188.5408 E1.10311 F1800 ; Print pattern wall
G1 E-0.5 F2100 ; Retract
G1 Z0.35 F7200 ; Z hop
G0 X144.4412 Y149.8992 F7200 ; Move to next pattern
G1 Z0.25 F7200 ; Z hop return
G1 E0.5 F2100 ; Un-retract
SET_PRESSURE_ADVANCE ADVANCE=0.01 ; Set pressure advance
M117 PA 0.01
G1 X163.762 Y169.22 E1.10311 F1800 ; Print pattern wall
G1 X144.4412 Y188.5408 E1.10311 F1800 ; Print pattern wall
G1 E-0.5 F2100 ; Retract
G1 Z0.35 F7200 ; Z hop
G0 X145.0169 Y149.8992 F7200 ; Move to start next pattern wall
G1 Z0.25 F7200 ; Z hop return
G1 E0.5 F2100 ; Un-retract
G1 X164.3377 Y169.22 E1.10311 F1800 ; Print pattern wall
G1 X145.0169 Y188.5408 E1.10311 F1800 ; Print pattern wall
G1 E-0.5 F2100 ; Retract
G1 Z0.35 F7200 ; Z hop
G0 X145.5926 Y149.8992 F7200 ; Move to start next pattern wall
G1 Z0.25 F7200 ; Z hop return
G1 E0.5 F2100 ; Un-retract
G1 X164.9134 Y169.22 E1.10311 F1800 ; Print pattern wall
G1 X145.5926 Y188.5408 E1.10311 F1800 ; Print pattern wall
G1 E-0.5 F2100 ; Retract
G1 Z0.35 F7200 ; Z hop
G0 X148.0426 Y149.8992 F7200 ; Move to next pattern
G1 Z0.25 F7200 ; Z hop return
G1 E0.5 F2100 ; Un-retract
SET_PRESSURE_ADVANCE ADVANCE=0.015 ; Set pressure advance
M117 PA 0.015
G1 X167.3634 Y169.22 E1.10311 F1800 ; Print pattern wall
G1 X148.0426 Y188.5408 E1.10311 F1800 ; Print pattern wall
G1 E-0.5 F2100 ; Retract
G1 Z0.35 F7200 ; Z hop
G0 X148.6183 Y149.8992 F7200 ; Move to start next pattern wall
G1 Z0.25 F7200 ; Z hop return
G1 E0.5 F2100 ; Un-retract
G1 X167.9391 Y169.22 E1.10311 F1800 ; Print pattern wall
G1 X148.6183 Y188.5408 E1.10311 F1800 ; Print pattern wall
G1 E-0.5 F2100 ; Retract
G1 Z0.35 F7200 ; Z hop
G0 X149.194 Y149.8992 F7200 ; Move to start next pattern wall
G1 Z0.25 F7200 ; Z hop return
G1 E0.5 F2100 ; Un-retract
G1 X168.5148 Y169.22 E1.10311 F1800 ; Print pattern wall
G1 X149.194 Y188.5408 E1.10311 F1800 ; Print pattern wall
G1 E-0.5 F2100 ; Retract
G1 Z0.35 F7200 ; Z hop
G0 X151.644 Y149.8992 F7200 ; Move to next pattern
G1 Z0.25 F7200 ; Z hop return
G1 E0.5 F2100 ; Un-retract
SET_PRESSURE_ADVANCE ADVANCE=0.02 ; Set pressure advance
M117 PA 0.02
G1 X170.9648 Y169.22 E1.10311 F1800 ; Print pattern wall
G1 X151.644 Y188.5408 E1.10311 F1800 ; Print pattern wall
G1 E-0.5 F2100 ; Retract
G1 Z0.35 F7200 ; Z hop
G0 X152.2197 Y149.8992 F7200 ; Move to start next pattern wall
G1 Z0.25 F7200 ; Z hop return
G1 E0.5 F2100 ; Un-retract
G1 X171.5405 Y169.22 E1.10311 F1800 ; Print pattern wall
G1 X152.2197 Y188.5408 E1.10311 F1800 ; Print pattern wall
G1 E-0.5 F2100 ; Retract
G1 Z0.35 F7200 ; Z hop
G0 X152.7954 Y149.8992 F7200 ; Move to start next pattern wall
G1 Z0.25 F7200 ; Z hop return
G1 E0.5 F2100 ; Un-retract
G1 X172.1162 Y169.22 E1.10311 F1800 ; Print pattern wall
G1 X152.7954 Y188.5408 E1.10311 F1800 ; Print pattern wall
G1 E-0.5 F2100 ; Retract
G1 Z0.35 F7200 ; Z hop
G0 X155.2454 Y149.8992 F7200 ; Move to next pattern
G1 Z0.25 F7200 ; Z hop return
G1 E0.5 F2100 ; Un-retract
SET_PRESSURE_ADVANCE ADVANCE=0.025 ; Set pressure advance
M117 PA 0.025
G1 X174.5662 Y169.22 E1.10311 F1800 ; Print pattern wall
G1 X155.2454 Y188.5408 E1.10311 F1800 ; Print pattern wall
G1 E-0.5 F2100 ; Retract
G1 Z0.35 F7200 ; Z hop
G0 X155.8211 Y149.8992 F7200 ; Move to start next pattern wall
G1 Z0.25 F7200 ; Z hop return
G1 E0.5 F2100 ; Un-retract
G1 X175.1419 Y169.22 E1.10311 F1800 ; Print pattern wall
G1 X155.8211 Y188.5408 E1.10311 F1800 ; Print pattern wall
G1 E-0.5 F2100 ; Retract
G1 Z0.35 F7200 ; Z hop
G0 X156.3968 Y149.8992 F7200 ; Move to start next pattern wall
G1 Z0.25 F7200 ; Z hop return
G1 E0.5 F2100 ; Un-retract
G1 X175.7176 Y169.22 E1.10311 F1800 ; Print pattern wall
G1 X156.3968 Y188.5408 E1.10311 F1800 ; Print pattern wall
G1 E-0.5 F2100 ; Retract
G1 Z0.35 F7200 ; Z hop
G0 X158.8468 Y149.8992 F7200 ; Move to next pattern
G1 Z0.25 F7200 ; Z hop return
G1 E0.5 F2100 ; Un-retract
SET_PRESSURE_ADVANCE ADVANCE=0.03 ; Set pressure advance
M117 PA 0.03
G1 X178.1676 Y169.22 E1.10311 F1800 ; Print pattern wall
G1 X158.8468 Y188.5408 E1.10311 F1800 ; Print pattern wall
G1 E-0.5 F2100 ; Retract
G1 Z0.35 F7200 ; Z hop
G0 X159.4225 Y149.8992 F7200 ; Move to start next pattern wall
G1 Z0.25 F7200 ; Z hop return
G1 E0.5 F2100 ; Un-retract
G1 X178.7433 Y169.22 E1.10311 F1800 ; Print pattern wall
G1 X159.4225 Y188.5408 E1.10311 F1800 ; Print pattern wall
G1 E-0.5 F2100 ; Retract
G1 Z0.35 F7200 ; Z hop
G0 X159.9981 Y149.8992 F7200 ; Move to start next pattern wall
G1 Z0.25 F7200 ; Z hop return
G1 E0.5 F2100 ; Un-retract
G1 X179.319 Y169.22 E1.10311 F1800 ; Print pattern wall
G1 X159.9981 Y188.5408 E1.10311 F1800 ; Print pattern wall
G1 E-0.5 F2100 ; Retract
G1 Z0.35 F7200 ; Z hop
G0 X162.4481 Y149.8992 F7200 ; Move to next pattern
G1 Z0.25 F7200 ; Z hop return
G1 E0.5 F2100 ; Un-retract
SET_PRESSURE_ADVANCE ADVANCE=0.035 ; Set pressure advance
M117 PA 0.035
G1 X181.769 Y169.22 E1.10311 F1800 ; Print pattern wall
G1 X162.4481 Y188.5408 E1.10311 F1800 ; Print pattern wall
G1 E-0.5 F2100 ; Retract
G1 Z0.35 F7200 ; Z hop
G0 X163.0238 Y149.8992 F7200 ; Move to start next pattern wall
G1 Z0.25 F7200 ; Z hop return
G1 E0.5 F2100 ; Un-retract
G1 X182.3447 Y169.22 E1.10311 F1800 ; Print pattern wall
G1 X163.0238 Y188.5408 E1.10311 F1800 ; Print pattern wall
G1 E-0.5 F2100 ; Retract
G1 Z0.35 F7200 ; Z hop
G0 X163.5995 Y149.8992 F7200 ; Move to start next pattern wall
G1 Z0.25 F7200 ; Z hop return
G1 E0.5 F2100 ; Un-retract
G1 X182.9204 Y169.22 E1.10311 F1800 ; Print pattern wall
G1 X163.5995 Y188.5408 E1.10311 F1800 ; Print pattern wall
G1 E-0.5 F2100 ; Retract
G1 Z0.35 F7200 ; Z hop
G0 X166.0495 Y149.8992 F7200 ; Move to next pattern
G1 Z0.25 F7200 ; Z hop return
G1 E0.5 F2100 ; Un-retract
SET_PRESSURE_ADVANCE ADVANCE=0.04 ; Set pressure advance
M117 PA 0.04
G1 X185.3704 Y169.22 E1.10311 F1800 ; Print pattern wall
G1 X166.0495 Y188.5408 E1.10311 F1800 ; Print pattern wall
G1 E-0.5 F2100 ; Retract
G1 Z0.35 F7200 ; Z hop
G0 X166.6252 Y149.8992 F7200 ; Move to start next pattern wall
G1 Z0.25 F7200 ; Z hop return
G1 E0.5 F2100 ; Un-retract
G1 X185.9461 Y169.22 E1.10311 F1800 ; Print pattern wall
G1 X166.6252 Y188.5408 E1.10311 F1800 ; Print pattern wall
G1 E-0.5 F2100 ; Retract
G1 Z0.35 F7200 ; Z hop
G0 X167.2009 Y149.8992 F7200 ; Move to start next pattern wall
G1 Z0.25 F7200 ; Z hop return
G1 E0.5 F2100 ; Un-retract
G1 X186.5218 Y169.22 E1.10311 F1800 ; Print pattern wall
G1 X167.2009 Y188.5408 E1.10311 F1800 ; Print pattern wall
G1 E-0.5 F2100 ; Retract
G1 Z0.35 F7200 ; Z hop
G0 X169.6509 Y149.8992 F7200 ; Move to next pattern
G1 Z0.25 F7200 ; Z hop return
G1 E0.5 F2100 ; Un-retract
SET_PRESSURE_ADVANCE ADVANCE=0.045 ; Set pressure advance
M117 PA 0.045
G1 X188.9718 Y169.22 E1.10311 F1800 ; Print pattern wall
G1 X169.6509 Y188.5408 E1.10311 F1800 ; Print pattern wall
G1 E-0.5 F2100 ; Retract
G1 Z0.35 F7200 ; Z hop
G0 X170.2266 Y149.8992 F7200 ; Move to start next pattern wall
G1 Z0.25 F7200 ; Z hop return
G1 E0.5 F2100 ; Un-retract
G1 X189.5475 Y169.22 E1.10311 F1800 ; Print pattern wall
G1 X170.2266 Y188.5408 E1.10311 F1800 ; Print pattern wall
G1 E-0.5 F2100 ; Retract
G1 Z0.35 F7200 ; Z hop
G0 X170.8023 Y149.8992 F7200 ; Move to start next pattern wall
G1 Z0.25 F7200 ; Z hop return
G1 E0.5 F2100 ; Un-retract
G1 X190.1232 Y169.22 E1.10311 F1800 ; Print pattern wall
G1 X170.8023 Y188.5408 E1.10311 F1800 ; Print pattern wall
G1 E-0.5 F2100 ; Retract
G1 Z0.35 F7200 ; Z hop
G0 X173.2523 Y149.8992 F7200 ; Move to next pattern
G1 Z0.25 F7200 ; Z hop return
G1 E0.5 F2100 ; Un-retract
SET_PRESSURE_ADVANCE ADVANCE=0.05 ; Set pressure advance
M117 PA 0.05
G1 X192.5732 Y169.22 E1.10311 F1800 ; Print pattern wall
G1 X173.2523 Y188.5408 E1.10311 F1800 ; Print pattern wall
G1 E-0.5 F2100 ; Retract
G1 Z0.35 F7200 ; Z hop
G0 X173.828 Y149.8992 F7200 ; Move to start next pattern wall
G1 Z0.25 F7200 ; Z hop return
G1 E0.5 F2100 ; Un-retract
G1 X193.1489 Y169.22 E1.10311 F1800 ; Print pattern wall
G1 X173.828 Y188.5408 E1.10311 F1800 ; Print pattern wall
G1 E-0.5 F2100 ; Retract
G1 Z0.35 F7200 ; Z hop
G0 X174.4037 Y149.8992 F7200 ; Move to start next pattern wall
G1 Z0.25 F7200 ; Z hop return
G1 E0.5 F2100 ; Un-retract
G1 X193.7246 Y169.22 E1.10311 F1800 ; Print pattern wall
G1 X174.4037 Y188.5408 E1.10311 F1800 ; Print pattern wall
G1 E-0.5 F2100 ; Retract
G1 Z0.35 F7200 ; Z hop
G0 X176.8537 Y149.8992 F7200 ; Move to next pattern
G1 Z0.25 F7200 ; Z hop return
G1 E0.5 F2100 ; Un-retract
SET_PRESSURE_ADVANCE ADVANCE=0.055 ; Set pressure advance
M117 PA 0.055
G1 X196.1746 Y169.22 E1.10311 F1800 ; Print pattern wall
G1 X176.8537 Y188.5408 E1.10311 F1800 ; Print pattern wall
G1 E-0.5 F2100 ; Retract
G1 Z0.35 F7200 ; Z hop
G0 X177.4294 Y149.8992 F7200 ; Move to start next pattern wall
G1 Z0.25 F7200 ; Z hop return
G1 E0.5 F2100 ; Un-retract
G1 X196.7502 Y169.22 E1.10311 F1800 ; Print pattern wall
G1 X177.4294 Y188.5408 E1.10311 F1800 ; Print pattern wall
G1 E-0.5 F2100 ; Retract
G1 Z0.35 F7200 ; Z hop
G0 X178.0051 Y149.8992 F7200 ; Move to start next pattern wall
G1 Z0.25 F7200 ; Z hop return
G1 E0.5 F2100 ; Un-retract
G1 X197.3259 Y169.22 E1.10311 F1800 ; Print pattern wall
G1 X178.0051 Y188.5408 E1.10311 F1800 ; Print pattern wall
G1 E-0.5 F2100 ; Retract
G1 Z0.35 F7200 ; Z hop
G0 X180.4551 Y149.8992 F7200 ; Move to next pattern
G1 Z0.25 F7200 ; Z hop return
G1 E0.5 F2100 ; Un-retract
SET_PRESSURE_ADVANCE ADVANCE=0.06 ; Set pressure advance
M117 PA 0.06
G1 X199.7759 Y169.22 E1.10311 F1800 ; Print pattern wall
G1 X180.4551 Y188.5408 E1.10311 F1800 ; Print pattern wall
G1 E-0.5 F2100 ; Retract
G1 Z0.35 F7200 ; Z hop
G0 X181.0308 Y149.8992 F7200 ; Move to start next pattern wall
G1 Z0.25 F7200 ; Z hop return
G1 E0.5 F2100 ; Un-retract
G1 X200.3516 Y169.22 E1.10311 F1800 ; Print pattern wall
G1 X181.0308 Y188.5408 E1.10311 F1800 ; Print pattern wall
G1 E-0.5 F2100 ; Retract
G1 Z0.35 F7200 ; Z hop
G0 X181.6065 Y149.8992 F7200 ; Move to start next pattern wall
G1 Z0.25 F7200 ; Z hop return
G1 E0.5 F2100 ; Un-retract
G1 X200.9273 Y169.22 E1.10311 F1800 ; Print pattern wall
G1 X181.6065 Y188.5408 E1.10311 F1800 ; Print pattern wall
G1 E-0.5 F2100 ; Retract
G1 Z0.35 F7200 ; Z hop
G0 X184.0565 Y149.8992 F7200 ; Move to next pattern
G1 Z0.25 F7200 ; Z hop return
G1 E0.5 F2100 ; Un-retract
SET_PRESSURE_ADVANCE ADVANCE=0.065 ; Set pressure advance
M117 PA 0.065
G1 X203.3773 Y169.22 E1.10311 F1800 ; Print pattern wall
G1 X184.0565 Y188.5408 E1.10311 F1800 ; Print pattern wall
G1 E-0.5 F2100 ; Retract
G1 Z0.35 F7200 ; Z hop
G0 X184.6322 Y149.8992 F7200 ; Move to start next pattern wall
G1 Z0.25 F7200 ; Z hop return
G1 E0.5 F2100 ; Un-retract
G1 X203.953 Y169.22 E1.10311 F1800 ; Print pattern wall
G1 X184.6322 Y188.5408 E1.10311 F1800 ; Print pattern wall
G1 E-0.5 F2100 ; Retract
G1 Z0.35 F7200 ; Z hop
G0 X185.2079 Y149.8992 F7200 ; Move to start next pattern wall
G1 Z0.25 F7200 ; Z hop return
G1 E0.5 F2100 ; Un-retract
G1 X204.5287 Y169.22 E1.10311 F1800 ; Print pattern wall
G1 X185.2079 Y188.5408 E1.10311 F1800 ; Print pattern wall
G1 E-0.5 F2100 ; Retract
G1 Z0.35 F7200 ; Z hop
G0 X187.6579 Y149.8992 F7200 ; Move to next pattern
G1 Z0.25 F7200 ; Z hop return
G1 E0.5 F2100 ; Un-retract
SET_PRESSURE_ADVANCE ADVANCE=0.07 ; Set pressure advance
M117 PA 0.07
G1 X206.9787 Y169.22 E1.10311 F1800 ; Print pattern wall
G1 X187.6579 Y188.5408 E1.10311 F1800 ; Print pattern wall
G1 E-0.5 F2100 ; Retract
G1 Z0.35 F7200 ; Z hop
G0 X188.2336 Y149.8992 F7200 ; Move to start next pattern wall
G1 Z0.25 F7200 ; Z hop return
G1 E0.5 F2100 ; Un-retract
G1 X207.5544 Y169.22 E1.10311 F1800 ; Print pattern wall
G1 X188.2336 Y188.5408 E1.10311 F1800 ; Print pattern wall
G1 E-0.5 F2100 ; Retract
G1 Z0.35 F7200 ; Z hop
G0 X188.8093 Y149.8992 F7200 ; Move to start next pattern wall
G1 Z0.25 F7200 ; Z hop return
G1 E0.5 F2100 ; Un-retract
G1 X208.1301 Y169.22 E1.10311 F1800 ; Print pattern wall
G1 X188.8093 Y188.5408 E1.10311 F1800 ; Print pattern wall
G1 E-0.5 F2100 ; Retract
G1 Z0.35 F7200 ; Z hop
G0 X191.2593 Y149.8992 F7200 ; Move to next pattern
G1 Z0.25 F7200 ; Z hop return
G1 E0.5 F2100 ; Un-retract
SET_PRESSURE_ADVANCE ADVANCE=0.075 ; Set pressure advance
M117 PA 0.075
G1 X210.5801 Y169.22 E1.10311 F1800 ; Print pattern wall
G1 X191.2593 Y188.5408 E1.10311 F1800 ; Print pattern wall
G1 E-0.5 F2100 ; Retract
G1 Z0.35 F7200 ; Z hop
G0 X191.835 Y149.8992 F7200 ; Move to start next pattern wall
G1 Z0.25 F7200 ; Z hop return
G1 E0.5 F2100 ; Un-retract
G1 X211.1558 Y169.22 E1.10311 F1800 ; Print pattern wall
G1 X191.835 Y188.5408 E1.10311 F1800 ; Print pattern wall
G1 E-0.5 F2100 ; Retract
G1 Z0.35 F7200 ; Z hop
G0 X192.4107 Y149.8992 F7200 ; Move to start next pattern wall
G1 Z0.25 F7200 ; Z hop return
G1 E0.5 F2100 ; Un-retract
G1 X211.7315 Y169.22 E1.10311 F1800 ; Print pattern wall
G1 X192.4107 Y188.5408 E1.10311 F1800 ; Print pattern wall
G1 E-0.5 F2100 ; Retract
G1 Z0.35 F7200 ; Z hop
G0 X194.8607 Y149.8992 F7200 ; Move to next pattern
G1 Z0.25 F7200 ; Z hop return
G1 E0.5 F2100 ; Un-retract
SET_PRESSURE_ADVANCE ADVANCE=0.08 ; Set pressure advance
M117 PA 0.08
G1 X214.1815 Y169.22 E1.10311 F1800 ; Print pattern wall
G1 X194.8607 Y188.5408 E1.10311 F1800 ; Print pattern wall
G1 E-0.5 F2100 ; Retract
G1 Z0.35 F7200 ; Z hop
G0 X195.4364 Y149.8992 F7200 ; Move to start next pattern wall
G1 Z0.25 F7200 ; Z hop return
G1 E0.5 F2100 ; Un-retract
G1 X214.7572 Y169.22 E1.10311 F1800 ; Print pattern wall
G1 X195.4364 Y188.5408 E1.10311 F1800 ; Print pattern wall
G1 E-0.5 F2100 ; Retract
G1 Z0.35 F7200 ; Z hop
G0 X196.0121 Y149.8992 F7200 ; Move to start next pattern wall
G1 Z0.25 F7200 ; Z hop return
G1 E0.5 F2100 ; Un-retract
G1 X215.3329 Y169.22 E1.10311 F1800 ; Print pattern wall
G1 X196.0121 Y188.5408 E1.10311 F1800 ; Print pattern wall
G1 E-0.5 F2100 ; Retract
G1 Z0.35 F7200 ; Z hop
G0 X137.2384 Y149.8992 F7200 ; Move back to start position
G1 Z0.25 F7200 ; Z hop return
G1 E0.5 F2100 ; Un-retract
M106 S127 ; Set fan speed
G0 Z0.45 F7200 ; Move to layer height
SET_PRESSURE_ADVANCE ADVANCE=0 ; Set pressure advance to start value for numbering
M117 PA 0
G1 E-0.5 F2100 ; Retract
G1 Z0.55 F7200 ; Z hop
G0 X133.9217 Y191.8832 F7200 ; Move
G1 Z0.45 F7200 ; Z hop return
G1 E0.5 F2100 ; Un-retract
G1 X135.9217 Y191.8832 E0.06634 F1800 ; Glyph: 0
G1 X137.9217 Y191.8832 E0.06634 F1800 ; Glyph: 0
G1 X137.9217 Y193.8832 E0.06634 F1800 ; Glyph: 0
G1 X135.9217 Y193.8832 E0.06634 F1800 ; Glyph: 0
G1 X133.9217 Y193.8832 E0.06634 F1800 ; Glyph: 0
G1 X133.9217 Y191.8832 E0.06634 F1800 ; Glyph: 0
G1 E-0.5 F2100 ; Retract
G1 Z0.55 F7200 ; Z hop
G0 X141.1245 Y191.8832 F7200 ; Move
G1 Z0.45 F7200 ; Z hop return
G1 E0.5 F2100 ; Un-retract
G1 X143.1245 Y191.8832 E0.06634 F1800 ; Glyph: 0
G1 X145.1245 Y191.8832 E0.06634 F1800 ; Glyph: 0
G1 X145.1245 Y193.8832 E0.06634 F1800 ; Glyph: 0
G1 X143.1245 Y193.8832 E0.06634 F1800 ; Glyph: 0
G1 X141.1245 Y193.8832 E0.06634 F1800 ; Glyph: 0
G1 X141.1245 Y191.8832 E0.06634 F1800 ; Glyph: 0
G1 E-0.5 F2100 ; Retract
G1 Z0.55 F7200 ; Z hop
G0 X145.1245 Y194.8832 F7200 ; Move
G1 Z0.45 F7200 ; Z hop return
G1 E0.5 F2100 ; Un-retract
G1 X144.3745 Y194.8832 E0.02488 F1800 ; Glyph: .
G1 E-0.5 F2100 ; Retract
G1 Z0.55 F7200 ; Z hop
G0 X141.1245 Y195.8832 F7200 ; Move
G1 Z0.45 F7200 ; Z hop return
G1 E0.5 F2100 ; Un-retract
G1 X143.1245 Y195.8832 E0.06634 F1800 ; Glyph: 0
G1 X145.1245 Y195.8832 E0.06634 F1800 ; Glyph: 0
G1 X145.1245 Y197.8832 E0.06634 F1800 ; Glyph: 0
G1 X143.1245 Y197.8832 E0.06634 F1800 ; Glyph: 0
G1 X141.1245 Y197.8832 E0.06634 F1800 ; Glyph: 0
G1 X141.1245 Y195.8832 E0.06634 F1800 ; Glyph: 0
G1 E-0.5 F2100 ; Retract
G1 Z0.55 F7200 ; Z hop
G0 X141.1245 Y198.8832 F7200 ; Move
G1 Z0.45 F7200 ; Z hop return
G1 E0.5 F2100 ; Un-retract
G1 X143.1245 Y198.8832 E0.06634 F1800 ; Glyph: 1
G1 X145.1245 Y198.8832 E0.06634 F1800 ; Glyph: 1
G1 E-0.5 F2100 ; Retract
G1 Z0.55 F7200 ; Z hop
G0 X148.3273 Y191.8832 F7200 ; Move
G1 Z0.45 F7200 ; Z hop return
G1 E0.5 F2100 ; Un-retract
G1 X150.3273 Y191.8832 E0.06634 F1800 ; Glyph: 0
G1 X152.3273 Y191.8832 E0.06634 F1800 ; Glyph: 0
G1 X152.3273 Y193.8832 E0.06634 F1800 ; Glyph: 0
G1 X150.3273 Y193.8832 E0.06634 F1800 ; Glyph: 0
G1 X148.3273 Y193.8832 E0.06634 F1800 ; Glyph: 0
G1 X148.3273 Y191.8832 E0.06634 F1800 ; Glyph: 0
G1 E-0.5 F2100 ; Retract
G1 Z0.55 F7200 ; Z hop
G0 X152.3273 Y194.8832 F7200 ; Move
G1 Z0.45 F7200 ; Z hop return
G1 E0.5 F2100 ; Un-retract
G1 X151.5773 Y194.8832 E0.02488 F1800 ; Glyph: .
G1 E-0.5 F2100 ; Retract
G1 Z0.55 F7200 ; Z hop
G0 X148.3273 Y195.8832 F7200 ; Move
G1 Z0.45 F7200 ; Z hop return
G1 E0.5 F2100 ; Un-retract
G1 X150.3273 Y195.8832 E0.06634 F1800 ; Glyph: 0
G1 X152.3273 Y195.8832 E0.06634 F1800 ; Glyph: 0
G1 X152.3273 Y197.8832 E0.06634 F1800 ; Glyph: 0
G1 X150.3273 Y197.8832 E0.06634 F1800 ; Glyph: 0
G1 X148.3273 Y197.8832 E0.06634 F1800 ; Glyph: 0
G1 X148.3273 Y195.8832 E0.06634 F1800 ; Glyph: 0
G1 E-0.5 F2100 ; Retract
G1 Z0.55 F7200 ; Z hop
G0 X148.3273 Y198.8832 F7200 ; Move
G1 Z0.45 F7200 ; Z hop return
G1 E0.5 F2100 ; Un-retract
G1 X148.3273 Y200.8832 E0.06634 F1800 ; Glyph: 2
G1 X150.3273 Y200.8832 E0.06634 F1800 ; Glyph: 2
G1 X150.3273 Y198.8832 E0.06634 F1800 ; Glyph: 2
G1 X152.3273 Y198.8832 E0.06634 F1800 ; Glyph: 2
G1 X152.3273 Y200.8832 E0.06634 F1800 ; Glyph: 2
G1 E-0.5 F2100 ; Retract
G1 Z0.55 F7200 ; Z hop
G0 X155.5301 Y191.8832 F7200 ; Move
G1 Z0.45 F7200 ; Z hop return
G1 E0.5 F2100 ; Un-retract
G1 X157.5301 Y191.8832 E0.06634 F1800 ; Glyph: 0
G1 X159.5301 Y191.8832 E0.06634 F1800 ; Glyph: 0
G1 X159.5301 Y193.8832 E0.06634 F1800 ; Glyph: 0
G1 X157.5301 Y193.8832 E0.06634 F1800 ; Glyph: 0
G1 X155.5301 Y193.8832 E0.06634 F1800 ; Glyph: 0
G1 X155.5301 Y191.8832 E0.06634 F1800 ; Glyph: 0
G1 E-0.5 F2100 ; Retract
G1 Z0.55 F7200 ; Z hop
G0 X159.5301 Y194.8832 F7200 ; Move
G1 Z0.45 F7200 ; Z hop return
G1 E0.5 F2100 ; Un-retract
G1 X158.7801 Y194.8832 E0.02488 F1800 ; Glyph: .
G1 E-0.5 F2100 ; Retract
G1 Z0.55 F7200 ; Z hop
G0 X155.5301 Y195.8832 F7200 ; Move
G1 Z0.45 F7200 ; Z hop return
G1 E0.5 F2100 ; Un-retract
G1 X157.5301 Y195.8832 E0.06634 F1800 ; Glyph: 0
G1 X159.5301 Y195.8832 E0.06634 F1800 ; Glyph: 0
G1 X159.5301 Y197.8832 E0.06634 F1800 ; Glyph: 0
G1 X157.5301 Y197.8832 E0.06634 F1800 ; Glyph: 0
G1 X155.5301 Y197.8832 E0.06634 F1800 ; Glyph: 0
G1 X155.5301 Y195.8832 E0.06634 F1800 ; Glyph: 0
G1 E-0.5 F2100 ; Retract
G1 Z0.55 F7200 ; Z hop
G0 X155.5301 Y198.8832 F7200 ; Move
G1 Z0.45 F7200 ; Z hop return
G1 E0.5 F2100 ; Un-retract
G1 X155.5301 Y200.8832 E0.06634 F1800 ; Glyph: 3
G1 X157.5301 Y200.8832 E0.06634 F1800 ; Glyph: 3
G1 X157.5301 Y198.8832 E0.06634 F1800 ; Glyph: 3
G0 X157.5301 Y200.8832 F7200 ; Move
G1 X159.5301 Y200.8832 E0.06634 F1800 ; Glyph: 3
G1 X159.5301 Y198.8832 E0.06634 F1800 ; Glyph: 3
G1 E-0.5 F2100 ; Retract
G1 Z0.55 F7200 ; Z hop
G0 X162.7329 Y191.8832 F7200 ; Move
G1 Z0.45 F7200 ; Z hop return
G1 E0.5 F2100 ; Un-retract
G1 X164.7329 Y191.8832 E0.06634 F1800 ; Glyph: 0
G1 X166.7329 Y191.8832 E0.06634 F1800 ; Glyph: 0
G1 X166.7329 Y193.8832 E0.06634 F1800 ; Glyph: 0
G1 X164.7329 Y193.8832 E0.06634 F1800 ; Glyph: 0
G1 X162.7329 Y193.8832 E0.06634 F1800 ; Glyph: 0
G1 X162.7329 Y191.8832 E0.06634 F1800 ; Glyph: 0
G1 E-0.5 F2100 ; Retract
G1 Z0.55 F7200 ; Z hop
G0 X166.7329 Y194.8832 F7200 ; Move
G1 Z0.45 F7200 ; Z hop return
G1 E0.5 F2100 ; Un-retract
G1 X165.9829 Y194.8832 E0.02488 F1800 ; Glyph: .
G1 E-0.5 F2100 ; Retract
G1 Z0.55 F7200 ; Z hop
G0 X162.7329 Y195.8832 F7200 ; Move
G1 Z0.45 F7200 ; Z hop return
G1 E0.5 F2100 ; Un-retract
G1 X164.7329 Y195.8832 E0.06634 F1800 ; Glyph: 0
G1 X166.7329 Y195.8832 E0.06634 F1800 ; Glyph: 0
G1 X166.7329 Y197.8832 E0.06634 F1800 ; Glyph: 0
G1 X164.7329 Y197.8832 E0.06634 F1800 ; Glyph: 0
G1 X162.7329 Y197.8832 E0.06634 F1800 ; Glyph: 0
G1 X162.7329 Y195.8832 E0.06634 F1800 ; Glyph: 0
G1 E-0.5 F2100 ; Retract
G1 Z0.55 F7200 ; Z hop
G0 X162.7329 Y200.8832 F7200 ; Move
G1 Z0.45 F7200 ; Z hop return
G1 E0.5 F2100 ; Un-retract
G1 X164.7329 Y200.8832 E0.06634 F1800 ; Glyph: 4
G1 X166.7329 Y200.8832 E0.06634 F1800 ; Glyph: 4
G0 X164.7329 Y200.8832 F7200 ; Move
G1 X164.7329 Y198.8832 E0.06634 F1800 ; Glyph: 4
G1 X162.7329 Y198.8832 E0.06634 F1800 ; Glyph: 4
G1 E-0.5 F2100 ; Retract
G1 Z0.55 F7200 ; Z hop
G0 X169.9357 Y191.8832 F7200 ; Move
G1 Z0.45 F7200 ; Z hop return
G1 E0.5 F2100 ; Un-retract
G1 X171.9357 Y191.8832 E0.06634 F1800 ; Glyph: 0
G1 X173.9357 Y191.8832 E0.06634 F1800 ; Glyph: 0
G1 X173.9357 Y193.8832 E0.06634 F1800 ; Glyph: 0
G1 X171.9357 Y193.8832 E0.06634 F1800 ; Glyph: 0
G1 X169.9357 Y193.8832 E0.06634 F1800 ; Glyph: 0
G1 X169.9357 Y191.8832 E0.06634 F1800 ; Glyph: 0
G1 E-0.5 F2100 ; Retract
G1 Z0.55 F7200 ; Z hop
G0 X173.9357 Y194.8832 F7200 ; Move
G1 Z0.45 F7200 ; Z hop return
G1 E0.5 F2100 ; Un-retract
G1 X173.1857 Y194.8832 E0.02488 F1800 ; Glyph: .
G1 E-0.5 F2100 ; Retract
G1 Z0.55 F7200 ; Z hop
G0 X169.9357 Y195.8832 F7200 ; Move
G1 Z0.45 F7200 ; Z hop return
G1 E0.5 F2100 ; Un-retract
G1 X171.9357 Y195.8832 E0.06634 F1800 ; Glyph: 0
G1 X173.9357 Y195.8832 E0.06634 F1800 ; Glyph: 0
G1 X173.9357 Y197.8832 E0.06634 F1800 ; Glyph: 0
G1 X171.9357 Y197.8832 E0.06634 F1800 ; Glyph: 0
G1 X169.9357 Y197.8832 E0.06634 F1800 ; Glyph: 0
G1 X169.9357 Y195.8832 E0.06634 F1800 ; Glyph: 0
G1 E-0.5 F2100 ; Retract
G1 Z0.55 F7200 ; Z hop
G0 X169.9357 Y200.8832 F7200 ; Move
G1 Z0.45 F7200 ; Z hop return
G1 E0.5 F2100 ; Un-retract
G1 X169.9357 Y198.8832 E0.06634 F1800 ; Glyph: 5
G1 X171.9357 Y198.8832 E0.06634 F1800 ; Glyph: 5
G1 X171.9357 Y200.8832 E0.06634 F1800 ; Glyph: 5
G1 X173.9357 Y200.8832 E0.06634 F1800 ; Glyph: 5
G1 X173.9357 Y198.8832 E0.06634 F1800 ; Glyph: 5
G1 E-0.5 F2100 ; Retract
G1 Z0.55 F7200 ; Z hop
G0 X177.1384 Y191.8832 F7200 ; Move
G1 Z0.45 F7200 ; Z hop return
G1 E0.5 F2100 ; Un-retract
G1 X179.1384 Y191.8832 E0.06634 F1800 ; Glyph: 0
G1 X181.1384 Y191.8832 E0.06634 F1800 ; Glyph: 0
G1 X181.1384 Y193.8832 E0.06634 F1800 ; Glyph: 0
G1 X179.1384 Y193.8832 E0.06634 F1800 ; Glyph: 0
G1 X177.1384 Y193.8832 E0.06634 F1800 ; Glyph: 0
G1 X177.1384 Y191.8832 E0.06634 F1800 ; Glyph: 0
G1 E-0.5 F2100 ; Retract
G1 Z0.55 F7200 ; Z hop
G0 X181.1384 Y194.8832 F7200 ; Move
G1 Z0.45 F7200 ; Z hop return
G1 E0.5 F2100 ; Un-retract
G1 X180.3884 Y194.8832 E0.02488 F1800 ; Glyph: .
G1 E-0.5 F2100 ; Retract
G1 Z0.55 F7200 ; Z hop
G0 X177.1384 Y195.8832 F7200 ; Move
G1 Z0.45 F7200 ; Z hop return
G1 E0.5 F2100 ; Un-retract
G1 X179.1384 Y195.8832 E0.06634 F1800 ; Glyph: 0
G1 X181.1384 Y195.8832 E0.06634 F1800 ; Glyph: 0
G1 X181.1384 Y197.8832 E0.06634 F1800 ; Glyph: 0
G1 X179.1384 Y197.8832 E0.06634 F1800 ; Glyph: 0
G1 X177.1384 Y197.8832 E0.06634 F1800 ; Glyph: 0
G1 X177.1384 Y195.8832 E0.06634 F1800 ; Glyph: 0
G1 E-0.5 F2100 ; Retract
G1 Z0.55 F7200 ; Z hop
G0 X177.1384 Y200.8832 F7200 ; Move
G1 Z0.45 F7200 ; Z hop return
G1 E0.5 F2100 ; Un-retract
G1 X177.1384 Y198.8832 E0.06634 F1800 ; Glyph: 6
G1 X179.1384 Y198.8832 E0.06634 F1800 ; Glyph: 6
G1 X181.1384 Y198.8832 E0.06634 F1800 ; Glyph: 6
G1 X181.1384 Y200.8832 E0.06634 F1800 ; Glyph: 6
G1 X179.1384 Y200.8832 E0.06634 F1800 ; Glyph: 6
G1 X179.1384 Y198.8832 E0.06634 F1800 ; Glyph: 6
G1 E-0.5 F2100 ; Retract
G1 Z0.55 F7200 ; Z hop
G0 X184.3412 Y191.8832 F7200 ; Move
G1 Z0.45 F7200 ; Z hop return
G1 E0.5 F2100 ; Un-retract
G1 X186.3412 Y191.8832 E0.06634 F1800 ; Glyph: 0
G1 X188.3412 Y191.8832 E0.06634 F1800 ; Glyph: 0
G1 X188.3412 Y193.8832 E0.06634 F1800 ; Glyph: 0
G1 X186.3412 Y193.8832 E0.06634 F1800 ; Glyph: 0
G1 X184.3412 Y193.8832 E0.06634 F1800 ; Glyph: 0
G1 X184.3412 Y191.8832 E0.06634 F1800 ; Glyph: 0
G1 E-0.5 F2100 ; Retract
G1 Z0.55 F7200 ; Z hop
G0 X188.3412 Y194.8832 F7200 ; Move
G1 Z0.45 F7200 ; Z hop return
G1 E0.5 F2100 ; Un-retract
G1 X187.5912 Y194.8832 E0.02488 F1800 ; Glyph: .
G1 E-0.5 F2100 ; Retract
G1 Z0.55 F7200 ; Z hop
G0 X184.3412 Y195.8832 F7200 ; Move
G1 Z0.45 F7200 ; Z hop return
G1 E0.5 F2100 ; Un-retract
G1 X186.3412 Y195.8832 E0.06634 F1800 ; Glyph: 0
G1 X188.3412 Y195.8832 E0.06634 F1800 ; Glyph: 0
G1 X188.3412 Y197.8832 E0.06634 F1800 ; Glyph: 0
G1 X186.3412 Y197.8832 E0.06634 F1800 ; Glyph: 0
G1 X184.3412 Y197.8832 E0.06634 F1800 ; Glyph: 0
G1 X184.3412 Y195.8832 E0.06634 F1800 ; Glyph: 0
G1 E-0.5 F2100 ; Retract
G1 Z0.55 F7200 ; Z hop
G0 X184.3412 Y198.8832 F7200 ; Move
G1 Z0.45 F7200 ; Z hop return
G1 E0.5 F2100 ; Un-retract
G1 X184.3412 Y200.8832 E0.06634 F1800 ; Glyph: 7
G1 X186.3412 Y200.8832 E0.06634 F1800 ; Glyph: 7
G1 X188.3412 Y200.8832 E0.06634 F1800 ; Glyph: 7
G1 E-0.5 F2100 ; Retract
G1 Z0.55 F7200 ; Z hop
G0 X191.544 Y191.8832 F7200 ; Move
G1 Z0.45 F7200 ; Z hop return
G1 E0.5 F2100 ; Un-retract
G1 X193.544 Y191.8832 E0.06634 F1800 ; Glyph: 0
G1 X195.544 Y191.8832 E0.06634 F1800 ; Glyph: 0
G1 X195.544 Y193.8832 E0.06634 F1800 ; Glyph: 0
G1 X193.544 Y193.8832 E0.06634 F1800 ; Glyph: 0
G1 X191.544 Y193.8832 E0.06634 F1800 ; Glyph: 0
G1 X191.544 Y191.8832 E0.06634 F1800 ; Glyph: 0
G1 E-0.5 F2100 ; Retract
G1 Z0.55 F7200 ; Z hop
G0 X195.544 Y194.8832 F7200 ; Move
G1 Z0.45 F7200 ; Z hop return
G1 E0.5 F2100 ; Un-retract
G1 X194.794 Y194.8832 E0.02488 F1800 ; Glyph: .
G1 E-0.5 F2100 ; Retract
G1 Z0.55 F7200 ; Z hop
G0 X191.544 Y195.8832 F7200 ; Move
G1 Z0.45 F7200 ; Z hop return
G1 E0.5 F2100 ; Un-retract
G1 X193.544 Y195.8832 E0.06634 F1800 ; Glyph: 0
G1 X195.544 Y195.8832 E0.06634 F1800 ; Glyph: 0
G1 X195.544 Y197.8832 E0.06634 F1800 ; Glyph: 0
G1 X193.544 Y197.8832 E0.06634 F1800 ; Glyph: 0
G1 X191.544 Y197.8832 E0.06634 F1800 ; Glyph: 0
G1 X191.544 Y195.8832 E0.06634 F1800 ; Glyph: 0
G1 E-0.5 F2100 ; Retract
G1 Z0.55 F7200 ; Z hop
G0 X191.544 Y198.8832 F7200 ; Move
G1 Z0.45 F7200 ; Z hop return
G1 E0.5 F2100 ; Un-retract
G1 X193.544 Y198.8832 E0.06634 F1800 ; Glyph: 8
G1 X195.544 Y198.8832 E0.06634 F1800 ; Glyph: 8
G1 X195.544 Y200.8832 E0.06634 F1800 ; Glyph: 8
G1 X193.544 Y200.8832 E0.06634 F1800 ; Glyph: 8
G1 X191.544 Y200.8832 E0.06634 F1800 ; Glyph: 8
G1 X191.544 Y198.8832 E0.06634 F1800 ; Glyph: 8
G0 X193.544 Y198.8832 F7200 ; Move
G1 X193.544 Y200.8832 E0.06634 F1800 ; Glyph: 8
G1 E-0.5 F2100 ; Retract
G1 Z0.55 F7200 ; Z hop
G0 X135.346 Y148.0068 F7200 ; Move to pattern start

G1 Z0.45 F7200 ; Z hop return
G1 E0.5 F2100 ; Un-retract
SET_PRESSURE_ADVANCE ADVANCE=0 ; Set pressure advance
M117 PA 0
G1 X156.5592 Y169.22 E0.99515 F9000 ; Print pattern wall
G1 X135.346 Y190.4332 E0.99515 F9000 ; Print pattern wall
G1 E-0.5 F2100 ; Retract
G1 Z0.55 F7200 ; Z hop
G0 X135.9217 Y148.0068 F7200 ; Move to start next pattern wall
G1 Z0.45 F7200 ; Z hop return
G1 E0.5 F2100 ; Un-retract
G1 X157.1349 Y169.22 E0.99515 F9000 ; Print pattern wall
G1 X135.9217 Y190.4332 E0.99515 F9000 ; Print pattern wall
G1 E-0.5 F2100 ; Retract
G1 Z0.55 F7200 ; Z hop
G0 X136.4974 Y148.0068 F7200 ; Move to start next pattern wall
G1 Z0.45 F7200 ; Z hop return
G1 E0.5 F2100 ; Un-retract
G1 X157.7106 Y169.22 E0.99515 F9000 ; Print pattern wall
G1 X136.4974 Y190.4332 E0.99515 F9000 ; Print pattern wall
G1 E-0.5 F2100 ; Retract
G1 Z0.55 F7200 ; Z hop
G0 X138.9474 Y148.0068 F7200 ; Move to next pattern
G1 Z0.45 F7200 ; Z hop return
G1 E0.5 F2100 ; Un-retract
SET_PRESSURE_ADVANCE ADVANCE=0.005 ; Set pressure advance
M117 PA 0.005
G1 X160.1606 Y169.22 E0.99515 F9000 ; Print pattern wall
G1 X138.9474 Y190.4332 E0.99515 F9000 ; Print pattern wall
G1 E-0.5 F2100 ; Retract
G1 Z0.55 F7200 ; Z hop
G0 X139.5231 Y148.0068 F7200 ; Move to start next pattern wall
G1 Z0.45 F7200 ; Z hop return
G1 E0.5 F2100 ; Un-retract
G1 X160.7363 Y169.22 E0.99515 F9000 ; Print pattern wall
G1 X139.5231 Y190.4332 E0.99515 F9000 ; Print pattern wall
G1 E-0.5 F2100 ; Retract
G1 Z0.55 F7200 ; Z hop
G0 X140.0988 Y148.0068 F7200 ; Move to start next pattern wall
G1 Z0.45 F7200 ; Z hop return
G1 E0.5 F2100 ; Un-retract
G1 X161.312 Y169.22 E0.99515 F9000 ; Print pattern wall
G1 X140.0988 Y190.4332 E0.99515 F9000 ; Print pattern wall
G1 E-0.5 F2100 ; Retract
G1 Z0.55 F7200 ; Z hop
G0 X142.5488 Y148.0068 F7200 ; Move to next pattern
G1 Z0.45 F7200 ; Z hop return
G1 E0.5 F2100 ; Un-retract
SET_PRESSURE_ADVANCE ADVANCE=0.01 ; Set pressure advance
M117 PA 0.01
G1 X163.762 Y169.22 E0.99515 F9000 ; Print pattern wall
G1 X142.5488 Y190.4332 E0.99515 F9000 ; Print pattern wall
G1 E-0.5 F2100 ; Retract
G1 Z0.55 F7200 ; Z hop
G0 X143.1245 Y148.0068 F7200 ; Move to start next pattern wall
G1 Z0.45 F7200 ; Z hop return
G1 E0.5 F2100 ; Un-retract
G1 X164.3377 Y169.22 E0.99515 F9000 ; Print pattern wall
G1 X143.1245 Y190.4332 E0.99515 F9000 ; Print pattern wall
G1 E-0.5 F2100 ; Retract
G1 Z0.55 F7200 ; Z hop
G0 X143.7002 Y148.0068 F7200 ; Move to start next pattern wall
G1 Z0.45 F7200 ; Z hop return
G1 E0.5 F2100 ; Un-retract
G1 X164.9134 Y169.22 E0.99515 F9000 ; Print pattern wall
G1 X143.7002 Y190.4332 E0.99515 F9000 ; Print pattern wall
G1 E-0.5 F2100 ; Retract
G1 Z0.55 F7200 ; Z hop
G0 X146.1502 Y148.0068 F7200 ; Move to next pattern
G1 Z0.45 F7200 ; Z hop return
G1 E0.5 F2100 ; Un-retract
SET_PRESSURE_ADVANCE ADVANCE=0.015 ; Set pressure advance
M117 PA 0.015
G1 X167.3634 Y169.22 E0.99515 F9000 ; Print pattern wall
G1 X146.1502 Y190.4332 E0.99515 F9000 ; Print pattern wall
G1 E-0.5 F2100 ; Retract
G1 Z0.55 F7200 ; Z hop
G0 X146.7259 Y148.0068 F7200 ; Move to start next pattern wall
G1 Z0.45 F7200 ; Z hop return
G1 E0.5 F2100 ; Un-retract
G1 X167.9391 Y169.22 E0.99515 F9000 ; Print pattern wall
G1 X146.7259 Y190.4332 E0.99515 F9000 ; Print pattern wall
G1 E-0.5 F2100 ; Retract
G1 Z0.55 F7200 ; Z hop
G0 X147.3016 Y148.0068 F7200 ; Move to start next pattern wall
G1 Z0.45 F7200 ; Z hop return
G1 E0.5 F2100 ; Un-retract
G1 X168.5148 Y169.22 E0.99515 F9000 ; Print pattern wall
G1 X147.3016 Y190.4332 E0.99515 F9000 ; Print pattern wall
G1 E-0.5 F2100 ; Retract
G1 Z0.55 F7200 ; Z hop
G0 X149.7516 Y148.0068 F7200 ; Move to next pattern
G1 Z0.45 F7200 ; Z hop return
G1 E0.5 F2100 ; Un-retract
SET_PRESSURE_ADVANCE ADVANCE=0.02 ; Set pressure advance
M117 PA 0.02
G1 X170.9648 Y169.22 E0.99515 F9000 ; Print pattern wall
G1 X149.7516 Y190.4332 E0.99515 F9000 ; Print pattern wall
G1 E-0.5 F2100 ; Retract
G1 Z0.55 F7200 ; Z hop
G0 X150.3273 Y148.0068 F7200 ; Move to start next pattern wall
G1 Z0.45 F7200 ; Z hop return
G1 E0.5 F2100 ; Un-retract
G1 X171.5405 Y169.22 E0.99515 F9000 ; Print pattern wall
G1 X150.3273 Y190.4332 E0.99515 F9000 ; Print pattern wall
G1 E-0.5 F2100 ; Retract
G1 Z0.55 F7200 ; Z hop
G0 X150.903 Y148.0068 F7200 ; Move to start next pattern wall
G1 Z0.45 F7200 ; Z hop return
G1 E0.5 F2100 ; Un-retract
G1 X172.1162 Y169.22 E0.99515 F9000 ; Print pattern wall
G1 X150.903 Y190.4332 E0.99515 F9000 ; Print pattern wall
G1 E-0.5 F2100 ; Retract
G1 Z0.55 F7200 ; Z hop
G0 X153.353 Y148.0068 F7200 ; Move to next pattern
G1 Z0.45 F7200 ; Z hop return
G1 E0.5 F2100 ; Un-retract
SET_PRESSURE_ADVANCE ADVANCE=0.025 ; Set pressure advance
M117 PA 0.025
G1 X174.5662 Y169.22 E0.99515 F9000 ; Print pattern wall
G1 X153.353 Y190.4332 E0.99515 F9000 ; Print pattern wall
G1 E-0.5 F2100 ; Retract
G1 Z0.55 F7200 ; Z hop
G0 X153.9287 Y148.0068 F7200 ; Move to start next pattern wall
G1 Z0.45 F7200 ; Z hop return
G1 E0.5 F2100 ; Un-retract
G1 X175.1419 Y169.22 E0.99515 F9000 ; Print pattern wall
G1 X153.9287 Y190.4332 E0.99515 F9000 ; Print pattern wall
G1 E-0.5 F2100 ; Retract
G1 Z0.55 F7200 ; Z hop
G0 X154.5044 Y148.0068 F7200 ; Move to start next pattern wall
G1 Z0.45 F7200 ; Z hop return
G1 E0.5 F2100 ; Un-retract
G1 X175.7176 Y169.22 E0.99515 F9000 ; Print pattern wall
G1 X154.5044 Y190.4332 E0.99515 F9000 ; Print pattern wall
G1 E-0.5 F2100 ; Retract
G1 Z0.55 F7200 ; Z hop
G0 X156.9544 Y148.0068 F7200 ; Move to next pattern
G1 Z0.45 F7200 ; Z hop return
G1 E0.5 F2100 ; Un-retract
SET_PRESSURE_ADVANCE ADVANCE=0.03 ; Set pressure advance
M117 PA 0.03
G1 X178.1676 Y169.22 E0.99515 F9000 ; Print pattern wall
G1 X156.9544 Y190.4332 E0.99515 F9000 ; Print pattern wall
G1 E-0.5 F2100 ; Retract
G1 Z0.55 F7200 ; Z hop
G0 X157.5301 Y148.0068 F7200 ; Move to start next pattern wall
G1 Z0.45 F7200 ; Z hop return
G1 E0.5 F2100 ; Un-retract
G1 X178.7433 Y169.22 E0.99515 F9000 ; Print pattern wall
G1 X157.5301 Y190.4332 E0.99515 F9000 ; Print pattern wall
G1 E-0.5 F2100 ; Retract
G1 Z0.55 F7200 ; Z hop
G0 X158.1058 Y148.0068 F7200 ; Move to start next pattern wall
G1 Z0.45 F7200 ; Z hop return
G1 E0.5 F2100 ; Un-retract
G1 X179.319 Y169.22 E0.99515 F9000 ; Print pattern wall
G1 X158.1058 Y190.4332 E0.99515 F9000 ; Print pattern wall
G1 E-0.5 F2100 ; Retract
G1 Z0.55 F7200 ; Z hop
G0 X160.5558 Y148.0068 F7200 ; Move to next pattern
G1 Z0.45 F7200 ; Z hop return
G1 E0.5 F2100 ; Un-retract
SET_PRESSURE_ADVANCE ADVANCE=0.035 ; Set pressure advance
M117 PA 0.035
G1 X181.769 Y169.22 E0.99515 F9000 ; Print pattern wall
G1 X160.5558 Y190.4332 E0.99515 F9000 ; Print pattern wall
G1 E-0.5 F2100 ; Retract
G1 Z0.55 F7200 ; Z hop
G0 X161.1315 Y148.0068 F7200 ; Move to start next pattern wall
G1 Z0.45 F7200 ; Z hop return
G1 E0.5 F2100 ; Un-retract
G1 X182.3447 Y169.22 E0.99515 F9000 ; Print pattern wall
G1 X161.1315 Y190.4332 E0.99515 F9000 ; Print pattern wall
G1 E-0.5 F2100 ; Retract
G1 Z0.55 F7200 ; Z hop
G0 X161.7072 Y148.0068 F7200 ; Move to start next pattern wall
G1 Z0.45 F7200 ; Z hop return
G1 E0.5 F2100 ; Un-retract
G1 X182.9204 Y169.22 E0.99515 F9000 ; Print pattern wall
G1 X161.7072 Y190.4332 E0.99515 F9000 ; Print pattern wall
G1 E-0.5 F2100 ; Retract
G1 Z0.55 F7200 ; Z hop
G0 X164.1572 Y148.0068 F7200 ; Move to next pattern
G1 Z0.45 F7200 ; Z hop return
G1 E0.5 F2100 ; Un-retract
SET_PRESSURE_ADVANCE ADVANCE=0.04 ; Set pressure advance
M117 PA 0.04
G1 X185.3704 Y169.22 E0.99515 F9000 ; Print pattern wall
G1 X164.1572 Y190.4332 E0.99515 F9000 ; Print pattern wall
G1 E-0.5 F2100 ; Retract
G1 Z0.55 F7200 ; Z hop
G0 X164.7329 Y148.0068 F7200 ; Move to start next pattern wall
G1 Z0.45 F7200 ; Z hop return
G1 E0.5 F2100 ; Un-retract
G1 X185.9461 Y169.22 E0.99515 F9000 ; Print pattern wall
G1 X164.7329 Y190.4332 E0.99515 F9000 ; Print pattern wall
G1 E-0.5 F2100 ; Retract
G1 Z0.55 F7200 ; Z hop
G0 X165.3086 Y148.0068 F7200 ; Move to start next pattern wall
G1 Z0.45 F7200 ; Z hop return
G1 E0.5 F2100 ; Un-retract
G1 X186.5218 Y169.22 E0.99515 F9000 ; Print pattern wall
G1 X165.3086 Y190.4332 E0.99515 F9000 ; Print pattern wall
G1 E-0.5 F2100 ; Retract
G1 Z0.55 F7200 ; Z hop
G0 X167.7586 Y148.0068 F7200 ; Move to next pattern
G1 Z0.45 F7200 ; Z hop return
G1 E0.5 F2100 ; Un-retract
SET_PRESSURE_ADVANCE ADVANCE=0.045 ; Set pressure advance
M117 PA 0.045
G1 X188.9718 Y169.22 E0.99515 F9000 ; Print pattern wall
G1 X167.7586 Y190.4332 E0.99515 F9000 ; Print pattern wall
G1 E-0.5 F2100 ; Retract
G1 Z0.55 F7200 ; Z hop
G0 X168.3343 Y148.0068 F7200 ; Move to start next pattern wall
G1 Z0.45 F7200 ; Z hop return
G1 E0.5 F2100 ; Un-retract
G1 X189.5475 Y169.22 E0.99515 F9000 ; Print pattern wall
G1 X168.3343 Y190.4332 E0.99515 F9000 ; Print pattern wall
G1 E-0.5 F2100 ; Retract
G1 Z0.55 F7200 ; Z hop
G0 X168.91 Y148.0068 F7200 ; Move to start next pattern wall
G1 Z0.45 F7200 ; Z hop return
G1 E0.5 F2100 ; Un-retract
G1 X190.1232 Y169.22 E0.99515 F9000 ; Print pattern wall
G1 X168.91 Y190.4332 E0.99515 F9000 ; Print pattern wall
G1 E-0.5 F2100 ; Retract
G1 Z0.55 F7200 ; Z hop
G0 X171.36 Y148.0068 F7200 ; Move to next pattern
G1 Z0.45 F7200 ; Z hop return
G1 E0.5 F2100 ; Un-retract
SET_PRESSURE_ADVANCE ADVANCE=0.05 ; Set pressure advance
M117 PA 0.05
G1 X192.5732 Y169.22 E0.99515 F9000 ; Print pattern wall
G1 X171.36 Y190.4332 E0.99515 F9000 ; Print pattern wall
G1 E-0.5 F2100 ; Retract
G1 Z0.55 F7200 ; Z hop
G0 X171.9357 Y148.0068 F7200 ; Move to start next pattern wall
G1 Z0.45 F7200 ; Z hop return
G1 E0.5 F2100 ; Un-retract
G1 X193.1489 Y169.22 E0.99515 F9000 ; Print pattern wall
G1 X171.9357 Y190.4332 E0.99515 F9000 ; Print pattern wall
G1 E-0.5 F2100 ; Retract
G1 Z0.55 F7200 ; Z hop
G0 X172.5113 Y148.0068 F7200 ; Move to start next pattern wall
G1 Z0.45 F7200 ; Z hop return
G1 E0.5 F2100 ; Un-retract
G1 X193.7246 Y169.22 E0.99515 F9000 ; Print pattern wall
G1 X172.5113 Y190.4332 E0.99515 F9000 ; Print pattern wall
G1 E-0.5 F2100 ; Retract
G1 Z0.55 F7200 ; Z hop
G0 X174.9613 Y148.0068 F7200 ; Move to next pattern
G1 Z0.45 F7200 ; Z hop return
G1 E0.5 F2100 ; Un-retract
SET_PRESSURE_ADVANCE ADVANCE=0.055 ; Set pressure advance
M117 PA 0.055
G1 X196.1746 Y169.22 E0.99515 F9000 ; Print pattern wall
G1 X174.9613 Y190.4332 E0.99515 F9000 ; Print pattern wall
G1 E-0.5 F2100 ; Retract
G1 Z0.55 F7200 ; Z hop
G0 X175.537 Y148.0068 F7200 ; Move to start next pattern wall
G1 Z0.45 F7200 ; Z hop return
G1 E0.5 F2100 ; Un-retract
G1 X196.7502 Y169.22 E0.99515 F9000 ; Print pattern wall
G1 X175.537 Y190.4332 E0.99515 F9000 ; Print pattern wall
G1 E-0.5 F2100 ; Retract
G1 Z0.55 F7200 ; Z hop
G0 X176.1127 Y148.0068 F7200 ; Move to start next pattern wall
G1 Z0.45 F7200 ; Z hop return
G1 E0.5 F2100 ; Un-retract
G1 X197.3259 Y169.22 E0.99515 F9000 ; Print pattern wall
G1 X176.1127 Y190.4332 E0.99515 F9000 ; Print pattern wall
G1 E-0.5 F2100 ; Retract
G1 Z0.55 F7200 ; Z hop
G0 X178.5627 Y148.0068 F7200 ; Move to next pattern
G1 Z0.45 F7200 ; Z hop return
G1 E0.5 F2100 ; Un-retract
SET_PRESSURE_ADVANCE ADVANCE=0.06 ; Set pressure advance
M117 PA 0.06
G1 X199.7759 Y169.22 E0.99515 F9000 ; Print pattern wall
G1 X178.5627 Y190.4332 E0.99515 F9000 ; Print pattern wall
G1 E-0.5 F2100 ; Retract
G1 Z0.55 F7200 ; Z hop
G0 X179.1384 Y148.0068 F7200 ; Move to start next pattern wall
G1 Z0.45 F7200 ; Z hop return
G1 E0.5 F2100 ; Un-retract
G1 X200.3516 Y169.22 E0.99515 F9000 ; Print pattern wall
G1 X179.1384 Y190.4332 E0.99515 F9000 ; Print pattern wall
G1 E-0.5 F2100 ; Retract
G1 Z0.55 F7200 ; Z hop
G0 X179.7141 Y148.0068 F7200 ; Move to start next pattern wall
G1 Z0.45 F7200 ; Z hop return
G1 E0.5 F2100 ; Un-retract
G1 X200.9273 Y169.22 E0.99515 F9000 ; Print pattern wall
G1 X179.7141 Y190.4332 E0.99515 F9000 ; Print pattern wall
G1 E-0.5 F2100 ; Retract
G1 Z0.55 F7200 ; Z hop
G0 X182.1641 Y148.0068 F7200 ; Move to next pattern
G1 Z0.45 F7200 ; Z hop return
G1 E0.5 F2100 ; Un-retract
SET_PRESSURE_ADVANCE ADVANCE=0.065 ; Set pressure advance
M117 PA 0.065
G1 X203.3773 Y169.22 E0.99515 F9000 ; Print pattern wall
G1 X182.1641 Y190.4332 E0.99515 F9000 ; Print pattern wall
G1 E-0.5 F2100 ; Retract
G1 Z0.55 F7200 ; Z hop
G0 X182.7398 Y148.0068 F7200 ; Move to start next pattern wall
G1 Z0.45 F7200 ; Z hop return
G1 E0.5 F2100 ; Un-retract
G1 X203.953 Y169.22 E0.99515 F9000 ; Print pattern wall
G1 X182.7398 Y190.4332 E0.99515 F9000 ; Print pattern wall
G1 E-0.5 F2100 ; Retract
G1 Z0.55 F7200 ; Z hop
G0 X183.3155 Y148.0068 F7200 ; Move to start next pattern wall
G1 Z0.45 F7200 ; Z hop return
G1 E0.5 F2100 ; Un-retract
G1 X204.5287 Y169.22 E0.99515 F9000 ; Print pattern wall
G1 X183.3155 Y190.4332 E0.99515 F9000 ; Print pattern wall
G1 E-0.5 F2100 ; Retract
G1 Z0.55 F7200 ; Z hop
G0 X185.7655 Y148.0068 F7200 ; Move to next pattern
G1 Z0.45 F7200 ; Z hop return
G1 E0.5 F2100 ; Un-retract
SET_PRESSURE_ADVANCE ADVANCE=0.07 ; Set pressure advance
M117 PA 0.07
G1 X206.9787 Y169.22 E0.99515 F9000 ; Print pattern wall
G1 X185.7655 Y190.4332 E0.99515 F9000 ; Print pattern wall
G1 E-0.5 F2100 ; Retract
G1 Z0.55 F7200 ; Z hop
G0 X186.3412 Y148.0068 F7200 ; Move to start next pattern wall
G1 Z0.45 F7200 ; Z hop return
G1 E0.5 F2100 ; Un-retract
G1 X207.5544 Y169.22 E0.99515 F9000 ; Print pattern wall
G1 X186.3412 Y190.4332 E0.99515 F9000 ; Print pattern wall
G1 E-0.5 F2100 ; Retract
G1 Z0.55 F7200 ; Z hop
G0 X186.9169 Y148.0068 F7200 ; Move to start next pattern wall
G1 Z0.45 F7200 ; Z hop return
G1 E0.5 F2100 ; Un-retract
G1 X208.1301 Y169.22 E0.99515 F9000 ; Print pattern wall
G1 X186.9169 Y190.4332 E0.99515 F9000 ; Print pattern wall
G1 E-0.5 F2100 ; Retract
G1 Z0.55 F7200 ; Z hop
G0 X189.3669 Y148.0068 F7200 ; Move to next pattern
G1 Z0.45 F7200 ; Z hop return
G1 E0.5 F2100 ; Un-retract
SET_PRESSURE_ADVANCE ADVANCE=0.075 ; Set pressure advance
M117 PA 0.075
G1 X210.5801 Y169.22 E0.99515 F9000 ; Print pattern wall
G1 X189.3669 Y190.4332 E0.99515 F9000 ; Print pattern wall
G1 E-0.5 F2100 ; Retract
G1 Z0.55 F7200 ; Z hop
G0 X189.9426 Y148.0068 F7200 ; Move to start next pattern wall
G1 Z0.45 F7200 ; Z hop return
G1 E0.5 F2100 ; Un-retract
G1 X211.1558 Y169.22 E0.99515 F9000 ; Print pattern wall
G1 X189.9426 Y190.4332 E0.99515 F9000 ; Print pattern wall
G1 E-0.5 F2100 ; Retract
G1 Z0.55 F7200 ; Z hop
G0 X190.5183 Y148.0068 F7200 ; Move to start next pattern wall
G1 Z0.45 F7200 ; Z hop return
G1 E0.5 F2100 ; Un-retract
G1 X211.7315 Y169.22 E0.99515 F9000 ; Print pattern wall
G1 X190.5183 Y190.4332 E0.99515 F9000 ; Print pattern wall
G1 E-0.5 F2100 ; Retract
G1 Z0.55 F7200 ; Z hop
G0 X192.9683 Y148.0068 F7200 ; Move to next pattern
G1 Z0.45 F7200 ; Z hop return
G1 E0.5 F2100 ; Un-retract
SET_PRESSURE_ADVANCE ADVANCE=0.08 ; Set pressure advance
M117 PA 0.08
G1 X214.1815 Y169.22 E0.99515 F9000 ; Print pattern wall
G1 X192.9683 Y190.4332 E0.99515 F9000 ; Print pattern wall
G1 E-0.5 F2100 ; Retract
G1 Z0.55 F7200 ; Z hop
G0 X193.544 Y148.0068 F7200 ; Move to start next pattern wall
G1 Z0.45 F7200 ; Z hop return
G1 E0.5 F2100 ; Un-retract
G1 X214.7572 Y169.22 E0.99515 F9000 ; Print pattern wall
G1 X193.544 Y190.4332 E0.99515 F9000 ; Print pattern wall
G1 E-0.5 F2100 ; Retract
G1 Z0.55 F7200 ; Z hop
G0 X194.1197 Y148.0068 F7200 ; Move to start next pattern wall
G1 Z0.45 F7200 ; Z hop return
G1 E0.5 F2100 ; Un-retract
G1 X215.3329 Y169.22 E0.99515 F9000 ; Print pattern wall
G1 X194.1197 Y190.4332 E0.99515 F9000 ; Print pattern wall
G1 E-0.5 F2100 ; Retract
G1 Z0.55 F7200 ; Z hop
G0 X135.346 Y148.0068 F7200 ; Move back to start position
G1 Z0.45 F7200 ; Z hop return
G1 E0.5 F2100 ; Un-retract
G0 Z0.65 F7200 ; Move to layer height
SET_PRESSURE_ADVANCE ADVANCE=0 ; Set pressure advance
M117 PA 0
G1 X156.5592 Y169.22 E0.99515 F9000 ; Print pattern wall
G1 X135.346 Y190.4332 E0.99515 F9000 ; Print pattern wall
G1 E-0.5 F2100 ; Retract
G1 Z0.75 F7200 ; Z hop
G0 X135.9217 Y148.0068 F7200 ; Move to start next pattern wall
G1 Z0.65 F7200 ; Z hop return
G1 E0.5 F2100 ; Un-retract
G1 X157.1349 Y169.22 E0.99515 F9000 ; Print pattern wall
G1 X135.9217 Y190.4332 E0.99515 F9000 ; Print pattern wall
G1 E-0.5 F2100 ; Retract
G1 Z0.75 F7200 ; Z hop
G0 X136.4974 Y148.0068 F7200 ; Move to start next pattern wall
G1 Z0.65 F7200 ; Z hop return
G1 E0.5 F2100 ; Un-retract
G1 X157.7106 Y169.22 E0.99515 F9000 ; Print pattern wall
G1 X136.4974 Y190.4332 E0.99515 F9000 ; Print pattern wall
G1 E-0.5 F2100 ; Retract
G1 Z0.75 F7200 ; Z hop
G0 X138.9474 Y148.0068 F7200 ; Move to next pattern
G1 Z0.65 F7200 ; Z hop return
G1 E0.5 F2100 ; Un-retract
SET_PRESSURE_ADVANCE ADVANCE=0.005 ; Set pressure advance
M117 PA 0.005
G1 X160.1606 Y169.22 E0.99515 F9000 ; Print pattern wall
G1 X138.9474 Y190.4332 E0.99515 F9000 ; Print pattern wall
G1 E-0.5 F2100 ; Retract
G1 Z0.75 F7200 ; Z hop
G0 X139.5231 Y148.0068 F7200 ; Move to start next pattern wall
G1 Z0.65 F7200 ; Z hop return
G1 E0.5 F2100 ; Un-retract
G1 X160.7363 Y169.22 E0.99515 F9000 ; Print pattern wall
G1 X139.5231 Y190.4332 E0.99515 F9000 ; Print pattern wall
G1 E-0.5 F2100 ; Retract
G1 Z0.75 F7200 ; Z hop
G0 X140.0988 Y148.0068 F7200 ; Move to start next pattern wall
G1 Z0.65 F7200 ; Z hop return
G1 E0.5 F2100 ; Un-retract
G1 X161.312 Y169.22 E0.99515 F9000 ; Print pattern wall
G1 X140.0988 Y190.4332 E0.99515 F9000 ; Print pattern wall
G1 E-0.5 F2100 ; Retract
G1 Z0.75 F7200 ; Z hop
G0 X142.5488 Y148.0068 F7200 ; Move to next pattern
G1 Z0.65 F7200 ; Z hop return
G1 E0.5 F2100 ; Un-retract
SET_PRESSURE_ADVANCE ADVANCE=0.01 ; Set pressure advance
M117 PA 0.01
G1 X163.762 Y169.22 E0.99515 F9000 ; Print pattern wall
G1 X142.5488 Y190.4332 E0.99515 F9000 ; Print pattern wall
G1 E-0.5 F2100 ; Retract
G1 Z0.75 F7200 ; Z hop
G0 X143.1245 Y148.0068 F7200 ; Move to start next pattern wall
G1 Z0.65 F7200 ; Z hop return
G1 E0.5 F2100 ; Un-retract
G1 X164.3377 Y169.22 E0.99515 F9000 ; Print pattern wall
G1 X143.1245 Y190.4332 E0.99515 F9000 ; Print pattern wall
G1 E-0.5 F2100 ; Retract
G1 Z0.75 F7200 ; Z hop
G0 X143.7002 Y148.0068 F7200 ; Move to start next pattern wall
G1 Z0.65 F7200 ; Z hop return
G1 E0.5 F2100 ; Un-retract
G1 X164.9134 Y169.22 E0.99515 F9000 ; Print pattern wall
G1 X143.7002 Y190.4332 E0.99515 F9000 ; Print pattern wall
G1 E-0.5 F2100 ; Retract
G1 Z0.75 F7200 ; Z hop
G0 X146.1502 Y148.0068 F7200 ; Move to next pattern
G1 Z0.65 F7200 ; Z hop return
G1 E0.5 F2100 ; Un-retract
SET_PRESSURE_ADVANCE ADVANCE=0.015 ; Set pressure advance
M117 PA 0.015
G1 X167.3634 Y169.22 E0.99515 F9000 ; Print pattern wall
G1 X146.1502 Y190.4332 E0.99515 F9000 ; Print pattern wall
G1 E-0.5 F2100 ; Retract
G1 Z0.75 F7200 ; Z hop
G0 X146.7259 Y148.0068 F7200 ; Move to start next pattern wall
G1 Z0.65 F7200 ; Z hop return
G1 E0.5 F2100 ; Un-retract
G1 X167.9391 Y169.22 E0.99515 F9000 ; Print pattern wall
G1 X146.7259 Y190.4332 E0.99515 F9000 ; Print pattern wall
G1 E-0.5 F2100 ; Retract
G1 Z0.75 F7200 ; Z hop
G0 X147.3016 Y148.0068 F7200 ; Move to start next pattern wall
G1 Z0.65 F7200 ; Z hop return
G1 E0.5 F2100 ; Un-retract
G1 X168.5148 Y169.22 E0.99515 F9000 ; Print pattern wall
G1 X147.3016 Y190.4332 E0.99515 F9000 ; Print pattern wall
G1 E-0.5 F2100 ; Retract
G1 Z0.75 F7200 ; Z hop
G0 X149.7516 Y148.0068 F7200 ; Move to next pattern
G1 Z0.65 F7200 ; Z hop return
G1 E0.5 F2100 ; Un-retract
SET_PRESSURE_ADVANCE ADVANCE=0.02 ; Set pressure advance
M117 PA 0.02
G1 X170.9648 Y169.22 E0.99515 F9000 ; Print pattern wall
G1 X149.7516 Y190.4332 E0.99515 F9000 ; Print pattern wall
G1 E-0.5 F2100 ; Retract
G1 Z0.75 F7200 ; Z hop
G0 X150.3273 Y148.0068 F7200 ; Move to start next pattern wall
G1 Z0.65 F7200 ; Z hop return
G1 E0.5 F2100 ; Un-retract
G1 X171.5405 Y169.22 E0.99515 F9000 ; Print pattern wall
G1 X150.3273 Y190.4332 E0.99515 F9000 ; Print pattern wall
G1 E-0.5 F2100 ; Retract
G1 Z0.75 F7200 ; Z hop
G0 X150.903 Y148.0068 F7200 ; Move to start next pattern wall
G1 Z0.65 F7200 ; Z hop return
G1 E0.5 F2100 ; Un-retract
G1 X172.1162 Y169.22 E0.99515 F9000 ; Print pattern wall
G1 X150.903 Y190.4332 E0.99515 F9000 ; Print pattern wall
G1 E-0.5 F2100 ; Retract
G1 Z0.75 F7200 ; Z hop
G0 X153.353 Y148.0068 F7200 ; Move to next pattern
G1 Z0.65 F7200 ; Z hop return
G1 E0.5 F2100 ; Un-retract
SET_PRESSURE_ADVANCE ADVANCE=0.025 ; Set pressure advance
M117 PA 0.025
G1 X174.5662 Y169.22 E0.99515 F9000 ; Print pattern wall
G1 X153.353 Y190.4332 E0.99515 F9000 ; Print pattern wall
G1 E-0.5 F2100 ; Retract
G1 Z0.75 F7200 ; Z hop
G0 X153.9287 Y148.0068 F7200 ; Move to start next pattern wall
G1 Z0.65 F7200 ; Z hop return
G1 E0.5 F2100 ; Un-retract
G1 X175.1419 Y169.22 E0.99515 F9000 ; Print pattern wall
G1 X153.9287 Y190.4332 E0.99515 F9000 ; Print pattern wall
G1 E-0.5 F2100 ; Retract
G1 Z0.75 F7200 ; Z hop
G0 X154.5044 Y148.0068 F7200 ; Move to start next pattern wall
G1 Z0.65 F7200 ; Z hop return
G1 E0.5 F2100 ; Un-retract
G1 X175.7176 Y169.22 E0.99515 F9000 ; Print pattern wall
G1 X154.5044 Y190.4332 E0.99515 F9000 ; Print pattern wall
G1 E-0.5 F2100 ; Retract
G1 Z0.75 F7200 ; Z hop
G0 X156.9544 Y148.0068 F7200 ; Move to next pattern
G1 Z0.65 F7200 ; Z hop return
G1 E0.5 F2100 ; Un-retract
SET_PRESSURE_ADVANCE ADVANCE=0.03 ; Set pressure advance
M117 PA 0.03
G1 X178.1676 Y169.22 E0.99515 F9000 ; Print pattern wall
G1 X156.9544 Y190.4332 E0.99515 F9000 ; Print pattern wall
G1 E-0.5 F2100 ; Retract
G1 Z0.75 F7200 ; Z hop
G0 X157.5301 Y148.0068 F7200 ; Move to start next pattern wall
G1 Z0.65 F7200 ; Z hop return
G1 E0.5 F2100 ; Un-retract
G1 X178.7433 Y169.22 E0.99515 F9000 ; Print pattern wall
G1 X157.5301 Y190.4332 E0.99515 F9000 ; Print pattern wall
G1 E-0.5 F2100 ; Retract
G1 Z0.75 F7200 ; Z hop
G0 X158.1058 Y148.0068 F7200 ; Move to start next pattern wall
G1 Z0.65 F7200 ; Z hop return
G1 E0.5 F2100 ; Un-retract
G1 X179.319 Y169.22 E0.99515 F9000 ; Print pattern wall
G1 X158.1058 Y190.4332 E0.99515 F9000 ; Print pattern wall
G1 E-0.5 F2100 ; Retract
G1 Z0.75 F7200 ; Z hop
G0 X160.5558 Y148.0068 F7200 ; Move to next pattern
G1 Z0.65 F7200 ; Z hop return
G1 E0.5 F2100 ; Un-retract
SET_PRESSURE_ADVANCE ADVANCE=0.035 ; Set pressure advance
M117 PA 0.035
G1 X181.769 Y169.22 E0.99515 F9000 ; Print pattern wall
G1 X160.5558 Y190.4332 E0.99515 F9000 ; Print pattern wall
G1 E-0.5 F2100 ; Retract
G1 Z0.75 F7200 ; Z hop
G0 X161.1315 Y148.0068 F7200 ; Move to start next pattern wall
G1 Z0.65 F7200 ; Z hop return
G1 E0.5 F2100 ; Un-retract
G1 X182.3447 Y169.22 E0.99515 F9000 ; Print pattern wall
G1 X161.1315 Y190.4332 E0.99515 F9000 ; Print pattern wall
G1 E-0.5 F2100 ; Retract
G1 Z0.75 F7200 ; Z hop
G0 X161.7072 Y148.0068 F7200 ; Move to start next pattern wall
G1 Z0.65 F7200 ; Z hop return
G1 E0.5 F2100 ; Un-retract
G1 X182.9204 Y169.22 E0.99515 F9000 ; Print pattern wall
G1 X161.7072 Y190.4332 E0.99515 F9000 ; Print pattern wall
G1 E-0.5 F2100 ; Retract
G1 Z0.75 F7200 ; Z hop
G0 X164.1572 Y148.0068 F7200 ; Move to next pattern
G1 Z0.65 F7200 ; Z hop return
G1 E0.5 F2100 ; Un-retract
SET_PRESSURE_ADVANCE ADVANCE=0.04 ; Set pressure advance
M117 PA 0.04
G1 X185.3704 Y169.22 E0.99515 F9000 ; Print pattern wall
G1 X164.1572 Y190.4332 E0.99515 F9000 ; Print pattern wall
G1 E-0.5 F2100 ; Retract
G1 Z0.75 F7200 ; Z hop
G0 X164.7329 Y148.0068 F7200 ; Move to start next pattern wall
G1 Z0.65 F7200 ; Z hop return
G1 E0.5 F2100 ; Un-retract
G1 X185.9461 Y169.22 E0.99515 F9000 ; Print pattern wall
G1 X164.7329 Y190.4332 E0.99515 F9000 ; Print pattern wall
G1 E-0.5 F2100 ; Retract
G1 Z0.75 F7200 ; Z hop
G0 X165.3086 Y148.0068 F7200 ; Move to start next pattern wall
G1 Z0.65 F7200 ; Z hop return
G1 E0.5 F2100 ; Un-retract
G1 X186.5218 Y169.22 E0.99515 F9000 ; Print pattern wall
G1 X165.3086 Y190.4332 E0.99515 F9000 ; Print pattern wall
G1 E-0.5 F2100 ; Retract
G1 Z0.75 F7200 ; Z hop
G0 X167.7586 Y148.0068 F7200 ; Move to next pattern
G1 Z0.65 F7200 ; Z hop return
G1 E0.5 F2100 ; Un-retract
SET_PRESSURE_ADVANCE ADVANCE=0.045 ; Set pressure advance
M117 PA 0.045
G1 X188.9718 Y169.22 E0.99515 F9000 ; Print pattern wall
G1 X167.7586 Y190.4332 E0.99515 F9000 ; Print pattern wall
G1 E-0.5 F2100 ; Retract
G1 Z0.75 F7200 ; Z hop
G0 X168.3343 Y148.0068 F7200 ; Move to start next pattern wall
G1 Z0.65 F7200 ; Z hop return
G1 E0.5 F2100 ; Un-retract
G1 X189.5475 Y169.22 E0.99515 F9000 ; Print pattern wall
G1 X168.3343 Y190.4332 E0.99515 F9000 ; Print pattern wall
G1 E-0.5 F2100 ; Retract
G1 Z0.75 F7200 ; Z hop
G0 X168.91 Y148.0068 F7200 ; Move to start next pattern wall
G1 Z0.65 F7200 ; Z hop return
G1 E0.5 F2100 ; Un-retract
G1 X190.1232 Y169.22 E0.99515 F9000 ; Print pattern wall
G1 X168.91 Y190.4332 E0.99515 F9000 ; Print pattern wall
G1 E-0.5 F2100 ; Retract
G1 Z0.75 F7200 ; Z hop
G0 X171.36 Y148.0068 F7200 ; Move to next pattern
G1 Z0.65 F7200 ; Z hop return
G1 E0.5 F2100 ; Un-retract
SET_PRESSURE_ADVANCE ADVANCE=0.05 ; Set pressure advance
M117 PA 0.05
G1 X192.5732 Y169.22 E0.99515 F9000 ; Print pattern wall
G1 X171.36 Y190.4332 E0.99515 F9000 ; Print pattern wall
G1 E-0.5 F2100 ; Retract
G1 Z0.75 F7200 ; Z hop
G0 X171.9357 Y148.0068 F7200 ; Move to start next pattern wall
G1 Z0.65 F7200 ; Z hop return
G1 E0.5 F2100 ; Un-retract
G1 X193.1489 Y169.22 E0.99515 F9000 ; Print pattern wall
G1 X171.9357 Y190.4332 E0.99515 F9000 ; Print pattern wall
G1 E-0.5 F2100 ; Retract
G1 Z0.75 F7200 ; Z hop
G0 X172.5113 Y148.0068 F7200 ; Move to start next pattern wall
G1 Z0.65 F7200 ; Z hop return
G1 E0.5 F2100 ; Un-retract
G1 X193.7246 Y169.22 E0.99515 F9000 ; Print pattern wall
G1 X172.5113 Y190.4332 E0.99515 F9000 ; Print pattern wall
G1 E-0.5 F2100 ; Retract
G1 Z0.75 F7200 ; Z hop
G0 X174.9613 Y148.0068 F7200 ; Move to next pattern
G1 Z0.65 F7200 ; Z hop return
G1 E0.5 F2100 ; Un-retract
SET_PRESSURE_ADVANCE ADVANCE=0.055 ; Set pressure advance
M117 PA 0.055
G1 X196.1746 Y169.22 E0.99515 F9000 ; Print pattern wall
G1 X174.9613 Y190.4332 E0.99515 F9000 ; Print pattern wall
G1 E-0.5 F2100 ; Retract
G1 Z0.75 F7200 ; Z hop
G0 X175.537 Y148.0068 F7200 ; Move to start next pattern wall
G1 Z0.65 F7200 ; Z hop return
G1 E0.5 F2100 ; Un-retract
G1 X196.7502 Y169.22 E0.99515 F9000 ; Print pattern wall
G1 X175.537 Y190.4332 E0.99515 F9000 ; Print pattern wall
G1 E-0.5 F2100 ; Retract
G1 Z0.75 F7200 ; Z hop
G0 X176.1127 Y148.0068 F7200 ; Move to start next pattern wall
G1 Z0.65 F7200 ; Z hop return
G1 E0.5 F2100 ; Un-retract
G1 X197.3259 Y169.22 E0.99515 F9000 ; Print pattern wall
G1 X176.1127 Y190.4332 E0.99515 F9000 ; Print pattern wall
G1 E-0.5 F2100 ; Retract
G1 Z0.75 F7200 ; Z hop
G0 X178.5627 Y148.0068 F7200 ; Move to next pattern
G1 Z0.65 F7200 ; Z hop return
G1 E0.5 F2100 ; Un-retract
SET_PRESSURE_ADVANCE ADVANCE=0.06 ; Set pressure advance
M117 PA 0.06
G1 X199.7759 Y169.22 E0.99515 F9000 ; Print pattern wall
G1 X178.5627 Y190.4332 E0.99515 F9000 ; Print pattern wall
G1 E-0.5 F2100 ; Retract
G1 Z0.75 F7200 ; Z hop
G0 X179.1384 Y148.0068 F7200 ; Move to start next pattern wall
G1 Z0.65 F7200 ; Z hop return
G1 E0.5 F2100 ; Un-retract
G1 X200.3516 Y169.22 E0.99515 F9000 ; Print pattern wall
G1 X179.1384 Y190.4332 E0.99515 F9000 ; Print pattern wall
G1 E-0.5 F2100 ; Retract
G1 Z0.75 F7200 ; Z hop
G0 X179.7141 Y148.0068 F7200 ; Move to start next pattern wall
G1 Z0.65 F7200 ; Z hop return
G1 E0.5 F2100 ; Un-retract
G1 X200.9273 Y169.22 E0.99515 F9000 ; Print pattern wall
G1 X179.7141 Y190.4332 E0.99515 F9000 ; Print pattern wall
G1 E-0.5 F2100 ; Retract
G1 Z0.75 F7200 ; Z hop
G0 X182.1641 Y148.0068 F7200 ; Move to next pattern
G1 Z0.65 F7200 ; Z hop return
G1 E0.5 F2100 ; Un-retract
SET_PRESSURE_ADVANCE ADVANCE=0.065 ; Set pressure advance
M117 PA 0.065
G1 X203.3773 Y169.22 E0.99515 F9000 ; Print pattern wall
G1 X182.1641 Y190.4332 E0.99515 F9000 ; Print pattern wall
G1 E-0.5 F2100 ; Retract
G1 Z0.75 F7200 ; Z hop
G0 X182.7398 Y148.0068 F7200 ; Move to start next pattern wall
G1 Z0.65 F7200 ; Z hop return
G1 E0.5 F2100 ; Un-retract
G1 X203.953 Y169.22 E0.99515 F9000 ; Print pattern wall
G1 X182.7398 Y190.4332 E0.99515 F9000 ; Print pattern wall
G1 E-0.5 F2100 ; Retract
G1 Z0.75 F7200 ; Z hop
G0 X183.3155 Y148.0068 F7200 ; Move to start next pattern wall
G1 Z0.65 F7200 ; Z hop return
G1 E0.5 F2100 ; Un-retract
G1 X204.5287 Y169.22 E0.99515 F9000 ; Print pattern wall
G1 X183.3155 Y190.4332 E0.99515 F9000 ; Print pattern wall
G1 E-0.5 F2100 ; Retract
G1 Z0.75 F7200 ; Z hop
G0 X185.7655 Y148.0068 F7200 ; Move to next pattern
G1 Z0.65 F7200 ; Z hop return
G1 E0.5 F2100 ; Un-retract
SET_PRESSURE_ADVANCE ADVANCE=0.07 ; Set pressure advance
M117 PA 0.07
G1 X206.9787 Y169.22 E0.99515 F9000 ; Print pattern wall
G1 X185.7655 Y190.4332 E0.99515 F9000 ; Print pattern wall
G1 E-0.5 F2100 ; Retract
G1 Z0.75 F7200 ; Z hop
G0 X186.3412 Y148.0068 F7200 ; Move to start next pattern wall
G1 Z0.65 F7200 ; Z hop return
G1 E0.5 F2100 ; Un-retract
G1 X207.5544 Y169.22 E0.99515 F9000 ; Print pattern wall
G1 X186.3412 Y190.4332 E0.99515 F9000 ; Print pattern wall
G1 E-0.5 F2100 ; Retract
G1 Z0.75 F7200 ; Z hop
G0 X186.9169 Y148.0068 F7200 ; Move to start next pattern wall
G1 Z0.65 F7200 ; Z hop return
G1 E0.5 F2100 ; Un-retract
G1 X208.1301 Y169.22 E0.99515 F9000 ; Print pattern wall
G1 X186.9169 Y190.4332 E0.99515 F9000 ; Print pattern wall
G1 E-0.5 F2100 ; Retract
G1 Z0.75 F7200 ; Z hop
G0 X189.3669 Y148.0068 F7200 ; Move to next pattern
G1 Z0.65 F7200 ; Z hop return
G1 E0.5 F2100 ; Un-retract
SET_PRESSURE_ADVANCE ADVANCE=0.075 ; Set pressure advance
M117 PA 0.075
G1 X210.5801 Y169.22 E0.99515 F9000 ; Print pattern wall
G1 X189.3669 Y190.4332 E0.99515 F9000 ; Print pattern wall
G1 E-0.5 F2100 ; Retract
G1 Z0.75 F7200 ; Z hop
G0 X189.9426 Y148.0068 F7200 ; Move to start next pattern wall
G1 Z0.65 F7200 ; Z hop return
G1 E0.5 F2100 ; Un-retract
G1 X211.1558 Y169.22 E0.99515 F9000 ; Print pattern wall
G1 X189.9426 Y190.4332 E0.99515 F9000 ; Print pattern wall
G1 E-0.5 F2100 ; Retract
G1 Z0.75 F7200 ; Z hop
G0 X190.5183 Y148.0068 F7200 ; Move to start next pattern wall
G1 Z0.65 F7200 ; Z hop return
G1 E0.5 F2100 ; Un-retract
G1 X211.7315 Y169.22 E0.99515 F9000 ; Print pattern wall
G1 X190.5183 Y190.4332 E0.99515 F9000 ; Print pattern wall
G1 E-0.5 F2100 ; Retract
G1 Z0.75 F7200 ; Z hop
G0 X192.9683 Y148.0068 F7200 ; Move to next pattern
G1 Z0.65 F7200 ; Z hop return
G1 E0.5 F2100 ; Un-retract
SET_PRESSURE_ADVANCE ADVANCE=0.08 ; Set pressure advance
M117 PA 0.08
G1 X214.1815 Y169.22 E0.99515 F9000 ; Print pattern wall
G1 X192.9683 Y190.4332 E0.99515 F9000 ; Print pattern wall
G1 E-0.5 F2100 ; Retract
G1 Z0.75 F7200 ; Z hop
G0 X193.544 Y148.0068 F7200 ; Move to start next pattern wall
G1 Z0.65 F7200 ; Z hop return
G1 E0.5 F2100 ; Un-retract
G1 X214.7572 Y169.22 E0.99515 F9000 ; Print pattern wall
G1 X193.544 Y190.4332 E0.99515 F9000 ; Print pattern wall
G1 E-0.5 F2100 ; Retract
G1 Z0.75 F7200 ; Z hop
G0 X194.1197 Y148.0068 F7200 ; Move to start next pattern wall
G1 Z0.65 F7200 ; Z hop return
G1 E0.5 F2100 ; Un-retract
G1 X215.3329 Y169.22 E0.99515 F9000 ; Print pattern wall
G1 X194.1197 Y190.4332 E0.99515 F9000 ; Print pattern wall
G1 E-0.5 F2100 ; Retract
G1 Z0.75 F7200 ; Z hop
G0 X135.346 Y148.0068 F7200 ; Move back to start position
G1 Z0.65 F7200 ; Z hop return
G1 E0.5 F2100 ; Un-retract
G0 Z0.85 F7200 ; Move to layer height
SET_PRESSURE_ADVANCE ADVANCE=0 ; Set pressure advance
M117 PA 0
G1 X156.5592 Y169.22 E0.99515 F9000 ; Print pattern wall
G1 X135.346 Y190.4332 E0.99515 F9000 ; Print pattern wall
G1 E-0.5 F2100 ; Retract
G1 Z0.95 F7200 ; Z hop
G0 X135.9217 Y148.0068 F7200 ; Move to start next pattern wall
G1 Z0.85 F7200 ; Z hop return
G1 E0.5 F2100 ; Un-retract
G1 X157.1349 Y169.22 E0.99515 F9000 ; Print pattern wall
G1 X135.9217 Y190.4332 E0.99515 F9000 ; Print pattern wall
G1 E-0.5 F2100 ; Retract
G1 Z0.95 F7200 ; Z hop
G0 X136.4974 Y148.0068 F7200 ; Move to start next pattern wall
G1 Z0.85 F7200 ; Z hop return
G1 E0.5 F2100 ; Un-retract
G1 X157.7106 Y169.22 E0.99515 F9000 ; Print pattern wall
G1 X136.4974 Y190.4332 E0.99515 F9000 ; Print pattern wall
G1 E-0.5 F2100 ; Retract
G1 Z0.95 F7200 ; Z hop
G0 X138.9474 Y148.0068 F7200 ; Move to next pattern
G1 Z0.85 F7200 ; Z hop return
G1 E0.5 F2100 ; Un-retract
SET_PRESSURE_ADVANCE ADVANCE=0.005 ; Set pressure advance
M117 PA 0.005
G1 X160.1606 Y169.22 E0.99515 F9000 ; Print pattern wall
G1 X138.9474 Y190.4332 E0.99515 F9000 ; Print pattern wall
G1 E-0.5 F2100 ; Retract
G1 Z0.95 F7200 ; Z hop
G0 X139.5231 Y148.0068 F7200 ; Move to start next pattern wall
G1 Z0.85 F7200 ; Z hop return
G1 E0.5 F2100 ; Un-retract
G1 X160.7363 Y169.22 E0.99515 F9000 ; Print pattern wall
G1 X139.5231 Y190.4332 E0.99515 F9000 ; Print pattern wall
G1 E-0.5 F2100 ; Retract
G1 Z0.95 F7200 ; Z hop
G0 X140.0988 Y148.0068 F7200 ; Move to start next pattern wall
G1 Z0.85 F7200 ; Z hop return
G1 E0.5 F2100 ; Un-retract
G1 X161.312 Y169.22 E0.99515 F9000 ; Print pattern wall
G1 X140.0988 Y190.4332 E0.99515 F9000 ; Print pattern wall
G1 E-0.5 F2100 ; Retract
G1 Z0.95 F7200 ; Z hop
G0 X142.5488 Y148.0068 F7200 ; Move to next pattern
G1 Z0.85 F7200 ; Z hop return
G1 E0.5 F2100 ; Un-retract
SET_PRESSURE_ADVANCE ADVANCE=0.01 ; Set pressure advance
M117 PA 0.01
G1 X163.762 Y169.22 E0.99515 F9000 ; Print pattern wall
G1 X142.5488 Y190.4332 E0.99515 F9000 ; Print pattern wall
G1 E-0.5 F2100 ; Retract
G1 Z0.95 F7200 ; Z hop
G0 X143.1245 Y148.0068 F7200 ; Move to start next pattern wall
G1 Z0.85 F7200 ; Z hop return
G1 E0.5 F2100 ; Un-retract
G1 X164.3377 Y169.22 E0.99515 F9000 ; Print pattern wall
G1 X143.1245 Y190.4332 E0.99515 F9000 ; Print pattern wall
G1 E-0.5 F2100 ; Retract
G1 Z0.95 F7200 ; Z hop
G0 X143.7002 Y148.0068 F7200 ; Move to start next pattern wall
G1 Z0.85 F7200 ; Z hop return
G1 E0.5 F2100 ; Un-retract
G1 X164.9134 Y169.22 E0.99515 F9000 ; Print pattern wall
G1 X143.7002 Y190.4332 E0.99515 F9000 ; Print pattern wall
G1 E-0.5 F2100 ; Retract
G1 Z0.95 F7200 ; Z hop
G0 X146.1502 Y148.0068 F7200 ; Move to next pattern
G1 Z0.85 F7200 ; Z hop return
G1 E0.5 F2100 ; Un-retract
SET_PRESSURE_ADVANCE ADVANCE=0.015 ; Set pressure advance
M117 PA 0.015
G1 X167.3634 Y169.22 E0.99515 F9000 ; Print pattern wall
G1 X146.1502 Y190.4332 E0.99515 F9000 ; Print pattern wall
G1 E-0.5 F2100 ; Retract
G1 Z0.95 F7200 ; Z hop
G0 X146.7259 Y148.0068 F7200 ; Move to start next pattern wall
G1 Z0.85 F7200 ; Z hop return
G1 E0.5 F2100 ; Un-retract
G1 X167.9391 Y169.22 E0.99515 F9000 ; Print pattern wall
G1 X146.7259 Y190.4332 E0.99515 F9000 ; Print pattern wall
G1 E-0.5 F2100 ; Retract
G1 Z0.95 F7200 ; Z hop
G0 X147.3016 Y148.0068 F7200 ; Move to start next pattern wall
G1 Z0.85 F7200 ; Z hop return
G1 E0.5 F2100 ; Un-retract
G1 X168.5148 Y169.22 E0.99515 F9000 ; Print pattern wall
G1 X147.3016 Y190.4332 E0.99515 F9000 ; Print pattern wall
G1 E-0.5 F2100 ; Retract
G1 Z0.95 F7200 ; Z hop
G0 X149.7516 Y148.0068 F7200 ; Move to next pattern
G1 Z0.85 F7200 ; Z hop return
G1 E0.5 F2100 ; Un-retract
SET_PRESSURE_ADVANCE ADVANCE=0.02 ; Set pressure advance
M117 PA 0.02
G1 X170.9648 Y169.22 E0.99515 F9000 ; Print pattern wall
G1 X149.7516 Y190.4332 E0.99515 F9000 ; Print pattern wall
G1 E-0.5 F2100 ; Retract
G1 Z0.95 F7200 ; Z hop
G0 X150.3273 Y148.0068 F7200 ; Move to start next pattern wall
G1 Z0.85 F7200 ; Z hop return
G1 E0.5 F2100 ; Un-retract
G1 X171.5405 Y169.22 E0.99515 F9000 ; Print pattern wall
G1 X150.3273 Y190.4332 E0.99515 F9000 ; Print pattern wall
G1 E-0.5 F2100 ; Retract
G1 Z0.95 F7200 ; Z hop
G0 X150.903 Y148.0068 F7200 ; Move to start next pattern wall
G1 Z0.85 F7200 ; Z hop return
G1 E0.5 F2100 ; Un-retract
G1 X172.1162 Y169.22 E0.99515 F9000 ; Print pattern wall
G1 X150.903 Y190.4332 E0.99515 F9000 ; Print pattern wall
G1 E-0.5 F2100 ; Retract
G1 Z0.95 F7200 ; Z hop
G0 X153.353 Y148.0068 F7200 ; Move to next pattern
G1 Z0.85 F7200 ; Z hop return
G1 E0.5 F2100 ; Un-retract
SET_PRESSURE_ADVANCE ADVANCE=0.025 ; Set pressure advance
M117 PA 0.025
G1 X174.5662 Y169.22 E0.99515 F9000 ; Print pattern wall
G1 X153.353 Y190.4332 E0.99515 F9000 ; Print pattern wall
G1 E-0.5 F2100 ; Retract
G1 Z0.95 F7200 ; Z hop
G0 X153.9287 Y148.0068 F7200 ; Move to start next pattern wall
G1 Z0.85 F7200 ; Z hop return
G1 E0.5 F2100 ; Un-retract
G1 X175.1419 Y169.22 E0.99515 F9000 ; Print pattern wall
G1 X153.9287 Y190.4332 E0.99515 F9000 ; Print pattern wall
G1 E-0.5 F2100 ; Retract
G1 Z0.95 F7200 ; Z hop
G0 X154.5044 Y148.0068 F7200 ; Move to start next pattern wall
G1 Z0.85 F7200 ; Z hop return
G1 E0.5 F2100 ; Un-retract
G1 X175.7176 Y169.22 E0.99515 F9000 ; Print pattern wall
G1 X154.5044 Y190.4332 E0.99515 F9000 ; Print pattern wall
G1 E-0.5 F2100 ; Retract
G1 Z0.95 F7200 ; Z hop
G0 X156.9544 Y148.0068 F7200 ; Move to next pattern
G1 Z0.85 F7200 ; Z hop return
G1 E0.5 F2100 ; Un-retract
SET_PRESSURE_ADVANCE ADVANCE=0.03 ; Set pressure advance
M117 PA 0.03
G1 X178.1676 Y169.22 E0.99515 F9000 ; Print pattern wall
G1 X156.9544 Y190.4332 E0.99515 F9000 ; Print pattern wall
G1 E-0.5 F2100 ; Retract
G1 Z0.95 F7200 ; Z hop
G0 X157.5301 Y148.0068 F7200 ; Move to start next pattern wall
G1 Z0.85 F7200 ; Z hop return
G1 E0.5 F2100 ; Un-retract
G1 X178.7433 Y169.22 E0.99515 F9000 ; Print pattern wall
G1 X157.5301 Y190.4332 E0.99515 F9000 ; Print pattern wall
G1 E-0.5 F2100 ; Retract
G1 Z0.95 F7200 ; Z hop
G0 X158.1058 Y148.0068 F7200 ; Move to start next pattern wall
G1 Z0.85 F7200 ; Z hop return
G1 E0.5 F2100 ; Un-retract
G1 X179.319 Y169.22 E0.99515 F9000 ; Print pattern wall
G1 X158.1058 Y190.4332 E0.99515 F9000 ; Print pattern wall
G1 E-0.5 F2100 ; Retract
G1 Z0.95 F7200 ; Z hop
G0 X160.5558 Y148.0068 F7200 ; Move to next pattern
G1 Z0.85 F7200 ; Z hop return
G1 E0.5 F2100 ; Un-retract
SET_PRESSURE_ADVANCE ADVANCE=0.035 ; Set pressure advance
M117 PA 0.035
G1 X181.769 Y169.22 E0.99515 F9000 ; Print pattern wall
G1 X160.5558 Y190.4332 E0.99515 F9000 ; Print pattern wall
G1 E-0.5 F2100 ; Retract
G1 Z0.95 F7200 ; Z hop
G0 X161.1315 Y148.0068 F7200 ; Move to start next pattern wall
G1 Z0.85 F7200 ; Z hop return
G1 E0.5 F2100 ; Un-retract
G1 X182.3447 Y169.22 E0.99515 F9000 ; Print pattern wall
G1 X161.1315 Y190.4332 E0.99515 F9000 ; Print pattern wall
G1 E-0.5 F2100 ; Retract
G1 Z0.95 F7200 ; Z hop
G0 X161.7072 Y148.0068 F7200 ; Move to start next pattern wall
G1 Z0.85 F7200 ; Z hop return
G1 E0.5 F2100 ; Un-retract
G1 X182.9204 Y169.22 E0.99515 F9000 ; Print pattern wall
G1 X161.7072 Y190.4332 E0.99515 F9000 ; Print pattern wall
G1 E-0.5 F2100 ; Retract
G1 Z0.95 F7200 ; Z hop
G0 X164.1572 Y148.0068 F7200 ; Move to next pattern
G1 Z0.85 F7200 ; Z hop return
G1 E0.5 F2100 ; Un-retract
SET_PRESSURE_ADVANCE ADVANCE=0.04 ; Set pressure advance
M117 PA 0.04
G1 X185.3704 Y169.22 E0.99515 F9000 ; Print pattern wall
G1 X164.1572 Y190.4332 E0.99515 F9000 ; Print pattern wall
G1 E-0.5 F2100 ; Retract
G1 Z0.95 F7200 ; Z hop
G0 X164.7329 Y148.0068 F7200 ; Move to start next pattern wall
G1 Z0.85 F7200 ; Z hop return
G1 E0.5 F2100 ; Un-retract
G1 X185.9461 Y169.22 E0.99515 F9000 ; Print pattern wall
G1 X164.7329 Y190.4332 E0.99515 F9000 ; Print pattern wall
G1 E-0.5 F2100 ; Retract
G1 Z0.95 F7200 ; Z hop
G0 X165.3086 Y148.0068 F7200 ; Move to start next pattern wall
G1 Z0.85 F7200 ; Z hop return
G1 E0.5 F2100 ; Un-retract
G1 X186.5218 Y169.22 E0.99515 F9000 ; Print pattern wall
G1 X165.3086 Y190.4332 E0.99515 F9000 ; Print pattern wall
G1 E-0.5 F2100 ; Retract
G1 Z0.95 F7200 ; Z hop
G0 X167.7586 Y148.0068 F7200 ; Move to next pattern
G1 Z0.85 F7200 ; Z hop return
G1 E0.5 F2100 ; Un-retract
SET_PRESSURE_ADVANCE ADVANCE=0.045 ; Set pressure advance
M117 PA 0.045
G1 X188.9718 Y169.22 E0.99515 F9000 ; Print pattern wall
G1 X167.7586 Y190.4332 E0.99515 F9000 ; Print pattern wall
G1 E-0.5 F2100 ; Retract
G1 Z0.95 F7200 ; Z hop
G0 X168.3343 Y148.0068 F7200 ; Move to start next pattern wall
G1 Z0.85 F7200 ; Z hop return
G1 E0.5 F2100 ; Un-retract
G1 X189.5475 Y169.22 E0.99515 F9000 ; Print pattern wall
G1 X168.3343 Y190.4332 E0.99515 F9000 ; Print pattern wall
G1 E-0.5 F2100 ; Retract
G1 Z0.95 F7200 ; Z hop
G0 X168.91 Y148.0068 F7200 ; Move to start next pattern wall
G1 Z0.85 F7200 ; Z hop return
G1 E0.5 F2100 ; Un-retract
G1 X190.1232 Y169.22 E0.99515 F9000 ; Print pattern wall
G1 X168.91 Y190.4332 E0.99515 F9000 ; Print pattern wall
G1 E-0.5 F2100 ; Retract
G1 Z0.95 F7200 ; Z hop
G0 X171.36 Y148.0068 F7200 ; Move to next pattern
G1 Z0.85 F7200 ; Z hop return
G1 E0.5 F2100 ; Un-retract
SET_PRESSURE_ADVANCE ADVANCE=0.05 ; Set pressure advance
M117 PA 0.05
G1 X192.5732 Y169.22 E0.99515 F9000 ; Print pattern wall
G1 X171.36 Y190.4332 E0.99515 F9000 ; Print pattern wall
G1 E-0.5 F2100 ; Retract
G1 Z0.95 F7200 ; Z hop
G0 X171.9357 Y148.0068 F7200 ; Move to start next pattern wall
G1 Z0.85 F7200 ; Z hop return
G1 E0.5 F2100 ; Un-retract
G1 X193.1489 Y169.22 E0.99515 F9000 ; Print pattern wall
G1 X171.9357 Y190.4332 E0.99515 F9000 ; Print pattern wall
G1 E-0.5 F2100 ; Retract
G1 Z0.95 F7200 ; Z hop
G0 X172.5113 Y148.0068 F7200 ; Move to start next pattern wall
G1 Z0.85 F7200 ; Z hop return
G1 E0.5 F2100 ; Un-retract
G1 X193.7246 Y169.22 E0.99515 F9000 ; Print pattern wall
G1 X172.5113 Y190.4332 E0.99515 F9000 ; Print pattern wall
G1 E-0.5 F2100 ; Retract
G1 Z0.95 F7200 ; Z hop
G0 X174.9613 Y148.0068 F7200 ; Move to next pattern
G1 Z0.85 F7200 ; Z hop return
G1 E0.5 F2100 ; Un-retract
SET_PRESSURE_ADVANCE ADVANCE=0.055 ; Set pressure advance
M117 PA 0.055
G1 X196.1746 Y169.22 E0.99515 F9000 ; Print pattern wall
G1 X174.9613 Y190.4332 E0.99515 F9000 ; Print pattern wall
G1 E-0.5 F2100 ; Retract
G1 Z0.95 F7200 ; Z hop
G0 X175.537 Y148.0068 F7200 ; Move to start next pattern wall
G1 Z0.85 F7200 ; Z hop return
G1 E0.5 F2100 ; Un-retract
G1 X196.7502 Y169.22 E0.99515 F9000 ; Print pattern wall
G1 X175.537 Y190.4332 E0.99515 F9000 ; Print pattern wall
G1 E-0.5 F2100 ; Retract
G1 Z0.95 F7200 ; Z hop
G0 X176.1127 Y148.0068 F7200 ; Move to start next pattern wall
G1 Z0.85 F7200 ; Z hop return
G1 E0.5 F2100 ; Un-retract
G1 X197.3259 Y169.22 E0.99515 F9000 ; Print pattern wall
G1 X176.1127 Y190.4332 E0.99515 F9000 ; Print pattern wall
G1 E-0.5 F2100 ; Retract
G1 Z0.95 F7200 ; Z hop
G0 X178.5627 Y148.0068 F7200 ; Move to next pattern
G1 Z0.85 F7200 ; Z hop return
G1 E0.5 F2100 ; Un-retract
SET_PRESSURE_ADVANCE ADVANCE=0.06 ; Set pressure advance
M117 PA 0.06
G1 X199.7759 Y169.22 E0.99515 F9000 ; Print pattern wall
G1 X178.5627 Y190.4332 E0.99515 F9000 ; Print pattern wall
G1 E-0.5 F2100 ; Retract
G1 Z0.95 F7200 ; Z hop
G0 X179.1384 Y148.0068 F7200 ; Move to start next pattern wall
G1 Z0.85 F7200 ; Z hop return
G1 E0.5 F2100 ; Un-retract
G1 X200.3516 Y169.22 E0.99515 F9000 ; Print pattern wall
G1 X179.1384 Y190.4332 E0.99515 F9000 ; Print pattern wall
G1 E-0.5 F2100 ; Retract
G1 Z0.95 F7200 ; Z hop
G0 X179.7141 Y148.0068 F7200 ; Move to start next pattern wall
G1 Z0.85 F7200 ; Z hop return
G1 E0.5 F2100 ; Un-retract
G1 X200.9273 Y169.22 E0.99515 F9000 ; Print pattern wall
G1 X179.7141 Y190.4332 E0.99515 F9000 ; Print pattern wall
G1 E-0.5 F2100 ; Retract
G1 Z0.95 F7200 ; Z hop
G0 X182.1641 Y148.0068 F7200 ; Move to next pattern
G1 Z0.85 F7200 ; Z hop return
G1 E0.5 F2100 ; Un-retract
SET_PRESSURE_ADVANCE ADVANCE=0.065 ; Set pressure advance
M117 PA 0.065
G1 X203.3773 Y169.22 E0.99515 F9000 ; Print pattern wall
G1 X182.1641 Y190.4332 E0.99515 F9000 ; Print pattern wall
G1 E-0.5 F2100 ; Retract
G1 Z0.95 F7200 ; Z hop
G0 X182.7398 Y148.0068 F7200 ; Move to start next pattern wall
G1 Z0.85 F7200 ; Z hop return
G1 E0.5 F2100 ; Un-retract
G1 X203.953 Y169.22 E0.99515 F9000 ; Print pattern wall
G1 X182.7398 Y190.4332 E0.99515 F9000 ; Print pattern wall
G1 E-0.5 F2100 ; Retract
G1 Z0.95 F7200 ; Z hop
G0 X183.3155 Y148.0068 F7200 ; Move to start next pattern wall
G1 Z0.85 F7200 ; Z hop return
G1 E0.5 F2100 ; Un-retract
G1 X204.5287 Y169.22 E0.99515 F9000 ; Print pattern wall
G1 X183.3155 Y190.4332 E0.99515 F9000 ; Print pattern wall
G1 E-0.5 F2100 ; Retract
G1 Z0.95 F7200 ; Z hop
G0 X185.7655 Y148.0068 F7200 ; Move to next pattern
G1 Z0.85 F7200 ; Z hop return
G1 E0.5 F2100 ; Un-retract
SET_PRESSURE_ADVANCE ADVANCE=0.07 ; Set pressure advance
M117 PA 0.07
G1 X206.9787 Y169.22 E0.99515 F9000 ; Print pattern wall
G1 X185.7655 Y190.4332 E0.99515 F9000 ; Print pattern wall
G1 E-0.5 F2100 ; Retract
G1 Z0.95 F7200 ; Z hop
G0 X186.3412 Y148.0068 F7200 ; Move to start next pattern wall
G1 Z0.85 F7200 ; Z hop return
G1 E0.5 F2100 ; Un-retract
G1 X207.5544 Y169.22 E0.99515 F9000 ; Print pattern wall
G1 X186.3412 Y190.4332 E0.99515 F9000 ; Print pattern wall
G1 E-0.5 F2100 ; Retract
G1 Z0.95 F7200 ; Z hop
G0 X186.9169 Y148.0068 F7200 ; Move to start next pattern wall
G1 Z0.85 F7200 ; Z hop return
G1 E0.5 F2100 ; Un-retract
G1 X208.1301 Y169.22 E0.99515 F9000 ; Print pattern wall
G1 X186.9169 Y190.4332 E0.99515 F9000 ; Print pattern wall
G1 E-0.5 F2100 ; Retract
G1 Z0.95 F7200 ; Z hop
G0 X189.3669 Y148.0068 F7200 ; Move to next pattern
G1 Z0.85 F7200 ; Z hop return
G1 E0.5 F2100 ; Un-retract
SET_PRESSURE_ADVANCE ADVANCE=0.075 ; Set pressure advance
M117 PA 0.075
G1 X210.5801 Y169.22 E0.99515 F9000 ; Print pattern wall
G1 X189.3669 Y190.4332 E0.99515 F9000 ; Print pattern wall
G1 E-0.5 F2100 ; Retract
G1 Z0.95 F7200 ; Z hop
G0 X189.9426 Y148.0068 F7200 ; Move to start next pattern wall
G1 Z0.85 F7200 ; Z hop return
G1 E0.5 F2100 ; Un-retract
G1 X211.1558 Y169.22 E0.99515 F9000 ; Print pattern wall
G1 X189.9426 Y190.4332 E0.99515 F9000 ; Print pattern wall
G1 E-0.5 F2100 ; Retract
G1 Z0.95 F7200 ; Z hop
G0 X190.5183 Y148.0068 F7200 ; Move to start next pattern wall
G1 Z0.85 F7200 ; Z hop return
G1 E0.5 F2100 ; Un-retract
G1 X211.7315 Y169.22 E0.99515 F9000 ; Print pattern wall
G1 X190.5183 Y190.4332 E0.99515 F9000 ; Print pattern wall
G1 E-0.5 F2100 ; Retract
G1 Z0.95 F7200 ; Z hop
G0 X192.9683 Y148.0068 F7200 ; Move to next pattern
G1 Z0.85 F7200 ; Z hop return
G1 E0.5 F2100 ; Un-retract
SET_PRESSURE_ADVANCE ADVANCE=0.08 ; Set pressure advance
M117 PA 0.08
G1 X214.1815 Y169.22 E0.99515 F9000 ; Print pattern wall
G1 X192.9683 Y190.4332 E0.99515 F9000 ; Print pattern wall
G1 E-0.5 F2100 ; Retract
G1 Z0.95 F7200 ; Z hop
G0 X193.544 Y148.0068 F7200 ; Move to start next pattern wall
G1 Z0.85 F7200 ; Z hop return
G1 E0.5 F2100 ; Un-retract
G1 X214.7572 Y169.22 E0.99515 F9000 ; Print pattern wall
G1 X193.544 Y190.4332 E0.99515 F9000 ; Print pattern wall
G1 E-0.5 F2100 ; Retract
G1 Z0.95 F7200 ; Z hop
G0 X194.1197 Y148.0068 F7200 ; Move to start next pattern wall
G1 Z0.85 F7200 ; Z hop return
G1 E0.5 F2100 ; Un-retract
G1 X215.3329 Y169.22 E0.99515 F9000 ; Print pattern wall
G1 X194.1197 Y190.4332 E0.99515 F9000 ; Print pattern wall
SET_PRESSURE_ADVANCE ADVANCE=0 ; Set pressure advance back to start value
M117 PA 0
G1 E-0.5 F2100 ; Retract
G1 Z0.95 F7200 ; Z hop
G0 Z5.85 F7200 ; Z raise
M104 S0 ; Turn off hotend
M140 S0 ; Turn off bed
M107    ; Turn off fan
;
; End G-code
;
PRINT_END ; End macro. Change name to match yours
;
; FINISH
;
